;FLAVOR:UltiGCode
;TIME:756
;MATERIAL:342
;MATERIAL2:0
;NOZZLE_DIAMETER:0.4
;MINX:48
;MINY:51.013
;MINZ:0.3
;MAXX:72
;MAXY:84.985
;MAXZ:1.98
;Generated with Cura_SteamEngine 4.7.1
M82 ;absolute extrusion mode
G0 F3000 Y50 ;avoid prime blob
G92 E0
G92 E0
G10
;LAYER_COUNT:29
;LAYER:0
M107
G0 F3600 X49.723 Y55.135 Z0.3
;TYPE:SKIRT
G11
G1 F1050 X50.156 Y54.771 E0.07467
G1 X50.833 Y54.375 E0.1782
G1 X51.337 Y54.143 E0.25144
G1 X52.996 Y53.405 E0.49111
G1 X55.45 Y52.23 E0.85026
G1 X56.134 Y51.891 E0.95103
G1 X56.77 Y51.613 E1.04265
G1 X57.389 Y51.401 E1.12902
G1 X58.087 Y51.222 E1.22413
G1 X58.731 Y51.104 E1.31056
G1 X59.257 Y51.047 E1.3804
G1 X59.767 Y51.015 E1.44785
G1 X59.939 Y51.013 E1.47055
G1 X60.766 Y51.048 E1.57982
G1 X61.275 Y51.107 E1.64745
G1 X61.851 Y51.205 E1.72458
G1 X62.504 Y51.368 E1.81342
G1 X63.193 Y51.601 E1.90943
G1 X63.798 Y51.855 E1.99604
G1 X64.347 Y52.128 E2.07697
G1 X66.794 Y53.309 E2.43563
G1 X69.003 Y54.302 E2.75532
G1 X69.099 Y54.344 E2.76915
G1 X69.6 Y54.607 E2.84384
G1 X70.22 Y55.08 E2.94678
G1 X70.864 Y55.722 E3.06681
G1 X71.228 Y56.155 E3.14148
G1 X71.527 Y56.635 E3.21613
G1 X71.755 Y57.152 E3.29072
G1 X71.908 Y57.696 E3.36531
G1 X71.989 Y58.383 E3.45662
G1 X72 Y59.016 E3.54019
G1 X72 Y60.85 E3.78228
G1 X71.99 Y61.556 E3.87548
G1 X71.96 Y62.275 E3.97047
G1 X71.868 Y63.893 E4.18439
G1 X71.79 Y66.6 E4.54186
G1 X71.788 Y69.332 E4.90249
G1 X71.864 Y72.044 E5.26061
G1 X71.981 Y74.251 E5.55235
G1 X72 Y75.012 E5.65283
G1 X72 Y76.85 E5.89545
G1 X71.99 Y77.552 E5.98812
G1 X71.942 Y78.115 E6.0627
G1 X71.815 Y78.666 E6.13734
G1 X71.611 Y79.194 E6.21206
G1 X71.336 Y79.687 E6.28658
G1 X70.927 Y80.21 E6.37422
G1 X70.277 Y80.865 E6.49602
G1 X69.844 Y81.229 E6.57069
G1 X69.167 Y81.625 E6.67422
G1 X68.663 Y81.857 E6.74746
G1 X67.004 Y82.595 E6.98714
G1 X64.55 Y83.77 E7.34628
G1 X63.866 Y84.109 E7.44705
G1 X63.223 Y84.389 E7.53962
G1 X62.605 Y84.6 E7.62582
G1 X61.918 Y84.777 E7.71947
G1 X61.269 Y84.896 E7.80657
G1 X60.743 Y84.953 E7.8764
G1 X60.233 Y84.985 E7.94386
G1 X59.595 Y84.978 E8.02808
G1 X59.234 Y84.952 E8.07585
G1 X58.725 Y84.893 E8.14349
G1 X58.149 Y84.795 E8.22062
G1 X57.496 Y84.632 E8.30946
G1 X56.807 Y84.399 E8.40546
G1 X56.198 Y84.143 E8.49267
G1 X55.653 Y83.872 E8.57301
G1 X53.206 Y82.691 E8.93166
G1 X50.873 Y81.643 E9.26926
G1 X50.374 Y81.376 E9.34397
G1 X49.78 Y80.919 E9.4429
G1 X49.132 Y80.273 E9.56368
G1 X48.769 Y79.84 E9.63826
G1 X48.471 Y79.36 E9.71284
G1 X48.244 Y78.842 E9.78749
G1 X48.091 Y78.298 E9.86209
G1 X48.012 Y77.63 E9.95088
G1 X48 Y76.987 E10.03577
G1 X48 Y75.15 E10.27825
G1 X48.01 Y74.443 E10.37158
G1 X48.04 Y73.726 E10.46631
G1 X48.133 Y72.096 E10.68182
G1 X48.21 Y69.401 E11.03771
G1 X48.212 Y66.658 E11.39978
G1 X48.136 Y63.955 E11.75672
G1 X48.019 Y61.749 E12.04832
G1 X48 Y60.948 E12.15408
G1 X48 Y59.15 E12.39142
G1 X48.01 Y58.448 E12.48409
G1 X48.058 Y57.885 E12.55868
G1 X48.185 Y57.334 E12.63332
G1 X48.389 Y56.806 E12.70803
G1 X48.664 Y56.313 E12.78255
G1 X49.073 Y55.79 E12.87019
G1 X49.723 Y55.135 E12.992
G0 F3600 X50.001 Y55.422
G1 F1050 X50.413 Y55.079 E13.06276
G1 X51 Y54.738 E13.15237
G1 X51.499 Y54.509 E13.22484
G1 X53.166 Y53.768 E13.46565
G1 X55.64 Y52.583 E13.82774
G1 X56.401 Y52.207 E13.93979
G1 X56.905 Y51.99 E14.01222
G1 X57.513 Y51.781 E14.09708
G1 X58.179 Y51.611 E14.18781
G1 X58.776 Y51.502 E14.26792
G1 X59.289 Y51.446 E14.33604
G1 X59.944 Y51.413 E14.42261
G1 X60.72 Y51.445 E14.52513
G1 X61.229 Y51.504 E14.59277
G1 X61.758 Y51.594 E14.6636
G1 X62.401 Y51.755 E14.75109
G1 X63.057 Y51.977 E14.84251
G1 X63.619 Y52.213 E14.92297
G1 X64.147 Y52.476 E15.00083
G1 X66.636 Y53.676 E15.36557
G1 X68.939 Y54.71 E15.6988
G1 X69.412 Y54.961 E15.76948
G1 X69.947 Y55.373 E15.85862
G1 X70.577 Y56.001 E15.97604
G1 X70.92 Y56.413 E16.0468
G1 X71.199 Y56.871 E16.11759
G1 X71.406 Y57.366 E16.18841
G1 X71.537 Y57.886 E16.2592
G1 X71.589 Y58.395 E16.32674
G1 X71.6 Y59.021 E16.40938
G1 X71.6 Y60.844 E16.65002
G1 X71.59 Y61.55 E16.74322
G1 X71.587 Y61.65 E16.75643
G1 X71.561 Y62.252 E16.83596
G1 X71.469 Y63.859 E17.04843
G1 X71.39 Y66.616 E17.41251
G1 X71.388 Y69.317 E17.76904
G1 X71.465 Y72.069 E18.13245
G1 X71.581 Y74.269 E18.42325
G1 X71.6 Y75.017 E18.52202
G1 X71.6 Y76.844 E18.76318
G1 X71.59 Y77.546 E18.85585
G1 X71.542 Y78.08 E18.92663
G1 X71.416 Y78.602 E18.99751
G1 X71.213 Y79.098 E19.06825
G1 X70.939 Y79.559 E19.13904
G1 X70.486 Y80.098 E19.23198
G1 X69.999 Y80.578 E19.32224
G1 X69.587 Y80.921 E19.39301
G1 X69 Y81.262 E19.48261
G1 X68.501 Y81.491 E19.55509
G1 X66.834 Y82.232 E19.79589
G1 X64.36 Y83.417 E20.15799
G1 X63.688 Y83.75 E20.25699
G1 X63.088 Y84.012 E20.34341
G1 X62.481 Y84.22 E20.4281
G1 X61.825 Y84.388 E20.51749
G1 X61.224 Y84.498 E20.59814
G1 X60.711 Y84.554 E20.66626
G1 X60.056 Y84.587 E20.75283
G1 X59.28 Y84.555 E20.85535
G1 X58.771 Y84.496 E20.92299
G1 X58.242 Y84.406 E20.99382
G1 X57.599 Y84.245 E21.08131
G1 X56.943 Y84.023 E21.17273
G1 X56.377 Y83.785 E21.25378
G1 X55.853 Y83.524 E21.33105
G1 X53.364 Y82.324 E21.69579
G1 X51.036 Y81.278 E22.03268
G1 X50.564 Y81.023 E22.10349
G1 X50.052 Y80.626 E22.18902
G1 X49.42 Y79.996 E22.30681
G1 X49.077 Y79.583 E22.37767
G1 X48.8 Y79.124 E22.44844
G1 X48.593 Y78.629 E22.51926
G1 X48.463 Y78.109 E22.59002
G1 X48.407 Y77.469 E22.67482
G1 X48.4 Y76.982 E22.73911
G1 X48.4 Y75.156 E22.98014
G1 X48.41 Y74.449 E23.07347
G1 X48.413 Y74.348 E23.08681
G1 X48.439 Y73.749 E23.16595
G1 X48.531 Y72.142 E23.37843
G1 X48.61 Y69.377 E23.74355
G1 X48.612 Y66.683 E24.09916
G1 X48.535 Y63.923 E24.46362
G1 X48.419 Y61.731 E24.75337
G1 X48.4 Y60.944 E24.85729
G1 X48.4 Y59.156 E25.0933
G1 X48.41 Y58.454 E25.18598
G1 X48.458 Y57.92 E25.25675
G1 X48.584 Y57.398 E25.32763
G1 X48.787 Y56.902 E25.39838
G1 X49.061 Y56.441 E25.46916
G1 X49.514 Y55.902 E25.5621
G1 X50.001 Y55.422 E25.65236
G0 F3600 X50.28 Y55.709
G1 F1050 X50.67 Y55.387 E25.71912
G1 X51.167 Y55.101 E25.79481
G1 X51.662 Y54.874 E25.8667
G1 X53.352 Y54.122 E26.11086
G1 X55.793 Y52.954 E26.46806
G1 X56.569 Y52.57 E26.58235
G1 X57.04 Y52.366 E26.6501
G1 X57.637 Y52.161 E26.73342
G1 X58.271 Y52 E26.81977
G1 X58.82 Y51.899 E26.89345
G1 X59.321 Y51.844 E26.95998
G1 X59.949 Y51.813 E27.04298
G1 X60.673 Y51.842 E27.13862
G1 X61.182 Y51.901 E27.20626
G1 X61.977 Y52.057 E27.3132
G1 X62.564 Y52.224 E27.39376
G1 X63.202 Y52.464 E27.48374
G1 X63.441 Y52.571 E27.5183
G1 X64.001 Y52.85 E27.60089
G1 X66.462 Y54.036 E27.9615
G1 X68.648 Y55.019 E28.27788
G1 X68.778 Y55.076 E28.29662
G1 X69.224 Y55.315 E28.36341
G1 X69.674 Y55.666 E28.43874
G1 X70.29 Y56.279 E28.55346
G1 X70.612 Y56.669 E28.62021
G1 X70.868 Y57.104 E28.68684
G1 X71.053 Y57.575 E28.75364
G1 X71.161 Y58.069 E28.82038
G1 X71.195 Y58.599 E28.89049
G1 X71.2 Y59.026 E28.94686
G1 X71.2 Y60.838 E29.18604
G1 X71.19 Y61.544 E29.27924
G1 X71.162 Y62.23 E29.36987
G1 X71.069 Y63.861 E29.58551
G1 X70.99 Y66.612 E29.94879
G1 X70.988 Y69.329 E30.30744
G1 X71.065 Y72.067 E30.669
G1 X71.182 Y74.287 E30.96244
G1 X71.2 Y75.022 E31.05949
G1 X71.2 Y76.839 E31.29934
G1 X71.19 Y77.541 E31.39201
G1 X71.143 Y78.044 E31.45869
G1 X71.017 Y78.534 E31.52548
G1 X70.815 Y78.997 E31.59216
G1 X70.544 Y79.424 E31.65891
G1 X70.193 Y79.826 E31.72936
G1 X69.72 Y80.291 E31.81691
G1 X69.33 Y80.613 E31.88367
G1 X68.833 Y80.899 E31.95936
G1 X68.338 Y81.126 E32.03125
G1 X66.648 Y81.878 E32.27541
G1 X64.207 Y83.046 E32.63261
G1 X63.51 Y83.392 E32.73533
G1 X62.952 Y83.636 E32.81572
G1 X62.357 Y83.84 E32.89875
G1 X61.733 Y83.999 E32.98375
G1 X61.18 Y84.101 E33.05797
G1 X60.679 Y84.156 E33.1245
G1 X60.051 Y84.187 E33.2075
G1 X59.327 Y84.158 E33.30315
G1 X58.818 Y84.099 E33.37078
G1 X58.023 Y83.943 E33.47772
G1 X57.436 Y83.776 E33.55828
G1 X56.788 Y83.532 E33.64968
G1 X56.555 Y83.427 E33.68342
G1 X55.989 Y83.145 E33.76689
G1 X53.538 Y81.964 E34.12602
G1 X51.199 Y80.912 E34.46456
G1 X50.755 Y80.67 E34.53131
G1 X50.325 Y80.333 E34.60342
G1 X49.708 Y79.718 E34.71841
G1 X49.387 Y79.327 E34.78519
G1 X49.131 Y78.891 E34.85193
G1 X48.947 Y78.42 E34.91868
G1 X48.839 Y77.926 E34.98543
G1 X48.805 Y77.386 E35.05685
G1 X48.8 Y76.977 E35.11084
G1 X48.8 Y75.162 E35.35042
G1 X48.81 Y74.455 E35.44375
G1 X48.838 Y73.771 E35.53412
G1 X48.932 Y72.119 E35.75253
G1 X49.01 Y69.381 E36.1141
G1 X49.012 Y66.671 E36.47182
G1 X48.934 Y63.88 E36.84037
G1 X48.818 Y61.713 E37.12683
G1 X48.8 Y60.939 E37.22902
G1 X48.8 Y59.161 E37.46372
G1 X48.81 Y58.459 E37.55639
G1 X48.857 Y57.956 E37.62308
G1 X48.983 Y57.466 E37.68986
G1 X49.185 Y57.003 E37.75654
G1 X49.456 Y56.576 E37.8233
G1 X49.807 Y56.174 E37.89374
G1 X50.28 Y55.709 E37.9813
G10
;MESH:bearing_holder_2.stl
G0 F3600 X51.848 Y57.712
G0 X52.755 Y58.618
G0 X53.559 Y58.659
;TYPE:WALL-INNER
G11
G1 F1050 X53.085 Y58.926 E38.0567
G1 X52.747 Y59.35 E38.13185
G1 X52.6 Y59.855 E38.20475
G1 X52.6 Y59.35 E38.21705
G1 X52.6 Y58.748 E38.30048
G1 X52.748 Y58.6 E38.32949
G1 X53.085 Y58.6 E38.3762
G1 X53.559 Y58.6 E38.40652
G1 X54.039 Y58.6 E38.47305
G1 X53.559 Y58.659 E38.47831
G0 F3600 X53.528 Y58.65
G0 X52.65 Y60.56
G0 X52.688 Y60.525
G1 F1050 X52.996 Y60.991 E38.55574
G1 X53.442 Y61.295 E38.63054
G1 X53.919 Y61.4 E38.69824
G1 X53.442 Y61.4 E38.70662
G1 X52.748 Y61.4 E38.8028
G1 X52.6 Y61.252 E38.83181
G1 X52.6 Y60.991 E38.86799
G1 X52.6 Y60.525 E38.90572
G1 X52.6 Y59.945 E38.98611
G1 X52.688 Y60.525 E38.99561
G0 F3600 X52.65 Y60.56
G0 X57.275 Y62.625
G0 X57.347 Y62.556
G1 F1050 X57.902 Y63.026 E39.09641
G1 X58.537 Y63.38 E39.19717
G1 X59.231 Y63.602 E39.29816
G1 X59.955 Y63.683 E39.39914
G1 X60.679 Y63.62 E39.49986
G1 X61.378 Y63.415 E39.60082
G1 X62.022 Y63.078 E39.70156
G1 X62.587 Y62.62 E39.80237
G1 X63.053 Y62.06 E39.90334
G1 X63.398 Y61.42 E40.00412
G1 X63.609 Y60.732 E40.10386
G1 X63.678 Y60.174 E40.18178
G1 X63.643 Y59.455 E40.28156
G1 X63.464 Y58.751 E40.38223
G1 X63.151 Y58.093 E40.48323
G1 X62.714 Y57.51 E40.58421
G1 X62.173 Y57.026 E40.68482
G1 X61.544 Y56.657 E40.78589
G1 X60.858 Y56.419 E40.88653
G1 X60.136 Y56.319 E40.98756
G1 X59.411 Y56.365 E41.08824
G1 X58.707 Y56.552 E41.1892
G1 X58.055 Y56.873 E41.28993
G1 X57.477 Y57.316 E41.39086
G1 X56.998 Y57.864 E41.49174
G1 X56.637 Y58.497 E41.59274
G1 X56.408 Y59.187 E41.6935
G1 X56.318 Y59.909 E41.79435
G1 X56.372 Y60.635 E41.89525
G1 X56.569 Y61.336 E41.99617
G1 X56.897 Y61.983 E42.09671
G1 X57.347 Y62.556 E42.19769
G0 F3600 X57.275 Y62.625
G0 X58.522 Y63.416
G0 X59.955 Y63.722
G0 X61.392 Y63.452
G0 X62.615 Y62.648
G0 X64.492 Y59.88
G0 X64.591 Y59.886
G1 F1050 X64.688 Y60.525 E42.28727
G1 X64.996 Y60.991 E42.36469
G1 X65.246 Y61.161 E42.40659
G1 X65.306 Y61.202 E42.41666
G1 X65.442 Y61.295 E42.4395
G1 X65.718 Y61.355 E42.47865
G1 X65.919 Y61.4 E42.5072
G1 X65.709 Y61.4 E42.50929
G1 X65.459 Y61.43 E42.5159
G1 X65.124 Y61.471 E42.54872
G1 X65.056 Y61.496 E42.55791
G1 X64.53 Y61.696 E42.63591
G1 X64.023 Y62.046 E42.7213
G1 X63.643 Y62.472 E42.80042
G1 X63.306 Y62.903 E42.87625
G1 X62.95 Y63.264 E42.94652
G1 X62.553 Y63.582 E43.01702
G1 X62.129 Y63.85 E43.08654
G1 X61.662 Y64.072 E43.15821
G1 X61.183 Y64.237 E43.22843
G1 X60.689 Y64.344 E43.29848
G1 X60.183 Y64.394 E43.36896
G1 X59.675 Y64.387 E43.43937
G1 X59.172 Y64.321 E43.50968
G1 X58.678 Y64.196 E43.58031
G1 X58.199 Y64.014 E43.65133
G1 X57.764 Y63.788 E43.71927
G1 X57.328 Y63.494 E43.79216
G1 X56.954 Y63.172 E43.86056
G1 X56.59 Y62.779 E43.9348
G1 X56.284 Y62.374 E44.00516
G1 X55.856 Y61.945 E44.08915
G1 X55.32 Y61.623 E44.17581
G1 X54.914 Y61.497 E44.23473
G1 X54.731 Y61.44 E44.2613
G1 X54.497 Y61.42 E44.29385
G1 X54.282 Y61.4 E44.32378
G1 X54.04 Y61.4 E44.35732
G1 X54.274 Y61.359 E44.35881
G1 X54.506 Y61.317 E44.366
G1 X54.612 Y61.251 E44.36913
G1 X54.775 Y61.15 E44.39035
G1 X54.967 Y61.029 E44.4218
G1 X55.282 Y60.589 E44.4968
G1 X55.41 Y60.062 E44.57197
G1 X55.33 Y59.525 E44.64722
G1 X55.052 Y59.059 E44.72242
G1 X54.746 Y58.827 E44.77565
G1 X54.686 Y58.781 E44.78613
G1 X54.621 Y58.732 E44.79741
G1 X54.28 Y58.642 E44.84629
G1 X54.122 Y58.6 E44.86895
G1 X54.291 Y58.6 E44.8708
G1 X54.6 Y58.563 E44.88076
G1 X54.876 Y58.529 E44.90999
G1 X54.947 Y58.503 E44.91949
G1 X55.47 Y58.304 E44.99705
G1 X55.977 Y57.954 E45.08244
G1 X56.357 Y57.528 E45.16156
G1 X56.694 Y57.097 E45.23739
G1 X57.05 Y56.736 E45.30766
G1 X57.447 Y56.418 E45.37816
G1 X57.871 Y56.15 E45.44768
G1 X58.338 Y55.928 E45.51935
G1 X58.817 Y55.763 E45.58956
G1 X59.311 Y55.656 E45.65962
G1 X59.817 Y55.606 E45.73009
G1 X60.325 Y55.613 E45.80051
G1 X60.828 Y55.679 E45.87082
G1 X61.322 Y55.804 E45.94145
G1 X61.801 Y55.986 E46.01247
G1 X62.236 Y56.212 E46.08041
G1 X62.672 Y56.506 E46.1533
G1 X63.046 Y56.828 E46.2217
G1 X63.408 Y57.219 E46.29555
G1 X63.716 Y57.626 E46.36629
G1 X64.144 Y58.055 E46.45028
G1 X64.68 Y58.377 E46.53695
G1 X65.079 Y58.501 E46.59486
G1 X65.269 Y58.56 E46.62243
G1 X65.565 Y58.586 E46.66362
G1 X65.718 Y58.6 E46.68491
G1 X66.039 Y58.6 E46.7294
G1 X65.723 Y58.638 E46.73136
G1 X65.559 Y58.659 E46.73532
G1 X65.382 Y58.759 E46.74281
G1 X65.209 Y58.856 E46.76486
G1 X65.085 Y58.926 E46.7846
G1 X64.747 Y59.35 E46.85975
G1 X64.591 Y59.886 E46.93712
G0 F3600 X64.492 Y59.88
G0 X65.324 Y59.206
G0 X66.664 Y58.643
G0 X66.621 Y58.732
G1 F1050 X66.122 Y58.6 E47.00867
G1 X66.621 Y58.6 E47.01961
G1 X67.252 Y58.6 E47.10707
G1 X67.4 Y58.748 E47.13608
G1 X67.4 Y59.059 E47.17918
G1 X67.4 Y59.525 E47.24377
G1 X67.4 Y59.995 E47.30891
G1 X67.33 Y59.525 E47.31518
G1 X67.052 Y59.059 E47.35819
G1 X66.621 Y58.732 E47.43317
G0 F3600 X66.664 Y58.643
G0 X66.983 Y59.649
G0 X67.035 Y61.101
G0 X66.967 Y61.029
G1 F1050 X67.282 Y60.589 E47.50817
G1 X67.4 Y60.103 E47.57749
G1 X67.4 Y60.589 E47.58701
G1 X67.4 Y61.252 E47.6789
G1 X67.252 Y61.4 E47.70791
G1 X66.967 Y61.4 E47.74742
G1 X66.506 Y61.4 E47.81131
G1 X66.04 Y61.4 E47.8759
G1 X66.506 Y61.317 E47.88339
G1 X66.967 Y61.029 E47.92977
G0 F3600 X67.035 Y61.101
G0 X65.981 Y61.043
G0 X64.653 Y60.653
G0 X65.07 Y60.378
;TYPE:WALL-OUTER
G1 F1050 X65.286 Y60.705 E47.98409
G1 X65.603 Y60.921 E48.03726
G1 X65.981 Y61.004 E48.0909
G1 X66.36 Y60.937 E48.14424
G1 X66.688 Y60.732 E48.19785
G1 X66.912 Y60.419 E48.2512
G1 X67.003 Y60.044 E48.30468
G1 X66.946 Y59.662 E48.35821
G1 X66.748 Y59.331 E48.41167
G1 X66.442 Y59.098 E48.46498
G1 X66.068 Y58.999 E48.5186
G1 X65.686 Y59.046 E48.57194
G1 X65.349 Y59.236 E48.62556
G1 X65.109 Y59.537 E48.67892
G1 X65 Y59.913 E48.73318
G1 X65.07 Y60.378 E48.79835
G0 F3600 X65.18 Y60.545
G0 X64.763 Y60.82
G0 X64.038 Y58.089
G0 X64.392 Y57.737
G1 F1050 X64.845 Y58.009 E48.87159
G1 X65.347 Y58.165 E48.94445
G1 X65.736 Y58.2 E48.99858
G1 X67.418 Y58.2 E49.2317
G1 X67.8 Y58.582 E49.30658
G1 X67.8 Y61.418 E49.69965
G1 X67.418 Y61.8 E49.77453
G1 X65.733 Y61.8 E50.00807
G1 X65.22 Y61.862 E50.07969
G1 X64.717 Y62.053 E50.15426
G1 X64.29 Y62.348 E50.22619
G1 X63.95 Y62.729 E50.29697
G1 X63.607 Y63.167 E50.37407
G1 X63.221 Y63.559 E50.45032
G1 X62.787 Y63.907 E50.52743
G1 X62.319 Y64.202 E50.6041
G1 X61.812 Y64.443 E50.68191
G1 X61.291 Y64.623 E50.75831
G1 X60.753 Y64.74 E50.83461
G1 X60.199 Y64.794 E50.91176
G1 X59.642 Y64.787 E50.98897
G1 X59.099 Y64.715 E51.06489
G1 X58.559 Y64.579 E51.14207
G1 X58.037 Y64.38 E51.2195
G1 X57.555 Y64.13 E51.29475
G1 X57.089 Y63.816 E51.37264
G1 X56.672 Y63.457 E51.4489
G1 X56.288 Y63.042 E51.52726
G1 X55.982 Y62.637 E51.59762
G1 X55.608 Y62.263 E51.67093
G1 X55.155 Y61.991 E51.74416
G1 X54.653 Y61.835 E51.81702
G1 X54.264 Y61.8 E51.87115
G1 X52.582 Y61.8 E52.10428
G1 X52.2 Y61.418 E52.17915
G1 X52.2 Y58.582 E52.57222
G1 X52.582 Y58.2 E52.6471
G1 X54.267 Y58.2 E52.88064
G1 X54.78 Y58.138 E52.95226
G1 X55.283 Y57.947 E53.02683
G1 X55.71 Y57.652 E53.09877
G1 X56.05 Y57.271 E53.16954
G1 X56.393 Y56.833 E53.24665
G1 X56.779 Y56.441 E53.3229
G1 X57.213 Y56.093 E53.4
G1 X57.681 Y55.798 E53.47668
G1 X58.188 Y55.557 E53.55448
G1 X58.709 Y55.377 E53.63088
G1 X59.247 Y55.26 E53.70719
G1 X59.801 Y55.206 E53.78434
G1 X60.358 Y55.213 E53.86154
G1 X60.901 Y55.285 E53.93746
G1 X61.441 Y55.421 E54.01464
G1 X61.963 Y55.62 E54.09207
G1 X62.445 Y55.87 E54.16733
G1 X62.911 Y56.184 E54.24521
G1 X63.328 Y56.543 E54.32147
G1 X63.71 Y56.956 E54.39945
G1 X64.018 Y57.363 E54.47019
G1 X64.392 Y57.737 E54.5435
