;FLAVOR:UltiGCode
;TIME:2789
;MATERIAL:1361
;MATERIAL2:0
;NOZZLE_DIAMETER:0.4
;MINX:50.015
;MINY:50.237
;MINZ:0.3
;MAXX:76.303
;MAXY:76.461
;MAXZ:22.5
;Generated with Cura_SteamEngine 4.7.1
M82 ;absolute extrusion mode
G0 F3000 Y50 ;avoid prime blob
G92 E0
G92 E0
G10
;LAYER_COUNT:371
;LAYER:0
M107
G0 F3600 X52.958 Y53.135 Z0.3
;TYPE:SKIRT
G11
G1 F1050 X53.364 Y52.751 E0.07377
G1 X53.823 Y52.369 E0.15259
G1 X54.296 Y52.02 E0.23018
G1 X54.745 Y51.724 E0.30117
G1 X55.275 Y51.417 E0.38202
G1 X55.83 Y51.142 E0.46378
G1 X56.569 Y50.839 E0.56921
G1 X57.095 Y50.662 E0.64247
G1 X57.75 Y50.486 E0.73199
G1 X58.308 Y50.374 E0.80712
G1 X59.104 Y50.271 E0.91307
G1 X59.631 Y50.237 E0.98278
G1 X60.549 Y50.244 E1.10396
G1 X61.19 Y50.288 E1.18877
G1 X63.892 Y50.435 E1.54596
G1 X66.636 Y50.508 E1.90829
G1 X68.432 Y50.504 E2.14537
G1 X69.384 Y50.504 E2.27103
G1 X70.076 Y50.514 E2.36238
G1 X70.639 Y50.563 E2.43698
G1 X71.19 Y50.69 E2.51162
G1 X71.717 Y50.893 E2.58617
G1 X72.211 Y51.169 E2.66086
G1 X72.497 Y51.374 E2.70731
G1 X73.277 Y51.991 E2.83859
G1 X73.456 Y52.139 E2.86925
G1 X73.958 Y52.565 E2.95615
G1 X74.362 Y52.96 E3.03074
G1 X74.707 Y53.409 E3.10548
G1 X74.984 Y53.901 E3.18001
G1 X75.153 Y54.316 E3.23916
G1 X75.421 Y55.099 E3.3484
G1 X75.536 Y55.452 E3.39741
G1 X75.749 Y56.138 E3.49222
G1 X75.85 Y56.525 E3.54502
G1 X76.003 Y57.227 E3.63986
G1 X76.099 Y57.698 E3.70331
G1 X76.234 Y58.414 E3.79948
G1 X76.303 Y59.186 E3.90179
G1 X76.293 Y59.73 E3.97362
G1 X76.25 Y60.703 E4.10218
G1 X76.209 Y61.417 E4.19658
G1 X76.143 Y61.975 E4.27075
G1 X76.058 Y62.48 E4.33835
G1 X75.875 Y63.487 E4.47345
G1 X75.745 Y64.14 E4.56134
G1 X75.629 Y64.587 E4.62229
G1 X75.271 Y65.699 E4.7765
G1 X75.018 Y66.429 E4.87848
G1 X74.797 Y67.042 E4.96449
G1 X74.568 Y67.559 E5.03913
G1 X74.385 Y67.868 E5.08654
G1 X73.798 Y68.768 E5.22837
G1 X73.556 Y69.124 E5.28519
G1 X73.165 Y69.682 E5.37513
G1 X72.599 Y70.392 E5.49499
G1 X72.128 Y70.946 E5.59097
G1 X71.678 Y71.461 E5.68125
G1 X71.275 Y71.861 E5.7562
G1 X70.668 Y72.383 E5.86188
G1 X69.726 Y73.167 E6.02365
G1 X69.231 Y73.567 E6.10766
G1 X68.66 Y73.953 E6.19864
G1 X67.746 Y74.46 E6.3366
G1 X67.53 Y74.574 E6.36884
G1 X66.858 Y74.918 E6.46849
G1 X66.135 Y75.25 E6.57351
G1 X65.403 Y75.567 E6.67881
G1 X64.725 Y75.849 E6.77573
G1 X64.189 Y76.029 E6.85037
G1 X63.867 Y76.098 E6.89384
G1 X63.127 Y76.225 E6.99295
G1 X62.588 Y76.309 E7.06495
G1 X61.979 Y76.395 E7.14614
G1 X61.523 Y76.433 E7.20654
G1 X60.595 Y76.456 E7.32907
G1 X59.876 Y76.461 E7.42398
G1 X59.203 Y76.457 E7.51282
G1 X58.663 Y76.429 E7.5842
G1 X58.407 Y76.407 E7.61811
G1 X57.578 Y76.327 E7.72805
G1 X56.918 Y76.255 E7.81569
G1 X56.362 Y76.155 E7.89026
G1 X55.647 Y75.897 E7.99059
G1 X54.97 Y75.551 E8.09095
G1 X53.989 Y75.002 E8.23934
G1 X53.389 Y74.654 E8.3309
G1 X52.921 Y74.337 E8.40551
G1 X52.503 Y73.956 E8.48017
G1 X52.142 Y73.521 E8.55479
G1 X51.847 Y73.039 E8.62938
G1 X51.618 Y72.509 E8.70559
G1 X51.31 Y71.624 E8.82929
G1 X51.266 Y71.49 E8.8479
G1 X51.071 Y70.859 E8.93508
G1 X50.943 Y70.308 E9.00975
G1 X50.904 Y69.98 E9.05335
G1 X50.858 Y69.364 E9.13489
G1 X50.758 Y67.708 E9.35388
G1 X50.521 Y65.039 E9.70757
G1 X50.204 Y62.327 E10.06799
G1 X50.122 Y61.742 E10.14597
G1 X50.045 Y61.021 E10.24168
G1 X50.015 Y60.462 E10.31558
G1 X50.021 Y59.799 E10.4031
G1 X50.06 Y59.259 E10.47456
G1 X50.127 Y58.704 E10.54835
G1 X50.235 Y58.115 E10.6274
G1 X50.381 Y57.536 E10.70622
G1 X50.539 Y57.012 E10.77846
G1 X50.741 Y56.471 E10.85469
G1 X50.986 Y55.918 E10.93453
G1 X51.223 Y55.448 E11.00401
G1 X51.497 Y54.975 E11.07617
G1 X51.88 Y54.406 E11.1667
G1 X52.195 Y53.985 E11.23611
G1 X52.573 Y53.538 E11.31338
G1 X52.958 Y53.135 E11.38695
G0 F3600 X53.449 Y53.215
G1 F1050 X53.825 Y52.884 E11.45308
G1 X54.246 Y52.549 E11.52409
G1 X54.776 Y52.177 E11.60957
G1 X55.212 Y51.912 E11.67692
G1 X55.656 Y51.669 E11.74373
G1 X56.218 Y51.407 E11.82558
G1 X56.713 Y51.212 E11.8958
G1 X57.204 Y51.046 E11.96422
G1 X57.846 Y50.875 E12.05192
G1 X58.371 Y50.769 E12.12262
G1 X59.146 Y50.669 E12.22576
G1 X59.961 Y50.631 E12.33346
G1 X60.522 Y50.643 E12.40753
G1 X61.143 Y50.685 E12.48969
G1 X63.895 Y50.835 E12.85349
G1 X66.625 Y50.908 E13.21398
G1 X68.433 Y50.904 E13.45264
G1 X69.378 Y50.904 E13.57738
G1 X70.07 Y50.914 E13.66873
G1 X70.604 Y50.962 E13.7395
G1 X71.125 Y51.089 E13.81029
G1 X71.622 Y51.291 E13.88111
G1 X72.249 Y51.688 E13.97906
G1 X72.971 Y52.258 E14.10049
G1 X73.197 Y52.444 E14.13913
G1 X73.699 Y52.87 E14.22603
G1 X74.081 Y53.247 E14.29688
G1 X74.403 Y53.676 E14.36768
G1 X74.657 Y54.148 E14.43844
G1 X74.775 Y54.446 E14.48074
G1 X75.041 Y55.222 E14.58903
G1 X75.154 Y55.57 E14.63732
G1 X75.367 Y56.256 E14.73214
G1 X75.459 Y56.61 E14.78042
G1 X75.611 Y57.307 E14.87459
G1 X75.706 Y57.772 E14.93723
G1 X75.841 Y58.488 E15.03341
G1 X75.903 Y59.182 E15.12538
G1 X75.893 Y59.717 E15.19602
G1 X75.851 Y60.68 E15.32325
G1 X75.81 Y61.394 E15.41766
G1 X75.749 Y61.908 E15.48598
G1 X75.664 Y62.409 E15.55306
G1 X75.47 Y63.473 E15.69582
G1 X75.353 Y64.062 E15.77509
G1 X75.249 Y64.464 E15.8299
G1 X74.893 Y65.568 E15.98302
G1 X74.642 Y66.293 E16.08429
G1 X74.421 Y66.906 E16.1703
G1 X74.202 Y67.396 E16.24115
G1 X74.05 Y67.65 E16.28022
G1 X73.467 Y68.544 E16.42111
G1 X73.228 Y68.895 E16.47716
G1 X72.837 Y69.453 E16.5671
G1 X72.291 Y70.137 E16.68262
G1 X71.827 Y70.683 E16.77721
G1 X71.377 Y71.198 E16.86748
G1 X71.014 Y71.558 E16.93497
G1 X70.412 Y72.075 E17.03971
G1 X69.475 Y72.856 E17.20073
G1 X68.98 Y73.256 E17.28473
G1 X68.465 Y73.603 E17.3667
G1 X67.558 Y74.106 E17.50361
G1 X67.347 Y74.218 E17.53514
G1 X66.675 Y74.562 E17.63479
G1 X65.972 Y74.885 E17.73691
G1 X65.25 Y75.198 E17.84079
G1 X64.572 Y75.48 E17.93771
G1 X64.062 Y75.648 E18.00859
G1 X63.799 Y75.704 E18.04409
G1 X63.065 Y75.83 E18.14239
G1 X62.532 Y75.913 E18.2136
G1 X61.923 Y75.999 E18.29478
G1 X61.513 Y76.033 E18.34909
G1 X60.592 Y76.056 E18.4707
G1 X59.879 Y76.061 E18.56482
G1 X59.206 Y76.057 E18.65365
G1 X58.697 Y76.03 E18.72094
G1 X58.445 Y76.009 E18.75432
G1 X57.622 Y75.93 E18.86345
G1 X56.962 Y75.858 E18.95109
G1 X56.434 Y75.76 E19.02197
G1 X55.818 Y75.536 E19.1085
G1 X55.162 Y75.2 E19.20578
G1 X54.19 Y74.656 E19.35282
G1 X53.59 Y74.308 E19.44437
G1 X53.147 Y74.005 E19.51522
G1 X52.755 Y73.64 E19.58592
G1 X52.421 Y73.22 E19.65675
G1 X52.152 Y72.756 E19.72755
G1 X51.996 Y72.377 E19.78165
G1 X51.688 Y71.492 E19.90534
G1 X51.648 Y71.372 E19.92204
G1 X51.453 Y70.741 E20.00922
G1 X51.334 Y70.218 E20.08002
G1 X51.303 Y69.95 E20.11563
G1 X51.261 Y69.395 E20.1891
G1 X51.16 Y67.717 E20.411
G1 X50.919 Y64.996 E20.77158
G1 X50.594 Y62.224 E21.13999
G1 X50.508 Y61.605 E21.22248
G1 X50.443 Y60.985 E21.30477
G1 X50.415 Y60.46 E21.37417
G1 X50.421 Y59.811 E21.45984
G1 X50.459 Y59.292 E21.52853
G1 X50.521 Y58.771 E21.59779
G1 X50.628 Y58.194 E21.67525
G1 X50.768 Y57.638 E21.75093
G1 X50.916 Y57.146 E21.81875
G1 X51.114 Y56.616 E21.89343
G1 X51.35 Y56.084 E21.97026
G1 X51.712 Y55.396 E22.07288
G1 X52.208 Y54.634 E22.19289
G1 X52.669 Y54.039 E22.29225
G1 X53.015 Y53.649 E22.36107
G1 X53.449 Y53.215 E22.44208
G0 F3600 X53.53 Y53.695
G1 F1050 X54.084 Y53.189 E22.54112
G1 X54.479 Y52.874 E22.60781
G1 X54.999 Y52.509 E22.69168
G1 X55.485 Y52.217 E22.76652
G1 X56.055 Y51.92 E22.85136
G1 X56.533 Y51.71 E22.92027
G1 X57.135 Y51.487 E23.00501
G1 X57.71 Y51.321 E23.08401
G1 X58.32 Y51.185 E23.16651
G1 X58.84 Y51.104 E23.23598
G1 X59.475 Y51.044 E23.32017
G1 X60.092 Y51.031 E23.40163
G1 X60.495 Y51.042 E23.45485
G1 X61.14 Y51.086 E23.54019
G1 X63.861 Y51.235 E23.8999
G1 X66.616 Y51.308 E24.26369
G1 X68.434 Y51.304 E24.50366
G1 X69.372 Y51.304 E24.62748
G1 X70.064 Y51.314 E24.71883
G1 X70.568 Y51.362 E24.78566
G1 X71.057 Y51.487 E24.85228
G1 X71.521 Y51.689 E24.91908
G1 X72.001 Y52.002 E24.99473
G1 X72.77 Y52.61 E25.12413
G1 X72.938 Y52.749 E25.15291
G1 X73.44 Y53.175 E25.23982
G1 X73.799 Y53.532 E25.30665
G1 X74.097 Y53.94 E25.37334
G1 X74.396 Y54.575 E25.46599
G1 X74.661 Y55.346 E25.5736
G1 X74.772 Y55.689 E25.62119
G1 X74.985 Y56.375 E25.71601
G1 X75.068 Y56.695 E25.75964
G1 X75.219 Y57.387 E25.85314
G1 X75.313 Y57.846 E25.91498
G1 X75.448 Y58.562 E26.01116
G1 X75.503 Y59.179 E26.09293
G1 X75.493 Y59.704 E26.16224
G1 X75.452 Y60.657 E26.28815
G1 X75.411 Y61.371 E26.38256
G1 X75.277 Y62.298 E26.50619
G1 X75.078 Y63.395 E26.65336
G1 X74.961 Y63.984 E26.73263
G1 X74.868 Y64.342 E26.78145
G1 X74.536 Y65.373 E26.92442
G1 X74.265 Y66.157 E27.03392
G1 X74.044 Y66.77 E27.11993
G1 X73.715 Y67.432 E27.21752
G1 X73.137 Y68.319 E27.35726
G1 X72.901 Y68.665 E27.41255
G1 X72.51 Y69.223 E27.50249
G1 X71.983 Y69.882 E27.61387
G1 X71.526 Y70.42 E27.70705
G1 X71.076 Y70.935 E27.79732
G1 X70.753 Y71.255 E27.85734
G1 X70.156 Y71.768 E27.96124
G1 X69.223 Y72.545 E28.12151
G1 X68.728 Y72.945 E28.20552
G1 X68.271 Y73.253 E28.27827
G1 X67.371 Y73.753 E28.41417
G1 X67.165 Y73.861 E28.44487
G1 X66.417 Y74.243 E28.55574
G1 X65.809 Y74.52 E28.64393
G1 X65.096 Y74.829 E28.7465
G1 X64.418 Y75.111 E28.84343
G1 X63.732 Y75.31 E28.93772
G1 X63.003 Y75.435 E29.03535
G1 X62.476 Y75.517 E29.10575
G1 X61.867 Y75.603 E29.18694
G1 X61.502 Y75.633 E29.23528
G1 X60.589 Y75.656 E29.35583
G1 X59.881 Y75.661 E29.44929
G1 X59.208 Y75.657 E29.53813
G1 X58.518 Y75.614 E29.62939
G1 X57.665 Y75.532 E29.7425
G1 X57.005 Y75.46 E29.83014
G1 X56.508 Y75.366 E29.8969
G1 X55.988 Y75.174 E29.97007
G1 X55.354 Y74.849 E30.06412
G1 X54.391 Y74.31 E30.20979
G1 X53.791 Y73.962 E30.30135
G1 X53.375 Y73.675 E30.36806
G1 X53.009 Y73.325 E30.43491
G1 X52.703 Y72.923 E30.50159
G1 X52.374 Y72.246 E30.60095
G1 X52.066 Y71.361 E30.72464
G1 X52.031 Y71.254 E30.7395
G1 X51.836 Y70.623 E30.82668
G1 X51.702 Y69.919 E30.92128
G1 X51.657 Y69.316 E31.0011
G1 X51.557 Y67.659 E31.22022
G1 X51.316 Y64.947 E31.57961
G1 X50.996 Y62.211 E31.94323
G1 X50.905 Y61.558 E32.03026
G1 X50.841 Y60.948 E32.11122
G1 X50.813 Y60.142 E32.21767
G1 X50.857 Y59.326 E32.32554
G1 X50.96 Y58.574 E32.42573
G1 X51.154 Y57.741 E32.53863
G1 X51.367 Y57.072 E32.63131
G1 X51.561 Y56.583 E32.70075
G1 X51.835 Y56.002 E32.78554
G1 X52.098 Y55.529 E32.85698
G1 X52.537 Y54.861 E32.96249
G1 X52.978 Y54.293 E33.05742
G1 X53.53 Y53.695 E33.16484
G10
G0 F3600 X60.278 Y53.559
G0 X61.422 Y53.706
G0 X62.304 Y53.979
G0 X69.022 Y56.801
G11
G1 F1050 X69.156 Y56.704 E33.18668
G1 X69.245 Y56.704 E33.19842
G1 X69.489 Y56.904 E33.24007
G1 X69.813 Y57.901 E33.37845
G1 X70.104 Y59.325 E33.5703
G1 X70.035 Y60.942 E33.78394
G1 X69.68 Y62.895 E34.04596
G1 X69.046 Y64.73 E34.30223
G1 X68.138 Y66.067 E34.51556
G1 X67.113 Y67.274 E34.72459
G1 X65.453 Y68.658 E35.00987
G1 X64.1 Y69.375 E35.212
G1 X62.577 Y70.035 E35.4311
G1 X61.2 Y70.25 E35.61506
G1 X59.322 Y70.266 E35.86297
G1 X57.996 Y70.14 E36.03879
G1 X57.201 Y69.695 E36.15905
G1 X57.247 Y69.526 E36.18217
G1 X57.351 Y69.451 E36.1991
G1 X58.294 Y69.48 E36.32363
G1 X59.941 Y69.722 E36.54337
G1 X60.609 Y69.717 E36.63155
G1 X62.378 Y69.434 E36.86803
G1 X62.975 Y69.249 E36.95053
G1 X64.666 Y68.445 E37.19768
G1 X65.066 Y68.199 E37.25967
G1 X66.828 Y66.838 E37.55356
G1 X67.134 Y66.552 E37.60885
G1 X67.366 Y66.235 E37.6607
G1 X68.389 Y64.542 E37.9218
G1 X68.562 Y64.186 E37.97405
G1 X69.253 Y62.37 E38.23053
G1 X69.364 Y61.966 E38.28583
G1 X69.397 Y61.591 E38.33553
G1 X69.4 Y59.647 E38.59213
G1 X69.378 Y59.335 E38.63342
G1 X69.129 Y57.577 E38.86779
G1 X68.968 Y56.968 E38.95094
G1 X69.022 Y56.801 E38.97411
G0 F3600 X68.682 Y56.555
G1 F1050 X69.027 Y56.304 E39.03043
G1 X69.389 Y56.304 E39.07821
G1 X69.833 Y56.668 E39.154
G1 X70.201 Y57.802 E39.31137
G1 X70.506 Y59.294 E39.51239
G1 X70.433 Y60.987 E39.73607
G1 X70.069 Y62.992 E40.00506
G1 X69.407 Y64.91 E40.27289
G1 X68.454 Y66.313 E40.49677
G1 X67.397 Y67.558 E40.71235
G1 X65.678 Y68.991 E41.00776
G1 X64.268 Y69.739 E41.21845
G1 X62.686 Y70.424 E41.44601
G1 X61.239 Y70.65 E41.63933
G1 X59.307 Y70.666 E41.89436
G1 X57.874 Y70.53 E42.08436
G1 X56.87 Y69.968 E42.23624
G1 X56.776 Y69.681 E42.27611
G1 X56.907 Y69.28 E42.33179
G1 X57.227 Y69.047 E42.38404
G1 X58.329 Y69.081 E42.52958
G1 X59.999 Y69.326 E42.75237
G1 X60.545 Y69.322 E42.82445
G1 X62.314 Y69.039 E43.06093
G1 X62.803 Y68.888 E43.12848
G1 X64.494 Y68.084 E43.37564
G1 X64.821 Y67.883 E43.4263
G1 X66.583 Y66.522 E43.72019
G1 X66.857 Y66.26 E43.77023
G1 X67.024 Y66.028 E43.80797
G1 X68.047 Y64.335 E44.06907
G1 X68.188 Y64.044 E44.11176
G1 X68.879 Y62.228 E44.36824
G1 X68.976 Y61.862 E44.41822
G1 X68.997 Y61.591 E44.4541
G1 X69 Y59.647 E44.7107
G1 X68.982 Y59.392 E44.74445
G1 X68.733 Y57.634 E44.97882
G1 X68.548 Y56.965 E45.07044
G1 X68.682 Y56.555 E45.12738
G0 F3600 X68.341 Y56.307
G1 F1050 X68.895 Y55.904 E45.21781
G1 X69.533 Y55.904 E45.30202
G1 X70.176 Y56.432 E45.41185
G1 X70.587 Y57.697 E45.58742
G1 X70.908 Y59.264 E45.79856
G1 X70.831 Y61.04 E46.03321
G1 X70.458 Y63.091 E46.30839
G1 X69.767 Y65.092 E46.58782
G1 X68.773 Y66.555 E46.8213
G1 X67.676 Y67.848 E47.04512
G1 X65.907 Y69.322 E47.34907
G1 X64.441 Y70.099 E47.56808
G1 X62.799 Y70.811 E47.80432
G1 X61.27 Y71.05 E48.0086
G1 X59.292 Y71.066 E48.26971
G1 X57.752 Y70.92 E48.4739
G1 X56.537 Y70.24 E48.65769
G1 X56.355 Y69.681 E48.73529
G1 X56.566 Y69.032 E48.82537
G1 X57.102 Y68.643 E48.91279
G1 X58.366 Y68.681 E49.07971
G1 X60.058 Y68.93 E49.30546
G1 X60.482 Y68.927 E49.36143
G1 X62.251 Y68.644 E49.59791
G1 X62.631 Y68.526 E49.65043
G1 X64.322 Y67.722 E49.89759
G1 X64.577 Y67.566 E49.93705
G1 X66.339 Y66.205 E50.23094
G1 X66.681 Y65.821 E50.29881
G1 X67.704 Y64.128 E50.55992
G1 X67.814 Y63.902 E50.5931
G1 X68.505 Y62.086 E50.84958
G1 X68.597 Y61.59 E50.91617
G1 X68.6 Y59.646 E51.17277
G1 X68.586 Y59.448 E51.19898
G1 X68.337 Y57.69 E51.43335
G1 X68.286 Y57.465 E51.4638
G1 X68.128 Y56.963 E51.53327
G1 X68.341 Y56.307 E51.62431
G0 F3600 X68.002 Y56.06
G1 F1050 X68.766 Y55.504 E51.74904
G1 X69.676 Y55.504 E51.86916
G1 X70.521 Y56.198 E52.0135
G1 X70.974 Y57.591 E52.20685
G1 X71.31 Y59.232 E52.42796
G1 X71.23 Y61.077 E52.67172
G1 X70.845 Y63.195 E52.95588
G1 X70.127 Y65.274 E53.24621
G1 X69.093 Y66.797 E53.48921
G1 X67.96 Y68.131 E53.72023
G1 X66.129 Y69.657 E54.03486
G1 X64.619 Y70.458 E54.26049
G1 X62.912 Y71.198 E54.50607
G1 X61.302 Y71.45 E54.72118
G1 X59.277 Y71.467 E54.98849
G1 X57.63 Y71.31 E55.20688
G1 X56.206 Y70.513 E55.42229
G1 X55.935 Y69.681 E55.53779
G1 X56.227 Y68.785 E55.66218
G1 X56.977 Y68.239 E55.78464
G1 X58.411 Y68.283 E55.97402
G1 X60.116 Y68.534 E56.2015
G1 X60.419 Y68.532 E56.2415
G1 X62.188 Y68.249 E56.47798
G1 X62.459 Y68.165 E56.51543
G1 X64.15 Y67.361 E56.76258
G1 X64.332 Y67.249 E56.79079
G1 X66.094 Y65.888 E57.08468
G1 X66.339 Y65.614 E57.1332
G1 X67.362 Y63.921 E57.3943
G1 X67.441 Y63.76 E57.41798
G1 X68.132 Y61.944 E57.67446
G1 X68.197 Y61.59 E57.72196
G1 X68.2 Y59.646 E57.97857
G1 X68.19 Y59.504 E57.99736
G1 X67.941 Y57.746 E58.23174
G1 X67.905 Y57.586 E58.25338
G1 X67.708 Y56.961 E58.33988
G1 X68.002 Y56.06 E58.46499
G0 F3600 X67.662 Y55.812
G1 F1050 X68.636 Y55.104 E58.62393
G1 X69.818 Y55.104 E58.77996
G1 X70.866 Y55.964 E58.95891
G1 X71.362 Y57.492 E59.17097
G1 X71.712 Y59.201 E59.40124
G1 X71.629 Y61.123 E59.65518
G1 X71.235 Y63.294 E59.94643
G1 X70.488 Y65.456 E60.24837
G1 X69.412 Y67.039 E60.50103
G1 X68.244 Y68.414 E60.73917
G1 X66.352 Y69.992 E61.06438
G1 X64.792 Y70.819 E61.29744
G1 X63.025 Y71.585 E61.55166
G1 X61.332 Y71.849 E61.77784
G1 X59.252 Y71.867 E62.05241
G1 X57.51 Y71.701 E62.28339
G1 X55.874 Y70.786 E62.53082
G1 X55.515 Y69.681 E62.68419
G1 X55.887 Y68.537 E62.84298
G1 X56.852 Y67.835 E63.0005
G1 X58.437 Y67.884 E63.20982
G1 X60.174 Y68.139 E63.44156
G1 X60.356 Y68.137 E63.46559
G1 X62.125 Y67.854 E63.70206
G1 X62.288 Y67.804 E63.72457
G1 X63.979 Y67 E63.97173
G1 X64.088 Y66.933 E63.98862
G1 X65.85 Y65.572 E64.2825
G1 X65.997 Y65.407 E64.31167
G1 X67.02 Y63.714 E64.57278
G1 X67.067 Y63.617 E64.58701
G1 X67.758 Y61.801 E64.84349
G1 X67.797 Y61.589 E64.87194
G1 X67.8 Y59.645 E65.12855
G1 X67.794 Y59.56 E65.1398
G1 X67.545 Y57.802 E65.37417
G1 X67.523 Y57.706 E65.38717
G1 X67.288 Y56.96 E65.49041
G1 X67.662 Y55.812 E65.64979
G0 F3600 X67.321 Y55.566
G1 F1050 X68.507 Y54.704 E65.84332
G1 X69.961 Y54.704 E66.03525
