;FLAVOR:UltiGCode
;TIME:10746
;MATERIAL:5358
;MATERIAL2:0
;NOZZLE_DIAMETER:0.4
;MINX:33.339
;MINY:29.919
;MINZ:0.3
;MAXX:89.6
;MAXY:87.75
;MAXZ:28.98
;Generated with Cura_SteamEngine 4.7.1
M82 ;absolute extrusion mode
G0 F3000 Y50 ;avoid prime blob
G92 E0
G92 E0
G10
;LAYER_COUNT:479
;LAYER:0
M107
G0 F3600 X42.766 Y32.186 Z0.3
;TYPE:SKIRT
G11
G1 F1050 X43.325 Y31.663 E0.10105
G1 X44.017 Y31.143 E0.21531
G1 X44.257 Y30.968 E0.25451
G1 X44.787 Y30.594 E0.34014
G1 X45.247 Y30.318 E0.41095
G1 X45.743 Y30.114 E0.48174
G1 X46.264 Y29.985 E0.55259
G1 X46.798 Y29.936 E0.62338
G1 X47.752 Y29.919 E0.74932
G1 X47.923 Y29.919 E0.7719
G1 X48.629 Y29.929 E0.8651
G1 X49.163 Y29.977 E0.93587
G1 X49.825 Y30.152 E1.02626
G1 X50.968 Y30.574 E1.18709
G1 X53.599 Y31.502 E1.55535
G1 X56.183 Y32.333 E1.91364
G1 X58.8 Y33.094 E2.27339
G1 X61.422 Y33.776 E2.63101
G1 X64.13 Y34.398 E2.99778
G1 X66.79 Y34.931 E3.35588
G1 X69.442 Y35.385 E3.71103
G1 X72.16 Y35.772 E4.07343
G1 X74.871 Y36.08 E4.43358
G1 X77.586 Y36.31 E4.79325
G1 X80.293 Y36.463 E5.15114
G1 X84.41 Y36.55 E5.69471
G1 X85.345 Y36.55 E5.81813
G1 X86.043 Y36.56 E5.91027
G1 X86.577 Y36.608 E5.98104
G1 X87.098 Y36.734 E6.0518
G1 X87.595 Y36.937 E6.12266
G1 X88.056 Y37.211 E6.19345
G1 X88.471 Y37.55 E6.26419
G1 X88.831 Y37.948 E6.33503
G1 X89.128 Y38.394 E6.40576
G1 X89.356 Y38.88 E6.47662
G1 X89.508 Y39.394 E6.54737
G1 X89.59 Y40.059 E6.63581
G1 X89.6 Y40.48 E6.6914
G1 X89.6 Y52.495 E8.27738
G1 X89.59 Y53.192 E8.3694
G1 X89.552 Y53.805 E8.45047
G1 X89.381 Y55.825 E8.71806
G1 X89.228 Y58.521 E9.07451
G1 X89.15 Y61.286 E9.43963
G1 X89.15 Y63.981 E9.79537
G1 X89.228 Y66.746 E10.1605
G1 X89.381 Y69.447 E10.5176
G1 X89.497 Y70.921 E10.71277
G1 X89.578 Y71.857 E10.83678
G1 X89.599 Y72.375 E10.90521
G1 X89.6 Y83.464 E12.36896
G1 X89.59 Y84.191 E12.46494
G1 X89.542 Y84.725 E12.53571
G1 X89.416 Y85.246 E12.60646
G1 X89.214 Y85.743 E12.67728
G1 X88.94 Y86.204 E12.74807
G1 X88.601 Y86.619 E12.8188
G1 X88.204 Y86.98 E12.88963
G1 X87.758 Y87.277 E12.96036
G1 X87.272 Y87.505 E13.03122
G1 X86.758 Y87.658 E13.10201
G1 X86.091 Y87.74 E13.19072
G1 X85.67 Y87.75 E13.24631
G1 X65.656 Y87.75 E15.88816
G1 X64.955 Y87.74 E15.9807
G1 X64.42 Y87.692 E16.0516
G1 X63.899 Y87.566 E16.12235
G1 X63.403 Y87.363 E16.1931
G1 X62.942 Y87.089 E16.26389
G1 X62.413 Y86.646 E16.35497
G1 X62.112 Y86.354 E16.41032
G1 X58.898 Y83.139 E17.01039
G1 X58.43 Y82.657 E17.09907
G1 X58.114 Y82.284 E17.1636
G1 X57.828 Y81.83 E17.23443
G1 X57.59 Y81.273 E17.31439
G1 X57.224 Y80.161 E17.46892
G1 X57.014 Y79.492 E17.56147
G1 X56.112 Y76.889 E17.92511
G1 X55.149 Y74.348 E18.2838
G1 X54.107 Y71.814 E18.64547
G1 X53.004 Y69.334 E19.00375
G1 X51.826 Y66.876 E19.36354
G1 X50.568 Y64.43 E19.72661
G1 X49.26 Y62.055 E20.08451
G1 X47.89 Y59.726 E20.44118
G1 X46.426 Y57.389 E20.8052
G1 X44.927 Y55.142 E21.16174
G1 X42.892 Y52.312 E21.62186
G1 X42.606 Y51.907 E21.6873
G1 X42.256 Y51.289 E21.78105
G1 X41.992 Y50.693 E21.8671
G1 X40.826 Y48.161 E22.23506
G1 X40.247 Y47.002 E22.40607
G1 X39.624 Y45.724 E22.59375
G1 X39.426 Y45.226 E22.66449
G1 X39.303 Y44.704 E22.73528
G1 X39.252 Y43.913 E22.83991
G1 X39.25 Y43.808 E22.85377
G1 X39.249 Y40.749 E23.25756
G1 X39.259 Y40.098 E23.3435
G1 X39.308 Y39.564 E23.41428
G1 X39.435 Y39.043 E23.48507
G1 X39.644 Y38.533 E23.55782
G1 X39.752 Y38.319 E23.58947
G1 X40.969 Y35.813 E23.9572
G1 X41.915 Y33.727 E24.25954
G1 X42.195 Y33.09 E24.35139
G1 X42.447 Y32.617 E24.42214
G1 X42.766 Y32.186 E24.49292
G0 F3600 X43.107 Y32.404
G1 F1050 X43.566 Y31.983 E24.57513
G1 X44.254 Y31.465 E24.68881
G1 X44.488 Y31.294 E24.72707
G1 X45.018 Y30.92 E24.81269
G1 X45.453 Y30.662 E24.87945
G1 X45.923 Y30.476 E24.94617
G1 X46.416 Y30.366 E25.01285
G1 X46.805 Y30.336 E25.06435
G1 X47.752 Y30.319 E25.18937
G1 X47.917 Y30.319 E25.21115
G1 X48.623 Y30.329 E25.30436
G1 X49.127 Y30.376 E25.37117
G1 X49.686 Y30.527 E25.4476
G1 X50.835 Y30.951 E25.60927
G1 X53.481 Y31.884 E25.97962
G1 X56.054 Y32.712 E26.33641
G1 X58.694 Y33.479 E26.6993
G1 X61.338 Y34.167 E27.05993
G1 X64.034 Y34.786 E27.42506
G1 X66.716 Y35.324 E27.78613
G1 X69.395 Y35.782 E28.14489
G1 X72.09 Y36.166 E28.50423
G1 X74.825 Y36.477 E28.86757
G1 X77.568 Y36.709 E29.23094
G1 X80.29 Y36.863 E29.59082
G1 X84.401 Y36.95 E30.13359
G1 X85.339 Y36.95 E30.25741
G1 X86.037 Y36.96 E30.34956
G1 X86.54 Y37.007 E30.41624
G1 X87.03 Y37.133 E30.48302
G1 X87.494 Y37.335 E30.54982
G1 X87.92 Y37.607 E30.61654
G1 X88.298 Y37.942 E30.68321
G1 X88.618 Y38.333 E30.74991
G1 X88.873 Y38.77 E30.81669
G1 X89.056 Y39.241 E30.88339
G1 X89.163 Y39.735 E30.95011
G1 X89.199 Y40.39 E31.0367
G1 X89.2 Y52.489 E32.63377
G1 X89.19 Y53.186 E32.72578
G1 X89.153 Y53.777 E32.80395
G1 X88.982 Y55.807 E33.07286
G1 X88.828 Y58.522 E33.43181
G1 X88.75 Y61.275 E33.79536
G1 X88.75 Y63.993 E34.15413
G1 X88.828 Y66.745 E34.51754
G1 X88.984 Y69.499 E34.88165
G1 X89.098 Y70.955 E35.07443
G1 X89.179 Y71.891 E35.19845
G1 X89.2 Y72.479 E35.27611
G1 X89.2 Y83.458 E36.72534
G1 X89.19 Y84.185 E36.82131
G1 X89.143 Y84.688 E36.888
G1 X89.017 Y85.178 E36.95478
G1 X88.816 Y85.642 E37.02153
G1 X88.544 Y86.068 E37.08825
G1 X88.209 Y86.447 E37.15502
G1 X87.818 Y86.767 E37.22171
G1 X87.382 Y87.022 E37.28838
G1 X86.911 Y87.206 E37.35513
G1 X86.416 Y87.312 E37.42195
G1 X85.76 Y87.349 E37.50868
G1 X65.661 Y87.35 E40.16175
G1 X64.96 Y87.34 E40.25429
G1 X64.457 Y87.293 E40.32098
G1 X63.967 Y87.167 E40.38776
G1 X63.504 Y86.965 E40.45444
G1 X63.077 Y86.693 E40.52127
G1 X62.684 Y86.352 E40.58995
G1 X62.395 Y86.071 E40.64316
G1 X59.185 Y82.86 E41.24248
G1 X58.717 Y82.378 E41.33116
G1 X58.418 Y82.023 E41.39243
G1 X58.155 Y81.592 E41.45908
G1 X57.97 Y81.147 E41.52269
G1 X57.605 Y80.041 E41.67643
G1 X57.387 Y79.347 E41.77245
G1 X56.488 Y76.753 E42.13484
G1 X55.522 Y74.202 E42.4949
G1 X54.479 Y71.665 E42.85698
G1 X53.358 Y69.148 E43.22069
G1 X52.18 Y66.688 E43.58072
G1 X50.952 Y64.301 E43.93505
G1 X49.604 Y61.85 E44.30429
G1 X48.224 Y59.507 E44.66322
G1 X46.755 Y57.161 E45.0286
G1 X45.262 Y54.922 E45.38382
G1 X43.219 Y52.081 E45.84573
G1 X42.933 Y51.676 E45.91118
G1 X42.621 Y51.127 E45.99453
G1 X42.336 Y50.484 E46.08737
G1 X41.195 Y48.006 E46.44748
G1 X40.607 Y46.827 E46.62139
G1 X39.984 Y45.549 E46.80906
G1 X39.799 Y45.079 E46.87573
G1 X39.69 Y44.585 E46.94251
G1 X39.651 Y43.901 E47.03294
G1 X39.649 Y40.755 E47.44821
G1 X39.659 Y40.104 E47.53416
G1 X39.707 Y39.601 E47.60085
G1 X39.833 Y39.111 E47.66764
G1 X40.128 Y38.461 E47.76186
G1 X41.32 Y36.005 E48.12222
G1 X42.297 Y33.853 E48.43419
G1 X42.562 Y33.251 E48.52101
G1 X42.801 Y32.806 E48.58769
G1 X43.107 Y32.404 E48.65437
G10
G0 F3600 X42.188 Y39.993
G0 X42.189 Y44.307
G0 X47.752 Y48.068
G11
G1 F1050 X47.825 Y48.015 E48.66628
G1 X47.911 Y48.015 E48.67763
G1 X47.984 Y48.068 E48.68954
G1 X48.011 Y48.151 E48.70106
G1 X47.984 Y48.234 E48.71258
G1 X47.911 Y48.287 E48.72449
G1 X47.825 Y48.287 E48.73584
G1 X47.752 Y48.234 E48.74775
G1 X47.725 Y48.151 E48.75927
G1 X47.752 Y48.068 E48.77079
G0 F3600 X47.413 Y47.822
G1 F1050 X47.696 Y47.615 E48.81708
G1 X48.04 Y47.615 E48.86248
G1 X48.323 Y47.822 E48.90877
G1 X48.431 Y48.151 E48.95447
G1 X48.323 Y48.48 E49.00018
G1 X48.04 Y48.687 E49.04647
G1 X47.696 Y48.687 E49.09187
G1 X47.413 Y48.48 E49.13816
G1 X47.305 Y48.151 E49.18386
G1 X47.413 Y47.822 E49.22957
G0 F3600 X47.071 Y47.575
G1 F1050 X47.566 Y47.215 E49.31036
G1 X48.17 Y47.215 E49.39009
G1 X48.665 Y47.575 E49.47089
G1 X48.852 Y48.151 E49.55082
G1 X48.665 Y48.727 E49.63076
G1 X48.17 Y49.087 E49.71156
G1 X47.566 Y49.087 E49.79128
G1 X47.071 Y48.727 E49.87208
G1 X46.884 Y48.151 E49.95201
G1 X47.071 Y47.575 E50.03195
G0 F3600 X46.732 Y47.327
G1 F1050 X47.435 Y46.815 E50.14675
G1 X48.301 Y46.815 E50.26106
G1 X49.004 Y47.327 E50.37586
G1 X49.273 Y48.151 E50.49028
G1 X49.004 Y48.975 E50.6047
G1 X48.301 Y49.487 E50.71949
G1 X47.435 Y49.487 E50.83381
G1 X46.732 Y48.975 E50.94861
G1 X46.463 Y48.151 E51.06302
G1 X46.732 Y47.327 E51.17744
G0 F3600 X46.392 Y47.08
G1 F1050 X47.305 Y46.415 E51.32653
G1 X48.431 Y46.415 E51.47517
G1 X49.344 Y47.08 E51.62426
G1 X49.693 Y48.151 E51.77295
G1 X49.344 Y49.222 E51.92164
G1 X48.431 Y49.887 E52.07073
G1 X47.305 Y49.887 E52.21937
G1 X46.392 Y49.222 E52.36846
G1 X46.043 Y48.151 E52.51715
G1 X46.392 Y47.08 E52.66584
G0 F3600 X46.051 Y46.834
G1 F1050 X47.174 Y46.015 E52.84931
G1 X48.562 Y46.015 E53.03253
G1 X49.685 Y46.834 E53.216
G1 X50.114 Y48.151 E53.39883
G1 X49.685 Y49.468 E53.58166
G1 X48.562 Y50.287 E53.76513
G1 X47.174 Y50.287 E53.94835
G1 X46.051 Y49.468 E54.13182
G1 X45.622 Y48.151 E54.31466
G1 X46.051 Y46.834 E54.49749
G0 F3600 X45.711 Y46.587
G1 F1050 X47.045 Y45.615 E54.71536
G1 X48.691 Y45.615 E54.93264
G1 X50.025 Y46.587 E55.15051
G1 X50.535 Y48.151 E55.36766
G1 X50.025 Y49.715 E55.5848
G1 X48.691 Y50.687 E55.80268
G1 X47.045 Y50.687 E56.01995
G1 X45.711 Y49.715 E56.23782
G1 X45.201 Y48.151 E56.45497
G1 X45.711 Y46.587 E56.67212
G10
G0 F3600 X42.693 Y44.811
G0 X42.188 Y39.993
G0 X48.117 Y38.65
G11
G1 F1050 X46.939 Y38.584 E56.82786
G1 X45.656 Y37.65 E57.03733
G1 X45.167 Y36.15 E57.24559
G1 X45.656 Y34.65 E57.45385
G1 X46.935 Y33.719 E57.66266
G1 X48.513 Y33.719 E57.87096
G1 X49.792 Y34.65 E58.07978
G1 X50.281 Y36.15 E58.28804
G1 X49.795 Y37.641 E58.49504
G1 X48.117 Y38.65 E58.75349
G0 F3600 X48.015 Y38.244
G1 F1050 X47.079 Y38.192 E58.87724
G1 X45.996 Y37.403 E59.05411
G1 X45.588 Y36.15 E59.22805
G1 X45.996 Y34.897 E59.40199
G1 X47.064 Y34.119 E59.57641
G1 X48.384 Y34.119 E59.75065
G1 X49.452 Y34.897 E59.92507
G1 X49.86 Y36.15 E60.09901
G1 X49.461 Y37.375 E60.26907
G1 X48.015 Y38.244 E60.49176
G0 F3600 X47.914 Y37.838
G1 F1050 X47.22 Y37.799 E60.58351
G1 X46.337 Y37.157 E60.72762
G1 X46.009 Y36.15 E60.86742
G1 X46.337 Y35.143 E61.00721
G1 X47.194 Y34.519 E61.14715
G1 X48.254 Y34.519 E61.28707
G1 X49.111 Y35.143 E61.427
G1 X49.439 Y36.15 E61.5668
G1 X49.126 Y37.11 E61.70008
G1 X47.914 Y37.838 E61.88671
G0 F3600 X47.814 Y37.431
G1 F1050 X47.359 Y37.406 E61.94686
G1 X46.677 Y36.909 E62.05825
G1 X46.429 Y36.15 E62.16365
G1 X46.677 Y35.391 E62.26905
G1 X47.325 Y34.919 E62.37488
G1 X48.123 Y34.919 E62.48021
G1 X48.771 Y35.391 E62.58603
G1 X49.019 Y36.15 E62.69143
G1 X48.793 Y36.843 E62.78765
G1 X47.814 Y37.431 E62.9384
G0 F3600 X47.713 Y37.025
G1 F1050 X47.5 Y37.013 E62.96656
G1 X47.016 Y36.661 E63.04555
G1 X46.849 Y36.15 E63.11652
G1 X47.016 Y35.639 E63.18748
G1 X47.455 Y35.319 E63.25919
G1 X47.993 Y35.319 E63.3302
G1 X48.432 Y35.639 E63.40191
G1 X48.599 Y36.15 E63.47288
G1 X48.46 Y36.577 E63.53215
G1 X47.713 Y37.025 E63.64713
G0 F3600 X47.626 Y36.611
G1 F1050 X47.357 Y36.416 E63.69099
G1 X47.271 Y36.15 E63.72789
G1 X47.357 Y35.884 E63.76479
G1 X47.584 Y35.719 E63.80183
G1 X47.864 Y35.719 E63.83879
G1 X48.091 Y35.884 E63.87583
G1 X48.177 Y36.15 E63.91274
G1 X48.125 Y36.311 E63.93507
G1 X47.626 Y36.611 E64.01192
G10
;MESH:arc_wheel_shell_1.stl
G0 F3600 X47.626 Y39.485
G0 X47.626 Y40.77
G0 X54.603 Y43.789
G0 X55.783 Y44.583
G0 X64.92 Y56.814
G0 X65.083 Y57.357
;TYPE:WALL-INNER
G11
G1 F1050 X64.886 Y56.834 E64.08938
G1 X64.523 Y56.409 E64.16685
G1 X64.037 Y56.134 E64.24425
G1 X63.485 Y56.042 E64.32181
G1 X62.937 Y56.144 E64.39907
G1 X62.455 Y56.427 E64.47654
G1 X62.1 Y56.858 E64.55393
G1 X61.914 Y57.384 E64.63125
G1 X61.918 Y57.943 E64.70873
G1 X62.114 Y58.466 E64.78614
G1 X62.477 Y58.891 E64.86361
G1 X62.963 Y59.166 E64.94101
G1 X63.515 Y59.258 E65.01857
G1 X64.063 Y59.156 E65.09583
G1 X64.545 Y58.873 E65.17329
G1 X64.899 Y58.444 E65.25038
G1 X65.085 Y57.928 E65.32641
G1 X65.083 Y57.357 E65.40555
G0 F3600 X65.181 Y57.339
G0 X66.604 Y61.089
G0 X66.555 Y61.175
G1 F1050 X66.078 Y61.05 E65.47389
G1 X56.8 Y61.05 E66.75982
G1 X56.8 Y47.115 E68.69121
G1 X56.736 Y46.46 E68.78243
G1 X56.534 Y45.783 E68.88035
G1 X56.202 Y45.158 E68.97844
G1 X55.755 Y44.611 E69.07635
G1 X55.21 Y44.161 E69.1743
G1 X54.588 Y43.825 E69.27229
G1 X53.911 Y43.619 E69.37037
G1 X53.237 Y43.551 E69.46426
G1 X43.45 Y43.55 E70.82074
G1 X43.449 Y40.95 E71.1811
G1 X43.449 Y40.75 E71.20882
G1 X43.649 Y40.75 E71.22677
G1 X85.4 Y40.75 E77.01345
G1 X85.4 Y52.55 E78.64893
G1 X80.6 Y52.55 E79.31421
G1 X80.6 Y49.121 E79.78947
G1 X80.536 Y48.466 E79.88069
G1 X80.336 Y47.789 E79.97853
G1 X80.006 Y47.164 E80.07649
G1 X79.56 Y46.617 E80.17431
G1 X79.018 Y46.167 E80.27195
G1 X78.396 Y45.829 E80.37006
G1 X77.72 Y45.622 E80.46805
G1 X77.033 Y45.55 E80.56379
G1 X68.971 Y45.55 E81.68118
G1 X68.316 Y45.614 E81.7724
G1 X67.639 Y45.814 E81.87024
G1 X67.014 Y46.144 E81.9682
G1 X66.467 Y46.59 E82.06602
G1 X66.017 Y47.132 E82.16366
G1 X65.679 Y47.754 E82.26177
G1 X65.472 Y48.43 E82.35976
G1 X65.4 Y49.117 E82.4555
G1 X65.401 Y53.694 E83.08987
G1 X65.468 Y54.45 E83.19507
G1 X65.675 Y55.224 E83.30611
G1 X66.014 Y55.951 E83.41729
G1 X66.474 Y56.608 E83.52845
G1 X67.042 Y57.176 E83.63979
G1 X67.699 Y57.636 E83.75095
G1 X68.426 Y57.975 E83.86212
G1 X69.2 Y58.182 E83.97317
G1 X69.974 Y58.25 E84.08086
G1 X70.4 Y58.25 E84.1399
G1 X70.4 Y67.05 E85.35958
G1 X69.956 Y67.051 E85.42112
G1 X69.2 Y67.118 E85.52632
G1 X68.426 Y67.325 E85.63736
G1 X67.699 Y67.664 E85.74854
G1 X67.042 Y68.124 E85.8597
G1 X66.474 Y68.692 E85.97104
G1 X66.014 Y69.349 E86.0822
G1 X65.675 Y70.076 E86.19337
G1 X65.468 Y70.85 E86.30442
G1 X65.4 Y71.624 E86.41211
G1 X65.4 Y76.179 E87.04343
G1 X65.464 Y76.834 E87.13465
G1 X65.664 Y77.511 E87.23249
G1 X65.994 Y78.136 E87.33045
G1 X66.44 Y78.683 E87.42827
G1 X66.982 Y79.133 E87.52591
G1 X67.604 Y79.471 E87.62402
G1 X68.28 Y79.678 E87.72201
G1 X68.967 Y79.75 E87.81775
G1 X77.029 Y79.75 E88.93514
G1 X77.684 Y79.686 E89.02636
G1 X78.361 Y79.486 E89.1242
G1 X78.986 Y79.156 E89.22216
G1 X79.533 Y78.71 E89.31998
G1 X79.983 Y78.168 E89.41762
G1 X80.321 Y77.546 E89.51573
G1 X80.528 Y76.87 E89.61372
G1 X80.6 Y76.183 E89.70946
G1 X80.6 Y72.75 E90.18528
G1 X85.4 Y72.75 E90.85056
G1 X85.4 Y83.55 E92.34744
G1 X65.248 Y83.55 E95.1405
G1 X61.6 Y79.902 E95.85555
G1 X61.6 Y68.169 E97.48174
G1 X61.6 Y67.943 E97.51306
G1 X61.6 Y67.384 E97.59054
G1 X61.6 Y67.134 E97.62519
G1 X61.6 Y66.203 E97.75423
G1 X61.633 Y66.015 E97.78068
G1 X61.7 Y65.9 E97.79913
G1 X61.804 Y65.813 E97.81792
G1 X61.944 Y65.761 E97.83862
G1 X62.202 Y65.75 E97.87441
G1 X62.926 Y65.75 E97.97476
G1 X62.937 Y65.75 E97.97628
G1 X63.485 Y65.75 E98.05224
G1 X64.037 Y65.75 E98.12874
G1 X64.067 Y65.75 E98.1329
G1 X65.552 Y65.75 E98.33872
G1 X66.049 Y65.663 E98.40866
G1 X66.535 Y65.383 E98.48639
G1 X66.894 Y64.955 E98.56382
G1 X67.079 Y64.446 E98.63888
G1 X67.1 Y64.066 E98.69163
G1 X67.1 Y62.065 E98.96897
G1 X66.967 Y61.583 E99.03827
G1 X66.555 Y61.175 E99.11864
G0 F3600 X66.604 Y61.089
G0 X67.139 Y62.06
G0 X67.118 Y64.454
G0 X65.181 Y67.339
G0 X65.083 Y67.357
G1 F1050 X64.886 Y66.834 E99.1961
G1 X64.523 Y66.409 E99.27356
G1 X64.063 Y66.148 E99.34687
G1 X64.037 Y66.134 E99.35088
G1 X63.485 Y66.042 E99.41654
G1 X62.937 Y66.144 E99.48292
G1 X62.928 Y66.149 E99.48434
G1 X62.455 Y66.427 E99.56038
G1 X62.1 Y66.858 E99.63777
G1 X61.997 Y67.148 E99.68043
G1 X61.914 Y67.384 E99.71143
G1 X61.918 Y67.943 E99.77264
G1 X61.997 Y68.154 E99.8007
G1 X62.114 Y68.466 E99.84689
G1 X62.477 Y68.891 E99.92435
G1 X62.963 Y69.166 E100.00175
G1 X63.515 Y69.258 E100.07931
G1 X64.063 Y69.156 E100.15657
G1 X64.545 Y68.873 E100.23404
G1 X64.899 Y68.444 E100.31113
G1 X65.085 Y67.928 E100.38715
G1 X65.083 Y67.357 E100.46629
G0 F3600 X65.181 Y67.339
G0 X65.361 Y76.18
G0 X65.627 Y77.526
G0 X66.412 Y78.711
G0 X67.589 Y79.507
G0 X68.965 Y79.789
G0 X77.03 Y79.789
G0 X78.376 Y79.523
G0 X79.561 Y78.738
G0 X80.357 Y77.561
G0 X80.639 Y76.185
G0 X80.639 Y74.489
G0 X82.689 Y73.97
G0 X82.707 Y74.068
G1 F1050 X82.184 Y74.264 E100.5437
G1 X81.759 Y74.627 E100.62117
G1 X81.484 Y75.113 E100.69856
G1 X81.392 Y75.665 E100.77613
G1 X81.494 Y76.213 E100.85338
G1 X81.777 Y76.695 E100.93085
G1 X82.208 Y77.05 E101.00824
G1 X82.734 Y77.236 E101.08557
G1 X83.293 Y77.232 E101.16305
G1 X83.816 Y77.036 E101.24046
G1 X84.241 Y76.673 E101.31793
G1 X84.516 Y76.187 E101.39532
G1 X84.608 Y75.635 E101.47289
G1 X84.506 Y75.087 E101.55014
G1 X84.223 Y74.605 E101.62761
G1 X83.792 Y74.25 E101.705
G1 X83.266 Y74.064 E101.78233
