;FLAVOR:UltiGCode
;TIME:2902
;MATERIAL:1369
;MATERIAL2:0
;NOZZLE_DIAMETER:0.4
;MINX:49.614
;MINY:49.394
;MINZ:0.3
;MAXX:76.465
;MAXY:73.597
;MAXZ:22.5
;Generated with Cura_SteamEngine 4.7.1
M82 ;absolute extrusion mode
G0 F3000 Y50 ;avoid prime blob
G92 E0
G92 E0
G10
;LAYER_COUNT:371
;LAYER:0
M107
G0 F3600 X52.699 Y52.391 Z0.3
;TYPE:SKIRT
G11
G1 F1050 X53.117 Y52.002 E0.07537
G1 X53.542 Y51.645 E0.14864
G1 X53.963 Y51.328 E0.2182
G1 X54.529 Y50.951 E0.30797
G1 X55.029 Y50.661 E0.38427
G1 X55.523 Y50.409 E0.45747
G1 X56.138 Y50.14 E0.54608
G1 X56.685 Y49.938 E0.62305
G1 X57.183 Y49.783 E0.69189
G1 X57.856 Y49.619 E0.78333
G1 X58.444 Y49.511 E0.86224
G1 X59.058 Y49.437 E0.94388
G1 X59.717 Y49.4 E1.031
G1 X60.001 Y49.394 E1.0685
G1 X60.506 Y49.407 E1.13518
G1 X61.139 Y49.456 E1.21899
G1 X61.747 Y49.541 E1.30002
G1 X62.338 Y49.662 E1.37965
G1 X62.886 Y49.803 E1.45435
G1 X63.515 Y50.007 E1.54163
G1 X64.049 Y50.217 E1.61737
G1 X64.569 Y50.452 E1.6927
G1 X65.122 Y50.743 E1.77518
G1 X65.647 Y51.064 E1.85641
G1 X65.766 Y51.141 E1.87512
G1 X66.532 Y51.655 E1.99689
G1 X67.723 Y52.476 E2.18783
G1 X69.997 Y53.95 E2.54554
G1 X71.663 Y54.954 E2.8023
G1 X72.612 Y55.537 E2.94932
G1 X72.838 Y55.686 E2.98505
G1 X73.628 Y56.241 E3.11249
G1 X73.733 Y56.317 E3.1296
G1 X74.303 Y56.743 E3.22353
G1 X74.753 Y57.129 E3.30179
G1 X75.147 Y57.572 E3.38005
G1 X75.478 Y58.064 E3.45832
G1 X75.739 Y58.596 E3.53654
G1 X75.927 Y59.159 E3.61489
G1 X76.042 Y59.615 E3.67697
G1 X76.233 Y60.472 E3.79287
G1 X76.38 Y61.172 E3.88729
G1 X76.463 Y61.759 E3.96554
G1 X76.465 Y62.352 E4.04382
G1 X76.388 Y62.94 E4.1221
G1 X76.303 Y63.29 E4.16964
G1 X76.04 Y64.206 E4.29544
G1 X75.785 Y65.038 E4.4103
G1 X75.578 Y65.685 E4.49997
G1 X75.387 Y66.176 E4.56951
G1 X75.169 Y66.649 E4.63826
G1 X74.821 Y67.358 E4.74252
G1 X74.513 Y67.966 E4.83248
G1 X74.145 Y68.592 E4.92833
G1 X74.076 Y68.7 E4.94525
G1 X73.637 Y69.366 E5.05054
G1 X73.263 Y69.918 E5.13856
G1 X72.898 Y70.385 E5.2168
G1 X72.606 Y70.681 E5.27168
G1 X71.929 Y71.306 E5.3933
G1 X71.098 Y72.047 E5.54027
G1 X70.569 Y72.507 E5.63281
G1 X70.097 Y72.865 E5.711
G1 X69.58 Y73.157 E5.78938
G1 X69.029 Y73.376 E5.86765
G1 X68.454 Y73.519 E5.94586
G1 X67.826 Y73.585 E6.02921
G1 X67.147 Y73.597 E6.11885
G1 X66.738 Y73.597 E6.17284
G1 X66.035 Y73.587 E6.26565
G1 X65.444 Y73.538 E6.34393
G1 X64.865 Y73.411 E6.42217
G1 X64.119 Y73.117 E6.52802
G1 X63.023 Y72.565 E6.69
G1 X60.508 Y71.343 E7.05909
G1 X58.087 Y70.25 E7.40972
G1 X56.134 Y69.428 E7.68942
G1 X55.58 Y69.182 E7.76944
G1 X54.888 Y68.824 E7.87228
G1 X54.423 Y68.545 E7.94386
G1 X53.864 Y68.165 E8.03308
G1 X53.399 Y67.802 E8.11095
G1 X52.977 Y67.436 E8.18469
G1 X52.507 Y66.977 E8.27141
G1 X52.144 Y66.577 E8.34271
G1 X51.764 Y66.112 E8.42198
G1 X51.373 Y65.571 E8.51009
G1 X51.101 Y65.142 E8.57714
G1 X50.809 Y64.623 E8.65574
G1 X50.576 Y64.152 E8.72511
G1 X50.302 Y63.503 E8.8181
G1 X50.112 Y62.962 E8.89378
G1 X49.96 Y62.445 E8.96492
G1 X49.81 Y61.792 E9.05336
G1 X49.71 Y61.201 E9.13248
G1 X49.638 Y60.522 E9.22261
G1 X49.614 Y59.994 E9.29238
G1 X49.618 Y59.44 E9.36551
G1 X49.652 Y58.874 E9.44035
G1 X49.734 Y58.2 E9.52998
G1 X49.841 Y57.608 E9.60939
G1 X49.991 Y56.998 E9.69231
G1 X50.182 Y56.393 E9.77605
G1 X50.359 Y55.915 E9.84333
G1 X50.633 Y55.291 E9.93329
G1 X50.867 Y54.833 E10.00118
G1 X51.172 Y54.309 E10.08121
G1 X51.537 Y53.757 E10.16857
G1 X51.87 Y53.317 E10.24141
G1 X52.235 Y52.882 E10.31636
G1 X52.699 Y52.391 E10.40554
G0 F3600 X52.839 Y52.819
G1 F1050 X53.386 Y52.298 E10.50525
G1 X53.784 Y51.963 E10.57392
G1 X54.193 Y51.655 E10.6415
G1 X54.743 Y51.289 E10.72871
G1 X55.213 Y51.016 E10.80045
G1 X55.693 Y50.771 E10.87159
G1 X56.291 Y50.509 E10.95777
G1 X56.806 Y50.319 E11.03023
G1 X57.29 Y50.169 E11.09712
G1 X57.943 Y50.009 E11.18586
G1 X58.497 Y49.907 E11.26022
G1 X59.098 Y49.835 E11.34012
G1 X59.735 Y49.8 E11.42433
G1 X60.008 Y49.794 E11.46037
G1 X60.612 Y49.813 E11.54014
G1 X61.402 Y49.893 E11.64495
G1 X61.913 Y49.979 E11.71335
G1 X62.576 Y50.132 E11.80317
G1 X63.172 Y50.312 E11.88535
G1 X63.898 Y50.587 E11.98783
G1 X64.389 Y50.809 E12.05896
G1 X64.929 Y51.094 E12.13956
G1 X65.435 Y51.403 E12.21782
G1 X65.543 Y51.473 E12.23481
G1 X66.305 Y51.984 E12.35591
G1 X67.509 Y52.813 E12.54887
G1 X69.766 Y54.278 E12.90405
G1 X71.454 Y55.295 E13.16418
G1 X72.403 Y55.878 E13.3112
G1 X72.608 Y56.013 E13.3436
G1 X73.398 Y56.568 E13.47104
G1 X73.494 Y56.637 E13.48665
G1 X74.064 Y57.063 E13.58058
G1 X74.491 Y57.433 E13.65516
G1 X74.863 Y57.859 E13.72982
G1 X75.17 Y58.333 E13.80436
G1 X75.408 Y58.846 E13.87901
G1 X75.62 Y59.574 E13.9791
G1 X75.651 Y59.703 E13.99661
G1 X75.842 Y60.554 E14.11174
G1 X75.989 Y61.254 E14.20615
G1 X76.065 Y61.814 E14.28075
G1 X76.062 Y62.379 E14.35533
G1 X75.919 Y63.18 E14.46273
G1 X75.657 Y64.089 E14.58761
G1 X75.404 Y64.916 E14.70177
G1 X75.197 Y65.563 E14.79143
G1 X74.855 Y66.379 E14.90822
G1 X74.464 Y67.178 E15.02564
G1 X74.156 Y67.786 E15.11561
G1 X73.805 Y68.382 E15.20691
G1 X73.742 Y68.48 E15.22229
G1 X73.305 Y69.142 E15.327
G1 X72.931 Y69.694 E15.41501
G1 X72.582 Y70.138 E15.48956
G1 X72.335 Y70.388 E15.53595
G1 X71.663 Y71.008 E15.65664
G1 X70.836 Y71.745 E15.80286
G1 X70.307 Y72.205 E15.89539
G1 X69.855 Y72.545 E15.97005
G1 X69.36 Y72.818 E16.04467
G1 X68.831 Y73.018 E16.11932
G1 X68.28 Y73.142 E16.19387
G1 X67.66 Y73.19 E16.27596
G1 X67.142 Y73.197 E16.34434
G1 X66.744 Y73.197 E16.39688
G1 X66.041 Y73.187 E16.48968
G1 X65.478 Y73.139 E16.56427
G1 X64.927 Y73.012 E16.63891
G1 X64.299 Y72.76 E16.72823
G1 X63.147 Y72.18 E16.89848
G1 X60.711 Y70.997 E17.25594
G1 X58.211 Y69.868 E17.61803
G1 X56.294 Y69.062 E17.89253
G1 X55.752 Y68.821 E17.97083
G1 X55.08 Y68.473 E18.07072
G1 X54.644 Y68.211 E18.13787
G1 X54.096 Y67.839 E18.22529
G1 X53.649 Y67.49 E18.30015
G1 X53.252 Y67.146 E18.36949
G1 X52.792 Y66.696 E18.45444
G1 X52.443 Y66.312 E18.52293
G1 X52.086 Y65.875 E18.59742
G1 X51.701 Y65.341 E18.68431
G1 X51.383 Y64.833 E18.76342
G1 X51.003 Y64.118 E18.87031
G1 X50.788 Y63.644 E18.93901
G1 X50.562 Y63.051 E19.02278
G1 X50.387 Y62.487 E19.10073
G1 X50.201 Y61.71 E19.20619
G1 X50.107 Y61.153 E19.28075
G1 X50.036 Y60.487 E19.36916
G1 X50.014 Y59.981 E19.43602
G1 X50.018 Y59.462 E19.50453
G1 X50.05 Y58.91 E19.57751
G1 X50.13 Y58.258 E19.66422
G1 X50.232 Y57.697 E19.73949
G1 X50.377 Y57.103 E19.8202
G1 X50.563 Y56.517 E19.90135
G1 X50.855 Y55.769 E20.00735
G1 X51.095 Y55.258 E20.08187
G1 X51.403 Y54.698 E20.16623
G1 X51.683 Y54.254 E20.23552
G1 X51.992 Y53.814 E20.30649
G1 X52.407 Y53.293 E20.39441
G1 X52.839 Y52.819 E20.47907
G0 F3600 X53.124 Y53.1
G1 F1050 X53.656 Y52.594 E20.57599
G1 X54.313 Y52.063 E20.68749
G1 X54.728 Y51.773 E20.75432
G1 X55.214 Y51.473 E20.82971
G1 X55.735 Y51.196 E20.9076
G1 X56.444 Y50.879 E21.01012
G1 X56.926 Y50.701 E21.07794
G1 X57.556 Y50.51 E21.16484
G1 X58.136 Y50.377 E21.24339
G1 X58.85 Y50.264 E21.33881
G1 X59.753 Y50.2 E21.4583
G1 X60.016 Y50.194 E21.49303
G1 X60.583 Y50.212 E21.56791
G1 X61.352 Y50.29 E21.66994
G1 X62.168 Y50.443 E21.77953
G1 X62.925 Y50.652 E21.88319
G1 X63.438 Y50.832 E21.95495
G1 X64.052 Y51.092 E22.04297
G1 X64.564 Y51.349 E22.11859
G1 X65.223 Y51.742 E22.21987
G1 X65.321 Y51.805 E22.23525
G1 X66.078 Y52.314 E22.35566
G1 X67.286 Y53.146 E22.54928
G1 X69.556 Y54.619 E22.90647
G1 X71.244 Y55.636 E23.1666
G1 X72.193 Y56.219 E23.31362
G1 X72.378 Y56.34 E23.3428
G1 X73.168 Y56.895 E23.47024
G1 X73.254 Y56.957 E23.48424
G1 X73.824 Y57.383 E23.57817
G1 X74.229 Y57.736 E23.64909
G1 X74.576 Y58.144 E23.71979
G1 X74.859 Y58.599 E23.79052
G1 X75.072 Y59.092 E23.86141
G1 X75.233 Y59.674 E23.94111
G1 X75.261 Y59.79 E23.95687
G1 X75.45 Y60.636 E24.07129
G1 X75.597 Y61.336 E24.16571
G1 X75.668 Y61.868 E24.23655
G1 X75.659 Y62.404 E24.30732
G1 X75.534 Y63.069 E24.39663
G1 X75.275 Y63.972 E24.52063
G1 X75.023 Y64.794 E24.63412
G1 X74.816 Y65.441 E24.72379
G1 X74.491 Y66.212 E24.83424
G1 X74.451 Y66.297 E24.84664
G1 X74.107 Y66.997 E24.94959
G1 X73.799 Y67.605 E25.03956
G1 X73.464 Y68.171 E25.12637
G1 X73.408 Y68.26 E25.14025
G1 X72.974 Y68.917 E25.24419
G1 X72.6 Y69.469 E25.33221
G1 X72.267 Y69.89 E25.40306
G1 X72.063 Y70.094 E25.44114
G1 X71.397 Y70.709 E25.5608
G1 X70.573 Y71.444 E25.70655
G1 X70.044 Y71.904 E25.79909
G1 X69.614 Y72.224 E25.86984
G1 X69.142 Y72.478 E25.94059
G1 X68.637 Y72.658 E26.01136
G1 X68.111 Y72.761 E26.08211
G1 X67.571 Y72.792 E26.15351
G1 X66.75 Y72.797 E26.26188
G1 X66.047 Y72.787 E26.35469
G1 X65.513 Y72.739 E26.42546
G1 X64.991 Y72.613 E26.49635
G1 X64.479 Y72.402 E26.56944
G1 X63.373 Y71.845 E26.7329
G1 X60.872 Y70.63 E27.09993
G1 X58.415 Y69.521 E27.45576
G1 X56.455 Y68.696 E27.73647
G1 X55.924 Y68.46 E27.81317
G1 X55.272 Y68.122 E27.91011
G1 X54.582 Y67.691 E28.0175
G1 X54.167 Y67.392 E28.08502
G1 X53.666 Y66.981 E28.17055
G1 X53.224 Y66.565 E28.25068
G1 X52.743 Y66.047 E28.34398
G1 X52.409 Y65.638 E28.41369
G1 X52.029 Y65.112 E28.49934
G1 X51.73 Y64.634 E28.57377
G1 X51.36 Y63.938 E28.67781
G1 X51.045 Y63.207 E28.78288
G1 X50.878 Y62.732 E28.84934
G1 X50.734 Y62.244 E28.91651
G1 X50.593 Y61.628 E28.99992
G1 X50.504 Y61.105 E29.06995
G1 X50.435 Y60.453 E29.15649
G1 X50.412 Y59.855 E29.23549
G1 X50.439 Y59.077 E29.33825
G1 X50.488 Y58.575 E29.40482
G1 X50.587 Y57.958 E29.48731
G1 X50.715 Y57.385 E29.56481
G1 X50.943 Y56.64 E29.66765
G1 X51.223 Y55.925 E29.76901
G1 X51.448 Y55.446 E29.83887
G1 X51.75 Y54.897 E29.92158
G1 X52.019 Y54.47 E29.98819
G1 X52.308 Y54.059 E30.05451
G1 X52.714 Y53.549 E30.14056
G1 X53.124 Y53.1 E30.22082
G0 F3600 X53.327 Y53.467
G1 F1050 X53.925 Y52.889 E30.3306
G1 X54.555 Y52.381 E30.43743
G1 X55.172 Y51.964 E30.53573
G1 X55.919 Y51.551 E30.6484
G1 X56.597 Y51.248 E30.74643
G1 X57.395 Y50.972 E30.85789
G1 X58.118 Y50.79 E30.9563
G1 X58.903 Y50.66 E31.06133
G1 X59.771 Y50.599 E31.17619
G1 X60.023 Y50.594 E31.20946
G1 X60.555 Y50.611 E31.27972
G1 X61.301 Y50.687 E31.3787
G1 X62.083 Y50.834 E31.48373
G1 X62.808 Y51.035 E31.58304
G1 X63.287 Y51.203 E31.65005
G1 X63.889 Y51.457 E31.7363
G1 X64.37 Y51.699 E31.80737
G1 X65.011 Y52.081 E31.90587
G1 X65.098 Y52.138 E31.9196
G1 X65.851 Y52.643 E32.03928
G1 X67.063 Y53.478 E32.23355
G1 X69.346 Y54.959 E32.59276
G1 X71.035 Y55.976 E32.85301
G1 X71.984 Y56.559 E33.00003
G1 X72.149 Y56.668 E33.02613
G1 X72.939 Y57.223 E33.15357
G1 X73.015 Y57.278 E33.16596
G1 X73.585 Y57.704 E33.25989
G1 X73.964 Y58.037 E33.32648
G1 X74.287 Y58.427 E33.39332
G1 X74.544 Y58.862 E33.46002
G1 X74.729 Y59.332 E33.52669
G1 X74.871 Y59.877 E33.60103
G1 X75.059 Y60.718 E33.71478
G1 X75.206 Y61.418 E33.8092
G1 X75.27 Y61.92 E33.876
G1 X75.255 Y62.425 E33.94269
G1 X75.15 Y62.959 E34.01453
G1 X74.892 Y63.855 E34.1376
G1 X74.642 Y64.672 E34.25038
G1 X74.435 Y65.319 E34.34005
G1 X74.127 Y66.045 E34.44415
G1 X74.091 Y66.121 E34.45525
G1 X73.751 Y66.816 E34.55738
G1 X73.443 Y67.424 E34.64735
G1 X73.124 Y67.961 E34.7298
G1 X73.074 Y68.04 E34.74214
G1 X72.643 Y68.693 E34.84542
G1 X72.269 Y69.245 E34.93343
G1 X71.792 Y69.8 E35.03003
G1 X71.13 Y70.411 E35.14894
G1 X70.311 Y71.142 E35.29385
G1 X69.782 Y71.602 E35.38639
G1 X69.375 Y71.902 E35.45313
G1 X68.926 Y72.135 E35.5199
G1 X68.447 Y72.294 E35.58652
G1 X67.787 Y72.385 E35.67447
G1 X67.133 Y72.397 E35.76081
G1 X66.755 Y72.397 E35.8107
G1 X66.052 Y72.387 E35.90351
G1 X65.549 Y72.34 E35.9702
G1 X65.059 Y72.214 E36.03698
G1 X64.659 Y72.045 E36.0943
G1 X63.507 Y71.465 E36.26455
G1 X61.062 Y70.277 E36.62337
G1 X58.541 Y69.139 E36.98847
G1 X56.616 Y68.33 E37.2641
G1 X56.096 Y68.099 E37.33921
G1 X55.464 Y67.771 E37.4332
G1 X54.802 Y67.357 E37.53626
G1 X54.148 Y66.865 E37.64429
G1 X53.583 Y66.357 E37.74459
G1 X53.042 Y65.781 E37.8489
G1 X52.515 Y65.108 E37.96173
G1 X52.125 Y64.515 E38.05542
G1 X51.717 Y63.758 E38.16893
G1 X51.417 Y63.059 E38.26934
G1 X51.153 Y62.258 E38.38066
G1 X50.984 Y61.546 E38.47726
G1 X50.863 Y60.742 E38.58458
G1 X50.823 Y60.241 E38.65092
G1 X50.812 Y59.678 E38.72525
G1 X50.839 Y59.099 E38.80176
G1 X50.922 Y58.373 E38.89822
G1 X51.012 Y57.873 E38.96528
G1 X51.15 Y57.312 E39.04154
G1 X51.324 Y56.764 E39.11744
G1 X51.592 Y56.081 E39.21428
G1 X51.928 Y55.395 E39.31511
G1 X52.181 Y54.959 E39.38165
G1 X52.524 Y54.441 E39.46366
G1 X52.892 Y53.961 E39.5435
G1 X53.327 Y53.467 E39.63038
G10
G0 F3600 X60.088 Y53.118
G0 X61.233 Y53.231
G0 X62.345 Y53.542
G0 X63.378 Y54.036
G0 X64.32 Y54.706
G0 X65.137 Y55.535
G0 X69.392 Y61.611
G11
G1 F1050 X69.511 Y61.524 E39.64984
G1 X69.712 Y61.553 E39.67665
G1 X69.812 Y62.001 E39.73724
G1 X69.34 Y63.546 E39.95049
G1 X68.682 Y64.892 E40.14825
G1 X67.935 Y66.024 E40.32728
G1 X66.847 Y66.997 E40.51995
G1 X66.675 Y66.9 E40.54601
G1 X66.645 Y66.806 E40.55904
G1 X66.88 Y66.192 E40.64582
G1 X67.795 Y65.057 E40.83826
G1 X68.024 Y64.711 E40.89303
G1 X68.906 Y63.054 E41.14081
G1 X69.066 Y62.668 E41.19596
G1 X69.392 Y61.611 E41.34197
G0 F3600 X69.049 Y61.366
G1 F1050 X69.382 Y61.124 E41.39631
G1 X69.802 Y61.124 E41.45175
G1 X70.069 Y61.318 E41.49532
G1 X70.226 Y62.018 E41.59001
G1 X69.716 Y63.686 E41.82025
G1 X69.027 Y65.094 E42.02716
G1 X68.242 Y66.286 E42.21556
G1 X66.998 Y67.397 E42.43573
G1 X66.68 Y67.397 E42.4777
G1 X66.335 Y67.146 E42.53402
G1 X66.22 Y66.794 E42.5829
G1 X66.53 Y65.99 E42.69664
G1 X67.484 Y64.806 E42.89735
G1 X67.671 Y64.523 E42.94213
G1 X68.553 Y62.866 E43.18991
G1 X68.684 Y62.55 E43.23506
G1 X69.049 Y61.366 E43.39861
G0 F3600 X68.707 Y61.119
G1 F1050 X69.25 Y60.724 E43.48724
G1 X69.934 Y60.724 E43.57753
G1 X70.427 Y61.083 E43.65803
G1 X70.639 Y62.032 E43.78639
G1 X70.088 Y63.835 E44.03525
G1 X69.375 Y65.294 E44.2496
G1 X68.547 Y66.55 E44.44818
G1 X67.151 Y67.797 E44.69526
G1 X66.548 Y67.797 E44.77486
G1 X65.994 Y67.394 E44.86529
G1 X65.796 Y66.785 E44.94982
G1 X66.18 Y65.786 E45.09109
G1 X67.172 Y64.555 E45.29978
G1 X67.318 Y64.335 E45.33463
G1 X68.2 Y62.678 E45.58241
G1 X68.302 Y62.432 E45.61756
G1 X68.707 Y61.119 E45.79894
G0 F3600 X68.364 Y60.875
G1 F1050 X69.121 Y60.324 E45.92253
G1 X70.063 Y60.324 E46.04687
G1 X70.784 Y60.849 E46.1646
G1 X71.053 Y62.05 E46.32706
G1 X70.461 Y63.984 E46.59404
G1 X69.724 Y65.491 E46.81548
G1 X68.853 Y66.813 E47.02445
G1 X67.304 Y68.197 E47.29865
G1 X66.419 Y68.197 E47.41547
G1 X65.655 Y67.641 E47.54019
G1 X65.372 Y66.772 E47.66083
G1 X65.827 Y65.587 E47.82839
G1 X66.861 Y64.304 E48.0459
G1 X66.965 Y64.147 E48.07075
G1 X67.847 Y62.49 E48.31853
G1 X67.92 Y62.315 E48.34356
G1 X68.364 Y60.875 E48.54247
G0 F3600 X68.02 Y60.63
G1 F1050 X68.991 Y59.924 E48.70094
G1 X70.193 Y59.924 E48.85961
G1 X71.141 Y60.613 E49.0143
G1 X71.466 Y62.066 E49.21084
G1 X70.834 Y64.13 E49.49577
G1 X70.07 Y65.694 E49.72554
G1 X69.158 Y67.077 E49.94421
G1 X67.457 Y68.597 E50.24533
G1 X66.289 Y68.597 E50.3995
G1 X65.315 Y67.889 E50.55845
G1 X64.948 Y66.761 E50.71503
G1 X65.477 Y65.383 E50.90987
G1 X66.549 Y64.053 E51.13535
G1 X66.612 Y63.959 E51.15029
G1 X67.494 Y62.302 E51.39807
G1 X67.537 Y62.197 E51.41305
G1 X68.02 Y60.63 E51.62949
G0 F3600 X67.677 Y60.385
G1 F1050 X68.862 Y59.524 E51.82284
G1 X70.322 Y59.524 E52.01556
G1 X71.5 Y60.38 E52.20778
G1 X71.88 Y62.082 E52.43797
G1 X71.209 Y64.274 E52.74057
G1 X70.417 Y65.893 E52.97848
G1 X69.463 Y67.341 E53.20737
G1 X67.61 Y68.997 E53.53541
G1 X66.16 Y68.997 E53.72681
G1 X64.974 Y68.135 E53.92034
G1 X64.523 Y66.751 E54.11249
G1 X65.127 Y65.181 E54.33453
G1 X66.238 Y63.802 E54.56829
G1 X66.259 Y63.771 E54.57323
G1 X67.141 Y62.114 E54.82101
G1 X67.155 Y62.079 E54.82598
G1 X67.677 Y60.385 E55.05997
G10
;MESH:cab_coil_smooth.stl
G0 F3600 X65.372 Y60.079
G0 X62.885 Y59.371
G0 X62.955 Y59.301
;TYPE:WALL-INNER
G11
G1 F1050 X63.495 Y59.536 E55.14159
G1 X63.888 Y59.452 E55.19729
G1 X65.18 Y58.868 E55.39381
G1 X65.226 Y58.848 E55.40076
G1 X65.308 Y58.811 E55.41323
G1 X65.362 Y59.147 E55.44509
G1 X65.365 Y59.197 E55.45152
G1 X65.397 Y59.604 E55.5081
G1 X65.391 Y60.08 E55.57408
G1 X65.347 Y60.534 E55.6373
G1 X65.258 Y61.005 E55.70374
G1 X65.135 Y61.452 E55.768
G1 X64.974 Y61.885 E55.83202
G1 X64.77 Y62.312 E55.89761
G1 X64.536 Y62.712 E55.96184
G1 X64.26 Y63.098 E56.02761
G1 X63.969 Y63.443 E56.09017
G1 X63.627 Y63.782 E56.15691
G1 X63.272 Y64.078 E56.22097
G1 X62.895 Y64.341 E56.28468
