;FLAVOR:UltiGCode
;TIME:5818
;MATERIAL:2695
;MATERIAL2:0
;NOZZLE_DIAMETER:0.4
;MINX:42.9
;MINY:28.4
;MINZ:0.3
;MAXX:78.13
;MAXY:91.633
;MAXZ:9
;Generated with Cura_SteamEngine 4.7.1
M82 ;absolute extrusion mode
G0 F3000 Y50 ;avoid prime blob
G92 E0
G92 E0
G10
;LAYER_COUNT:146
;LAYER:0
M107
G0 F3600 X44.086 Y30.538 Z0.3
;TYPE:SKIRT
G11
G1 F1050 X44.441 Y30.136 E0.07079
G1 X44.864 Y29.777 E0.14403
G1 X45.405 Y29.389 E0.23191
G1 X45.865 Y29.114 E0.30265
G1 X46.361 Y28.91 E0.37344
G1 X46.882 Y28.782 E0.44426
G1 X47.498 Y28.72 E0.52598
G1 X48.972 Y28.588 E0.72133
G1 X49.555 Y28.551 E0.79844
G1 X50.946 Y28.531 E0.98207
G1 X51.02 Y28.522 E0.99191
G1 X52.442 Y28.502 E1.17963
G1 X54.064 Y28.433 E1.39393
G1 X55.092 Y28.402 E1.52969
G1 X55.201 Y28.4 E1.54408
G1 X57.815 Y28.4 E1.88913
G1 X58.373 Y28.408 E1.96279
G1 X61.11 Y28.408 E2.32408
G1 X61.789 Y28.4 E2.41371
G1 X64.471 Y28.4 E2.76773
G1 X65.525 Y28.415 E2.90688
G1 X67.711 Y28.477 E3.19554
G1 X70.426 Y28.477 E3.55392
G1 X71.692 Y28.447 E3.72108
G1 X71.922 Y28.446 E3.75144
G1 X72.423 Y28.453 E3.81758
G1 X72.957 Y28.501 E3.88835
G1 X73.479 Y28.627 E3.95924
G1 X73.975 Y28.829 E4.02993
G1 X74.44 Y29.105 E4.10131
G1 X74.953 Y29.468 E4.18426
G1 X75.077 Y29.562 E4.2048
G1 X75.479 Y29.917 E4.27559
G1 X75.824 Y30.328 E4.34643
G1 X76.104 Y30.785 E4.41717
G1 X76.313 Y31.279 E4.48798
G1 X76.469 Y31.946 E4.5784
G1 X76.638 Y33.187 E4.74372
G1 X76.69 Y33.584 E4.79657
G1 X76.802 Y34.503 E4.91878
G1 X76.827 Y35.01 E4.98578
G1 X76.819 Y35.371 E5.03345
G1 X76.761 Y36.538 E5.18768
G1 X76.66 Y39.277 E5.54947
G1 X76.638 Y42.008 E5.90998
G1 X76.692 Y44.704 E6.26592
G1 X76.825 Y47.465 E6.6308
G1 X77.03 Y50.151 E6.98638
G1 X77.317 Y52.875 E7.34794
G1 X77.677 Y55.566 E7.70631
G1 X78.084 Y58.086 E8.04326
G1 X78.13 Y58.62 E8.11401
G1 X78.096 Y59.156 E8.18491
G1 X78.021 Y59.695 E8.25674
G1 X77.681 Y62.412 E8.61818
G1 X77.423 Y65.092 E8.97358
G1 X77.236 Y67.851 E9.3386
G1 X77.131 Y70.542 E9.69408
G1 X77.09 Y73.759 E10.11876
G1 X77.054 Y74.348 E10.19666
G1 X77.027 Y74.629 E10.23392
G1 X76.938 Y75.14 E10.30239
G1 X76.674 Y76.196 E10.44607
G1 X76.525 Y76.75 E10.52179
G1 X75.89 Y79.407 E10.8824
G1 X75.11 Y83.235 E11.39807
G1 X75.108 Y83.254 E11.4006
G1 X74.908 Y84.355 E11.54831
G1 X74.84 Y84.654 E11.58878
G1 X74.538 Y85.767 E11.74101
G1 X74.469 Y86.005 E11.77372
G1 X73.996 Y87.806 E12.01951
G1 X73.821 Y88.497 E12.11361
G1 X73.651 Y89.006 E12.18444
G1 X73.408 Y89.484 E12.25522
G1 X73.096 Y89.92 E12.32599
G1 X72.723 Y90.305 E12.39675
G1 X72.241 Y90.683 E12.47761
G1 X71.895 Y90.929 E12.53365
G1 X71.436 Y91.205 E12.60434
G1 X70.94 Y91.41 E12.67519
G1 X70.419 Y91.538 E12.74601
G1 X69.885 Y91.588 E12.8168
G1 X69.284 Y91.598 E12.89614
G1 X68.439 Y91.586 E13.0077
G1 X65.699 Y91.586 E13.36938
G1 X65.199 Y91.597 E13.43539
G1 X64.766 Y91.6 E13.49255
G1 X62.185 Y91.6 E13.83324
G1 X61.627 Y91.592 E13.90691
G1 X58.89 Y91.592 E14.26819
G1 X58.211 Y91.6 E14.35782
G1 X54.956 Y91.6 E14.78748
G1 X54.88 Y91.603 E14.79752
G1 X52.519 Y91.608 E15.10918
G1 X51.112 Y91.633 E15.29493
G1 X50.597 Y91.611 E15.36297
G1 X50.066 Y91.535 E15.43378
G1 X49.553 Y91.38 E15.50452
G1 X49.068 Y91.15 E15.57537
G1 X48.392 Y90.696 E15.68286
G1 X48.148 Y90.515 E15.72296
G1 X47.747 Y90.159 E15.79374
G1 X47.403 Y89.747 E15.86459
G1 X47.041 Y89.115 E15.96073
G1 X46.476 Y87.845 E16.14421
G1 X46.448 Y87.795 E16.15178
G1 X45.993 Y86.737 E16.3038
G1 X45.561 Y85.787 E16.44156
G1 X45.44 Y85.483 E16.48475
G1 X45.213 Y84.832 E16.57575
G1 X45.118 Y84.517 E16.61918
G1 X44.995 Y83.737 E16.72341
G1 X44.981 Y83.427 E16.76438
G1 X44.908 Y81.168 E17.06272
G1 X44.873 Y80.569 E17.14192
G1 X44.836 Y79.709 E17.25555
G1 X44.836 Y79.407 E17.29541
G1 X44.878 Y78.381 E17.43096
G1 X44.954 Y75.593 E17.79911
G1 X44.95 Y72.867 E18.15894
G1 X44.916 Y71.732 E18.30883
G1 X44.91 Y71.379 E18.35543
G1 X44.823 Y68.626 E18.71901
G1 X44.658 Y65.867 E19.08385
G1 X44.42 Y63.175 E19.44058
G1 X44.101 Y60.436 E19.80457
G1 X43.715 Y57.793 E20.15715
G1 X43.073 Y54.207 E20.63803
G1 X42.986 Y53.697 E20.70632
G1 X42.931 Y53.159 E20.7777
G1 X42.92 Y52.93 E20.80797
G1 X42.9 Y51.826 E20.95372
G1 X42.901 Y46.888 E21.60553
G1 X42.91 Y46.232 E21.69213
G1 X42.919 Y46.02 E21.72014
G1 X43.007 Y44.811 E21.88015
G1 X43.167 Y42.071 E22.24245
G1 X43.248 Y39.377 E22.59822
G1 X43.253 Y36.641 E22.95937
G1 X43.206 Y35.167 E23.15404
G1 X43.21 Y35.065 E23.16751
G1 X43.18 Y33.734 E23.34325
G1 X43.218 Y33.123 E23.42406
G1 X43.304 Y32.611 E23.49259
G1 X43.323 Y32.509 E23.50628
G1 X43.428 Y31.993 E23.57579
G1 X43.574 Y31.477 E23.64658
G1 X43.795 Y30.988 E23.71741
G1 X44.086 Y30.538 E23.78815
G0 F3600 X44.458 Y30.711
G1 F1050 X44.981 Y30.193 E23.88532
G1 X45.635 Y29.716 E23.99217
G1 X46.07 Y29.459 E24.05886
G1 X46.541 Y29.273 E24.1257
G1 X47.235 Y29.141 E24.21895
G1 X47.536 Y29.118 E24.2588
G1 X49.059 Y28.982 E24.46064
G1 X49.561 Y28.951 E24.52703
G1 X50.908 Y28.932 E24.70485
G1 X51.025 Y28.922 E24.72035
G1 X52.466 Y28.901 E24.91058
G1 X54.077 Y28.832 E25.12343
G1 X55.105 Y28.801 E25.25919
G1 X57.809 Y28.8 E25.61611
G1 X58.367 Y28.808 E25.68978
G1 X61.12 Y28.808 E26.05317
G1 X61.791 Y28.8 E26.14175
G1 X64.466 Y28.8 E26.49485
G1 X65.514 Y28.815 E26.6332
G1 X67.7 Y28.877 E26.92187
G1 X70.436 Y28.877 E27.28302
G1 X71.695 Y28.847 E27.44926
G1 X71.917 Y28.846 E27.47856
G1 X72.418 Y28.853 E27.5447
G1 X72.921 Y28.9 E27.61139
G1 X73.411 Y29.026 E27.67817
G1 X73.875 Y29.227 E27.74492
G1 X74.615 Y29.717 E27.86207
G1 X74.835 Y29.881 E27.89829
G1 X75.213 Y30.217 E27.96505
G1 X75.532 Y30.609 E28.03176
G1 X75.787 Y31.046 E28.09855
G1 X75.969 Y31.517 E28.1652
G1 X76.073 Y32 E28.23042
G1 X76.241 Y33.238 E28.39533
G1 X76.292 Y33.633 E28.4479
G1 X76.404 Y34.552 E28.57011
G1 X76.422 Y35.255 E28.66294
G1 X76.419 Y35.351 E28.67561
G1 X76.361 Y36.518 E28.82985
G1 X76.261 Y39.26 E29.19203
G1 X76.238 Y42.013 E29.55544
G1 X76.292 Y44.73 E29.91416
G1 X76.423 Y47.446 E30.27309
G1 X76.635 Y50.223 E30.64072
G1 X76.917 Y52.898 E30.99577
G1 X77.285 Y55.647 E31.36188
G1 X77.689 Y58.15 E31.69655
G1 X77.73 Y58.654 E31.7633
G1 X77.699 Y59.101 E31.82244
G1 X77.624 Y59.64 E31.89428
G1 X77.285 Y62.357 E32.2557
G1 X77.024 Y65.063 E32.61455
G1 X76.838 Y67.807 E32.97759
G1 X76.73 Y70.56 E33.34127
G1 X76.69 Y73.754 E33.76291
G1 X76.655 Y74.319 E33.83763
G1 X76.549 Y75.043 E33.93422
G1 X76.271 Y76.155 E34.08552
G1 X76.127 Y76.691 E34.15878
G1 X75.504 Y79.298 E34.51259
G1 X74.715 Y83.17 E35.0342
G1 X74.714 Y83.183 E35.03592
G1 X74.514 Y84.284 E35.18363
G1 X74.454 Y84.55 E35.21963
G1 X74.154 Y85.656 E35.37089
G1 X74.081 Y85.909 E35.40565
G1 X73.608 Y87.705 E35.65081
G1 X73.433 Y88.399 E35.74528
G1 X73.271 Y88.878 E35.81203
G1 X73.036 Y89.325 E35.87869
G1 X72.732 Y89.73 E35.94554
G1 X72.254 Y90.173 E36.03156
G1 X71.665 Y90.602 E36.12775
G1 X71.23 Y90.861 E36.19457
G1 X70.76 Y91.047 E36.26129
G1 X70.267 Y91.157 E36.32797
G1 X69.395 Y91.197 E36.4432
G1 X69.29 Y91.198 E36.45706
G1 X68.445 Y91.186 E36.56861
G1 X65.69 Y91.186 E36.93227
G1 X64.763 Y91.2 E37.05465
G1 X62.191 Y91.2 E37.39415
G1 X61.633 Y91.192 E37.46781
G1 X58.88 Y91.192 E37.83121
G1 X58.209 Y91.2 E37.91979
G1 X54.919 Y91.2 E38.35407
G1 X54.879 Y91.203 E38.35936
G1 X52.518 Y91.208 E38.67102
G1 X51.105 Y91.233 E38.85756
G1 X50.625 Y91.212 E38.92098
G1 X50.125 Y91.138 E38.9877
G1 X49.643 Y90.985 E39.05445
G1 X49.011 Y90.642 E39.14937
G1 X48.517 Y90.292 E39.22929
G1 X48.391 Y90.196 E39.2502
G1 X48.014 Y89.859 E39.31694
G1 X47.695 Y89.467 E39.38366
G1 X47.406 Y88.952 E39.46161
G1 X46.857 Y87.719 E39.63977
G1 X46.816 Y87.637 E39.65187
G1 X46.357 Y86.572 E39.80495
G1 X45.926 Y85.622 E39.94265
G1 X45.817 Y85.352 E39.98109
G1 X45.59 Y84.701 E40.07209
G1 X45.504 Y84.412 E40.1119
G1 X45.394 Y83.718 E40.20465
G1 X45.381 Y83.414 E40.24481
G1 X45.307 Y81.133 E40.54606
G1 X45.273 Y80.552 E40.62289
G1 X45.236 Y79.692 E40.73651
G1 X45.236 Y79.423 E40.77202
G1 X45.278 Y78.392 E40.90822
G1 X45.354 Y75.603 E41.27651
G1 X45.35 Y72.889 E41.63476
G1 X45.315 Y71.725 E41.78847
G1 X45.309 Y71.322 E41.84168
G1 X45.223 Y68.589 E42.20261
G1 X45.06 Y65.879 E42.56098
G1 X44.813 Y63.081 E42.93175
G1 X44.506 Y60.451 E43.28127
G1 X44.104 Y57.691 E43.64943
G1 X43.467 Y54.136 E44.12616
G1 X43.345 Y53.294 E44.23847
G1 X43.32 Y52.923 E44.28755
G1 X43.3 Y51.826 E44.43238
G1 X43.301 Y46.893 E45.08354
G1 X43.31 Y46.237 E45.17014
G1 X43.318 Y46.049 E45.19497
G1 X43.406 Y44.84 E45.35498
G1 X43.565 Y42.106 E45.71648
G1 X43.648 Y39.355 E46.07978
G1 X43.653 Y36.63 E46.43948
G1 X43.606 Y35.155 E46.63428
G1 X43.61 Y35.06 E46.64683
G1 X43.58 Y33.725 E46.82309
G1 X43.614 Y33.181 E46.89504
G1 X43.698 Y32.679 E46.96223
G1 X43.715 Y32.589 E46.97432
G1 X43.82 Y32.073 E47.04383
G1 X43.96 Y31.587 E47.11059
G1 X44.174 Y31.129 E47.17732
G1 X44.458 Y30.711 E47.24402
G0 F3600 X69.901 Y46.34
G1 F1050 X70.379 Y46.704 E47.32333
G1 X70.445 Y46.779 E47.33652
G1 X69.928 Y46.645 E47.40702
G1 X69.901 Y46.34 E47.44743
G0 F3600 X69.821 Y45.775
G1 F1050 X70.652 Y46.409 E47.58541
G1 X71.191 Y47.027 E47.69365
G1 X71.457 Y47.526 E47.76829
G1 X70.634 Y47.266 E47.88222
G1 X69.841 Y47.038 E47.99114
G1 X69.546 Y47.047 E48.03009
G1 X69.549 Y47.017 E48.03407
G1 X69.466 Y45.872 E48.18561
G1 X69.317 Y45.31 E48.26236
G1 X69.319 Y45.303 E48.26332
G1 X69.697 Y45.668 E48.33268
G1 X69.821 Y45.775 E48.3543
G0 F3600 X70.063 Y45.457
G1 F1050 X70.93 Y46.119 E48.49829
G1 X71.521 Y46.796 E48.61691
G1 X71.948 Y47.597 E48.73673
G1 X72.225 Y48.471 E48.85775
G1 X72.215 Y49.104 E48.94132
G1 X72.138 Y48.569 E49.01267
G1 X72.005 Y48.321 E49.04982
G1 X71.807 Y48.119 E49.08715
G1 X71.5 Y47.959 E49.13285
G1 X70.49 Y47.64 E49.27266
G1 X69.761 Y47.433 E49.37269
G1 X69.48 Y47.46 E49.40996
G1 X69.218 Y47.564 E49.44717
G1 X68.996 Y47.737 E49.48432
G1 X68.83 Y47.966 E49.52165
G1 X68.735 Y48.232 E49.55894
G1 X68.718 Y48.513 E49.5961
G1 X68.914 Y49.137 E49.68243
G1 X68.596 Y48.687 E49.75517
G1 X68.398 Y48.487 E49.79231
G1 X68.151 Y48.35 E49.8296
G1 X67.908 Y48.29 E49.86264
G1 X67.193 Y48.208 E49.95764
G1 X67.392 Y48.212 E49.98391
G1 X68.267 Y48.112 E50.10016
G1 X68.54 Y48.04 E50.13743
G1 X68.782 Y47.896 E50.1746
G1 X68.974 Y47.689 E50.21187
G1 X69.101 Y47.437 E50.24912
G1 X69.15 Y47.046 E50.30113
G1 X69.067 Y45.901 E50.45267
G1 X68.892 Y45.315 E50.5334
G1 X69.046 Y44.748 E50.61095
G1 X69.02 Y44.467 E50.6482
G1 X68.916 Y44.205 E50.68541
G1 X68.744 Y43.982 E50.72259
G1 X68.184 Y43.646 E50.80879
G1 X68.898 Y43.043 E50.93215
G1 X69.086 Y42.832 E50.96946
G1 X69.191 Y42.626 E50.99998
G1 X69.654 Y41.373 E51.17631
G1 X69.714 Y40.965 E51.23074
G1 X69.659 Y40.059 E51.35055
G1 X69.54 Y39.643 E51.40767
G1 X69.38 Y39.348 E51.45197
G1 X69.611 Y39.574 E51.49462
G1 X70.23 Y39.981 E51.59241
G1 X69.928 Y40.418 E51.66253
G1 X69.802 Y40.671 E51.69984
G1 X69.752 Y41.019 E51.74625
G1 X69.787 Y42.095 E51.88835
G1 X69.835 Y42.372 E51.92546
G1 X70.14 Y42.932 E52.00964
G1 X69.659 Y42.955 E52.0732
G1 X69.398 Y43.063 E52.11048
G1 X69.178 Y43.24 E52.14776
G1 X69.016 Y43.47 E52.18489
G1 X68.925 Y43.737 E52.22213
G1 X68.912 Y44.019 E52.25939
G1 X68.978 Y44.293 E52.29659
G1 X69.212 Y44.643 E52.35217
G1 X69.975 Y45.381 E52.49229
G1 X70.063 Y45.457 E52.50764
G0 F3600 X70.306 Y45.139
G1 F1050 X71.203 Y45.823 E52.65654
G1 X71.853 Y46.569 E52.78714
G1 X72.317 Y47.44 E52.91741
G1 X72.626 Y48.414 E53.05229
G1 X72.609 Y49.45 E53.18907
G1 X72.481 Y50.138 E53.28144
G1 X72.307 Y50.265 E53.30987
G1 X72.047 Y50.265 E53.34419
G1 X71.9 Y50.158 E53.36819
G1 X71.831 Y49.362 E53.47366
G1 X71.798 Y48.872 E53.53849
G1 X71.744 Y48.661 E53.56724
G1 X71.617 Y48.483 E53.5961
G1 X71.38 Y48.341 E53.63257
G1 X70.383 Y48.026 E53.77059
G1 X69.909 Y47.864 E53.83671
G1 X69.693 Y47.832 E53.86553
G1 X69.48 Y47.88 E53.89435
G1 X69.298 Y48 E53.92313
G1 X69.172 Y48.178 E53.95191
G1 X69.117 Y48.389 E53.9807
G1 X69.155 Y48.647 E54.01512
G1 X69.56 Y49.702 E54.16429
G1 X69.982 Y50.638 E54.29982
G1 X70.306 Y51.663 E54.44172
G1 X70.524 Y52.703 E54.58198
G1 X70.602 Y52.898 E54.6097
G1 X70.917 Y53.403 E54.68827
G1 X70.467 Y54.034 E54.79057
G1 X70.375 Y54.232 E54.81939
G1 X70.36 Y54.449 E54.8481
G1 X70.423 Y54.658 E54.87692
G1 X70.606 Y54.869 E54.91379
G1 X71.495 Y55.507 E55.05823
G1 X72.367 Y56.1 E55.19742
G1 X72.985 Y56.913 E55.33222
G1 X73.7 Y58.238 E55.53096
G1 X73.899 Y58.693 E55.59652
G1 X73.829 Y58.907 E55.62624
G1 X73.618 Y59.061 E55.66072
G1 X73.465 Y59.061 E55.68092
G1 X72.96 Y58.38 E55.79283
G1 X72.355 Y57.161 E55.97246
G1 X72.24 Y57.002 E55.99836
G1 X71.848 Y56.614 E56.07117
G1 X71.668 Y56.491 E56.09995
G1 X71.46 Y56.442 E56.12815
G1 X71.427 Y56.358 E56.14007
G1 X71.252 Y56.178 E56.17321
G1 X70.346 Y55.571 E56.31716
G1 X69.849 Y55.201 E56.39895
G1 X69.654 Y55.104 E56.42769
G1 X69.436 Y55.084 E56.45659
G1 X69.226 Y55.144 E56.48542
G1 X69.051 Y55.274 E56.5142
G1 X68.934 Y55.458 E56.54298
G1 X68.897 Y55.597 E56.56197
G1 X68.778 Y56.428 E56.67278
G1 X68.787 Y56.646 E56.70158
G1 X68.873 Y56.846 E56.73031
G1 X69.025 Y57.003 E56.75916
G1 X69.223 Y57.094 E56.78792
G1 X69.373 Y57.113 E56.80788
G1 X70.428 Y57.111 E56.94714
G1 X70.87 Y57.273 E57.00928
G1 X71.132 Y58.14 E57.12884
G1 X71.125 Y58.6 E57.18956
G1 X70.823 Y58.696 E57.23139
G1 X70.861 Y58.522 E57.2549
G1 X70.828 Y58.306 E57.28375
G1 X70.721 Y58.116 E57.31253
G1 X70.514 Y57.957 E57.34698
G1 X69.98 Y57.709 E57.4247
G1 X69.768 Y57.654 E57.45361
G1 X69.552 Y57.679 E57.48232
G1 X69.358 Y57.78 E57.51119
G1 X69.213 Y57.943 E57.53998
G1 X69.14 Y58.131 E57.5666
G1 X68.98 Y58.9 E57.67029
G1 X68.975 Y59.118 E57.69907
G1 X69.014 Y59.227 E57.71435
G1 X68.867 Y59.284 E57.73516
G1 X68.5 Y59.668 E57.80528
G1 X68.412 Y59.505 E57.82973
G1 X68.247 Y59.362 E57.85855
G1 X67.932 Y59.279 E57.90155
G1 X67.967 Y59.153 E57.91881
G1 X68.539 Y58.126 E58.07398
G1 X68.609 Y57.919 E58.10283
G1 X68.6 Y57.701 E58.13163
G1 X68.514 Y57.501 E58.16037
G1 X68.274 Y57.293 E58.20229
G1 X67.909 Y57.118 E58.25572
G1 X67.931 Y56.432 E58.34632
G1 X68.258 Y55.079 E58.53006
G1 X68.984 Y54.387 E58.66245
G1 X69.112 Y54.211 E58.69117
G1 X69.168 Y54 E58.71999
G1 X69.145 Y53.783 E58.74879
G1 X69.054 Y53.598 E58.77601
G1 X68.398 Y52.704 E58.92238
G1 X68.68 Y52.316 E58.98569
G1 X69.064 Y52.276 E59.03665
G1 X69.25 Y52.163 E59.06538
G1 X69.383 Y51.99 E59.09419
G1 X69.445 Y51.781 E59.12296
G1 X69.408 Y51.498 E59.16064
G1 X69.026 Y50.516 E59.29972
G1 X68.63 Y49.443 E59.4507
G1 X68.275 Y48.926 E59.53348
G1 X68.116 Y48.777 E59.56224
G1 X67.862 Y48.688 E59.59777
G1 X66.647 Y48.549 E59.7592
G1 X66.533 Y48.547 E59.77425
G1 X66.026 Y48.586 E59.84137
G1 X65.917 Y48.506 E59.85922
G1 X65.89 Y47.675 E59.96897
G1 X65.884 Y47.606 E59.97811
G1 X65.741 Y46.64 E60.10701
G1 X65.874 Y46.059 E60.18569
G1 X66.06 Y45.923 E60.2161
G1 X66.32 Y45.923 E60.25042
G1 X66.497 Y46.052 E60.27933
G1 X66.676 Y46.965 E60.40214
G1 X66.719 Y47.436 E60.46457
G1 X66.834 Y47.622 E60.49344
G1 X67.008 Y47.754 E60.52227
G1 X67.346 Y47.814 E60.56758
G1 X68.221 Y47.714 E60.68383
G1 X68.43 Y47.65 E60.71268
G1 X68.602 Y47.516 E60.74147
G1 X68.715 Y47.329 E60.77031
G1 X68.751 Y47.075 E60.80417
G1 X68.668 Y45.93 E60.95571
G1 X68.467 Y45.321 E61.04036
G1 X68.614 Y44.895 E61.09985
G1 X68.647 Y44.679 E61.12869
G1 X68.6 Y44.466 E61.15748
G1 X68.48 Y44.284 E61.18626
G1 X68.321 Y44.165 E61.21247
G1 X67.795 Y43.895 E61.29052
G1 X67.732 Y43.699 E61.31769
G1 X67.819 Y43.43 E61.35501
G1 X68.64 Y42.737 E61.49683
G1 X68.816 Y42.487 E61.53719
G1 X69.279 Y41.234 E61.71351
G1 X69.315 Y40.99 E61.74607
G1 X69.26 Y40.084 E61.86588
G1 X69.188 Y39.834 E61.90022
G1 X68.659 Y38.861 E62.04641
G1 X68.629 Y38.105 E62.14628
G1 X68.58 Y37.892 E62.17513
G1 X68.459 Y37.711 E62.20387
G1 X68.281 Y37.585 E62.23266
G1 X68.07 Y37.53 E62.26144
G1 X67.915 Y37.54 E62.28195
G1 X67.285 Y37.662 E62.36665
G1 X67.127 Y37.547 E62.39245
G1 X67.047 Y37.301 E62.42659
G1 X67.096 Y37.15 E62.44755
G1 X67.896 Y36.866 E62.5596
G1 X68.123 Y36.722 E62.59509
G1 X68.691 Y36.144 E62.70206
G1 X68.894 Y36.144 E62.72885
G1 X69.147 Y36.328 E62.77015
G1 X69.454 Y36.922 E62.85841
G1 X69.588 Y37.094 E62.88719
G1 X69.775 Y37.207 E62.91603
G1 X69.989 Y37.246 E62.94474
G1 X70.234 Y37.193 E62.97783
G1 X71.318 Y36.704 E63.13481
G1 X71.497 Y36.58 E63.16355
