;FLAVOR:UltiGCode
;TIME:725
;MATERIAL:256
;MATERIAL2:0
;NOZZLE_DIAMETER:0.4
;MINX:46.467
;MINY:49.712
;MINZ:0.3
;MAXX:73.533
;MAXY:70.288
;MAXZ:6
;Generated with Cura_SteamEngine 4.7.1
M82 ;absolute extrusion mode
G0 F3000 Y50 ;avoid prime blob
G92 E0
G92 E0
G10
;LAYER_COUNT:96
;LAYER:0
M107
G0 F3600 X48.328 Y51.594 Z0.3
;TYPE:SKIRT
G11
G1 F1050 X48.759 Y51.215 E0.07576
G1 X49.169 Y50.899 E0.14409
G1 X49.662 Y50.569 E0.2224
G1 X50.175 Y50.317 E0.29784
G1 X50.664 Y50.115 E0.36768
G1 X51.226 Y49.926 E0.44595
G1 X51.809 Y49.815 E0.52429
G1 X52.38 Y49.745 E0.60022
G1 X52.972 Y49.712 E0.67849
G1 X53.273 Y49.727 E0.71827
G1 X54.292 Y49.81 E0.85322
G1 X57.055 Y49.998 E1.21878
G1 X59.281 Y50.076 E1.51279
G1 X60.577 Y50.132 E1.68403
G1 X60.974 Y50.167 E1.73663
G1 X61.68 Y50.262 E1.83067
G1 X62.202 Y50.365 E1.9009
G1 X62.732 Y50.503 E1.97319
G1 X63.365 Y50.707 E2.06098
G1 X63.867 Y50.906 E2.13226
G1 X64.436 Y51.168 E2.21495
G1 X64.951 Y51.447 E2.29226
G1 X65.464 Y51.766 E2.372
G1 X65.983 Y52.136 E2.45614
G1 X66.465 Y52.523 E2.53773
G1 X66.909 Y52.933 E2.6175
G1 X67.289 Y53.327 E2.68976
G1 X67.65 Y53.746 E2.76277
G1 X68.019 Y54.221 E2.84216
G1 X69.555 Y56.453 E3.19981
G1 X71.819 Y59.513 E3.70226
G1 X72.317 Y60.16 E3.81004
G1 X72.645 Y60.653 E3.8882
G1 X72.836 Y61.025 E3.9434
G1 X73.059 Y61.517 E4.0147
G1 X73.266 Y62.072 E4.09289
G1 X73.397 Y62.645 E4.17048
G1 X73.48 Y63.169 E4.24051
G1 X73.533 Y63.759 E4.3187
G1 X73.507 Y64.345 E4.39613
G1 X73.449 Y64.865 E4.4652
G1 X73.344 Y65.448 E4.54339
G1 X73.168 Y65.995 E4.61924
G1 X72.973 Y66.488 E4.68922
G1 X72.718 Y67.024 E4.76757
G1 X72.387 Y67.528 E4.84717
G1 X72.061 Y67.958 E4.91839
G1 X71.672 Y68.406 E4.99671
G1 X71.241 Y68.785 E5.07247
G1 X70.831 Y69.101 E5.1408
G1 X70.338 Y69.431 E5.21911
G1 X69.825 Y69.683 E5.29455
G1 X69.336 Y69.885 E5.36439
G1 X68.774 Y70.074 E5.44266
G1 X68.191 Y70.185 E5.521
G1 X67.62 Y70.255 E5.59693
G1 X67.028 Y70.288 E5.6752
G1 X66.727 Y70.273 E5.71498
G1 X65.708 Y70.19 E5.84993
G1 X62.945 Y70.002 E6.21549
G1 X60.719 Y69.924 E6.50951
G1 X59.423 Y69.868 E6.68074
G1 X59.026 Y69.833 E6.73334
G1 X58.32 Y69.738 E6.82738
G1 X57.798 Y69.635 E6.89761
G1 X57.268 Y69.497 E6.9699
G1 X56.635 Y69.293 E7.05769
G1 X56.01 Y69.044 E7.1465
G1 X55.557 Y68.829 E7.21269
G1 X55.042 Y68.549 E7.29006
G1 X54.536 Y68.234 E7.36874
G1 X54.017 Y67.864 E7.45288
G1 X53.535 Y67.477 E7.53447
G1 X53.091 Y67.067 E7.61424
G1 X52.707 Y66.668 E7.68734
G1 X52.335 Y66.235 E7.76269
G1 X51.981 Y65.779 E7.83889
G1 X50.425 Y63.52 E8.20097
G1 X48.191 Y60.5 E8.69683
G1 X47.683 Y59.84 E8.80677
G1 X47.354 Y59.347 E8.885
G1 X47.159 Y58.965 E8.94162
G1 X46.938 Y58.475 E9.01257
G1 X46.731 Y57.919 E9.09088
G1 X46.603 Y57.354 E9.16735
G1 X46.52 Y56.83 E9.23739
G1 X46.467 Y56.24 E9.31558
G1 X46.493 Y55.655 E9.39288
G1 X46.551 Y55.134 E9.46207
G1 X46.656 Y54.551 E9.54027
G1 X46.835 Y53.997 E9.61712
G1 X47.03 Y53.506 E9.68685
G1 X47.285 Y52.971 E9.76508
G1 X47.613 Y52.472 E9.84391
G1 X47.939 Y52.042 E9.91514
G1 X48.328 Y51.594 E9.99345
G0 F3600 X48.63 Y51.858
G1 F1050 X49.003 Y51.532 E10.05884
G1 X49.413 Y51.216 E10.12717
G1 X49.884 Y50.903 E10.20182
G1 X50.328 Y50.687 E10.267
G1 X50.817 Y50.485 E10.33684
G1 X51.353 Y50.307 E10.41139
G1 X51.857 Y50.212 E10.47909
G1 X52.428 Y50.142 E10.55502
G1 X53.24 Y50.125 E10.66223
G1 X54.289 Y50.211 E10.80116
G1 X57.014 Y50.396 E11.16169
G1 X59.264 Y50.476 E11.45888
G1 X60.56 Y50.532 E11.63011
G1 X60.92 Y50.564 E11.67782
G1 X61.626 Y50.659 E11.77185
G1 X62.101 Y50.752 E11.83574
G1 X62.631 Y50.89 E11.90803
G1 X63.218 Y51.079 E11.98943
G1 X63.72 Y51.278 E12.06071
G1 X64.245 Y51.52 E12.13702
G1 X64.76 Y51.799 E12.21434
G1 X65.232 Y52.092 E12.28767
G1 X65.751 Y52.462 E12.3718
G1 X66.195 Y52.818 E12.44693
G1 X66.63 Y53.219 E12.52502
G1 X66.986 Y53.588 E12.5927
G1 X67.347 Y54.007 E12.66571
G1 X67.69 Y54.448 E12.73945
G1 X69.228 Y56.682 E13.09747
G1 X71.52 Y59.78 E13.60615
G1 X71.999 Y60.403 E13.70989
G1 X72.311 Y60.875 E13.78457
G1 X72.471 Y61.19 E13.83121
G1 X72.694 Y61.682 E13.90251
G1 X72.891 Y62.212 E13.97715
G1 X73.002 Y62.707 E14.04411
G1 X73.085 Y63.231 E14.11414
G1 X73.134 Y63.794 E14.18874
G1 X73.109 Y64.3 E14.25561
G1 X73.051 Y64.82 E14.32468
G1 X72.949 Y65.376 E14.39929
G1 X72.796 Y65.848 E14.46479
G1 X72.601 Y66.341 E14.53477
G1 X72.356 Y66.851 E14.60946
G1 X72.069 Y67.287 E14.67836
G1 X71.743 Y67.717 E14.74959
G1 X71.37 Y68.142 E14.82423
G1 X70.997 Y68.468 E14.88962
G1 X70.587 Y68.784 E14.95795
G1 X70.116 Y69.097 E15.0326
G1 X69.672 Y69.313 E15.09777
G1 X69.183 Y69.515 E15.16761
G1 X68.647 Y69.693 E15.24216
G1 X68.143 Y69.788 E15.30986
G1 X67.572 Y69.858 E15.3858
G1 X66.76 Y69.875 E15.493
G1 X65.711 Y69.789 E15.63194
G1 X62.986 Y69.604 E15.99246
G1 X60.736 Y69.524 E16.28965
G1 X59.44 Y69.468 E16.46088
G1 X59.08 Y69.436 E16.50859
G1 X58.374 Y69.341 E16.60262
G1 X57.899 Y69.248 E16.66651
G1 X57.369 Y69.11 E16.73881
G1 X56.782 Y68.921 E16.82021
G1 X56.169 Y68.677 E16.9073
G1 X55.748 Y68.477 E16.96882
G1 X55.233 Y68.197 E17.0462
G1 X54.768 Y67.908 E17.11847
G1 X54.249 Y67.538 E17.2026
G1 X53.805 Y67.182 E17.27772
G1 X53.37 Y66.781 E17.35582
G1 X53.01 Y66.408 E17.42425
G1 X52.638 Y65.975 E17.4996
G1 X52.31 Y65.552 E17.57026
G1 X50.752 Y63.29 E17.93281
G1 X48.485 Y60.227 E18.43582
G1 X48 Y59.596 E18.54087
G1 X47.688 Y59.125 E18.61545
G1 X47.524 Y58.801 E18.66338
G1 X47.303 Y58.311 E18.73434
G1 X47.107 Y57.78 E18.80905
G1 X46.998 Y57.292 E18.87506
G1 X46.915 Y56.768 E18.94509
G1 X46.866 Y56.205 E19.01968
G1 X46.891 Y55.699 E19.08656
G1 X46.949 Y55.178 E19.15575
G1 X47.051 Y54.622 E19.23037
G1 X47.206 Y54.145 E19.29658
G1 X47.401 Y53.654 E19.36631
G1 X47.647 Y53.144 E19.44105
G1 X47.931 Y52.713 E19.50919
G1 X48.257 Y52.283 E19.58041
G1 X48.63 Y51.858 E19.65506
G0 F3600 X48.931 Y52.123
G1 F1050 X49.247 Y51.849 E19.71027
G1 X49.657 Y51.533 E19.77859
G1 X50.105 Y51.238 E19.8494
G1 X50.481 Y51.057 E19.90448
G1 X50.97 Y50.855 E19.97432
G1 X51.479 Y50.687 E20.04507
G1 X51.906 Y50.609 E20.10237
G1 X52.477 Y50.539 E20.17831
G1 X53.208 Y50.524 E20.27482
G1 X54.237 Y50.608 E20.4111
G1 X57.003 Y50.796 E20.77705
G1 X59.246 Y50.875 E21.07331
G1 X60.542 Y50.931 E21.24454
G1 X60.867 Y50.96 E21.28762
G1 X61.573 Y51.055 E21.38165
G1 X62 Y51.139 E21.43909
G1 X62.53 Y51.277 E21.51138
G1 X63.071 Y51.45 E21.58636
G1 X63.573 Y51.649 E21.65764
G1 X64.055 Y51.872 E21.72774
G1 X64.57 Y52.151 E21.80506
G1 X65 Y52.418 E21.87187
G1 X65.519 Y52.788 E21.956
G1 X65.925 Y53.113 E22.02465
G1 X66.351 Y53.506 E22.10116
G1 X66.683 Y53.849 E22.16417
G1 X67.044 Y54.268 E22.23717
G1 X67.36 Y54.675 E22.30519
G1 X68.9 Y56.912 E22.66368
G1 X71.188 Y60.004 E23.17142
G1 X71.682 Y60.647 E23.27845
G1 X71.976 Y61.095 E23.34918
G1 X72.107 Y61.355 E23.38761
G1 X72.33 Y61.847 E23.45892
G1 X72.514 Y62.35 E23.52961
G1 X72.607 Y62.77 E23.5864
G1 X72.69 Y63.294 E23.65643
G1 X72.734 Y63.828 E23.72715
G1 X72.712 Y64.256 E23.78372
G1 X72.654 Y64.776 E23.85279
G1 X72.555 Y65.303 E23.92357
G1 X72.424 Y65.701 E23.97888
G1 X72.229 Y66.194 E24.04886
G1 X71.995 Y66.677 E24.11971
G1 X71.75 Y67.045 E24.17806
G1 X71.424 Y67.475 E24.24929
G1 X71.069 Y67.877 E24.32008
G1 X70.753 Y68.151 E24.37529
G1 X70.343 Y68.467 E24.44362
G1 X69.895 Y68.762 E24.51443
G1 X69.519 Y68.943 E24.56951
G1 X69.03 Y69.145 E24.63935
G1 X68.521 Y69.313 E24.7101
G1 X68.094 Y69.391 E24.7674
G1 X67.523 Y69.461 E24.84333
G1 X66.792 Y69.476 E24.93985
G1 X65.763 Y69.392 E25.07613
G1 X62.997 Y69.204 E25.44208
G1 X60.754 Y69.125 E25.73834
G1 X59.458 Y69.069 E25.90957
G1 X59.133 Y69.04 E25.95264
G1 X58.427 Y68.945 E26.04667
G1 X58 Y68.861 E26.10412
G1 X57.47 Y68.723 E26.17641
G1 X56.929 Y68.55 E26.25139
G1 X56.427 Y68.351 E26.32267
G1 X55.939 Y68.126 E26.3936
G1 X55.424 Y67.846 E26.47098
G1 X55 Y67.582 E26.53691
G1 X54.481 Y67.212 E26.62104
G1 X54.075 Y66.887 E26.68969
G1 X53.649 Y66.494 E26.7662
G1 X53.313 Y66.147 E26.82995
G1 X52.941 Y65.714 E26.90531
G1 X52.64 Y65.326 E26.97013
G1 X51.07 Y63.047 E27.33543
G1 X48.825 Y60.012 E27.83374
G1 X48.317 Y59.352 E27.94368
G1 X48.023 Y58.904 E28.01441
G1 X47.888 Y58.636 E28.05402
G1 X47.667 Y58.146 E28.12498
G1 X47.484 Y57.642 E28.19575
G1 X47.393 Y57.229 E28.25158
G1 X47.31 Y56.705 E28.32161
G1 X47.266 Y56.171 E28.39234
G1 X47.288 Y55.744 E28.44877
G1 X47.346 Y55.223 E28.51797
G1 X47.445 Y54.696 E28.58875
G1 X47.578 Y54.292 E28.6449
G1 X47.773 Y53.801 E28.71463
G1 X48.008 Y53.319 E28.78542
G1 X48.25 Y52.955 E28.84311
G1 X48.576 Y52.525 E28.91434
G1 X48.931 Y52.123 E28.98513
G0 F3600 X49.231 Y52.389
G1 F1050 X49.492 Y52.165 E29.03053
G1 X49.902 Y51.849 E29.09886
G1 X50.325 Y51.573 E29.16553
G1 X50.633 Y51.426 E29.21058
G1 X51.122 Y51.224 E29.28042
G1 X51.603 Y51.069 E29.34713
G1 X51.955 Y51.006 E29.39433
G1 X52.526 Y50.936 E29.47027
G1 X53.175 Y50.923 E29.55595
G1 X54.21 Y51.007 E29.69302
G1 X56.992 Y51.196 E30.06109
G1 X59.229 Y51.275 E30.35656
G1 X60.525 Y51.331 E30.52779
G1 X60.814 Y51.357 E30.56609
G1 X61.52 Y51.452 E30.66013
G1 X61.899 Y51.526 E30.7111
G1 X62.429 Y51.664 E30.78339
G1 X62.923 Y51.822 E30.85185
G1 X63.425 Y52.021 E30.92313
G1 X63.864 Y52.223 E30.98692
G1 X64.379 Y52.502 E31.06424
G1 X64.768 Y52.743 E31.12464
G1 X65.287 Y53.113 E31.20878
G1 X65.999 Y53.724 E31.33262
G1 X66.38 Y54.11 E31.40421
G1 X66.741 Y54.529 E31.47722
G1 X67.031 Y54.901 E31.53948
G1 X68.591 Y57.167 E31.90262
G1 X70.85 Y60.221 E32.40405
G1 X71.365 Y60.891 E32.51559
G1 X71.743 Y61.52 E32.61246
G1 X71.966 Y62.012 E32.68377
G1 X72.137 Y62.487 E32.7504
G1 X72.212 Y62.832 E32.79701
G1 X72.295 Y63.356 E32.86704
G1 X72.334 Y63.86 E32.93377
G1 X72.314 Y64.212 E32.9803
G1 X72.256 Y64.732 E33.04937
G1 X72.161 Y65.228 E33.11603
G1 X72.052 Y65.554 E33.16141
G1 X71.857 Y66.047 E33.23139
G1 X71.634 Y66.501 E33.29815
G1 X71.431 Y66.803 E33.34619
G1 X71.105 Y67.233 E33.41742
G1 X70.769 Y67.611 E33.48417
G1 X70.508 Y67.835 E33.52957
G1 X70.098 Y68.151 E33.5979
G1 X69.675 Y68.427 E33.66457
G1 X69.367 Y68.574 E33.70962
G1 X68.878 Y68.776 E33.77946
G1 X68.397 Y68.931 E33.84617
G1 X68.045 Y68.994 E33.89337
G1 X67.474 Y69.064 E33.96931
G1 X66.825 Y69.077 E34.05499
G1 X65.79 Y68.993 E34.19206
G1 X63.008 Y68.804 E34.56013
G1 X60.771 Y68.725 E34.8556
G1 X59.475 Y68.669 E35.02683
G1 X59.186 Y68.643 E35.06513
G1 X58.48 Y68.548 E35.15917
G1 X58.101 Y68.474 E35.21014
G1 X57.571 Y68.336 E35.28243
G1 X57.077 Y68.178 E35.35089
G1 X56.575 Y67.979 E35.42217
G1 X56.13 Y67.774 E35.48685
G1 X55.615 Y67.494 E35.56423
G1 X55.232 Y67.257 E35.62368
G1 X54.713 Y66.887 E35.70781
G1 X54.001 Y66.276 E35.83166
G1 X53.617 Y65.886 E35.9039
G1 X53.245 Y65.453 E35.97926
G1 X52.969 Y65.099 E36.03851
G1 X51.397 Y62.817 E36.40429
G1 X49.123 Y59.743 E36.90901
G1 X48.634 Y59.108 E37.01481
G1 X48.253 Y58.472 E37.11267
G1 X48.032 Y57.982 E37.18362
G1 X47.861 Y57.506 E37.25039
G1 X47.788 Y57.167 E37.29616
G1 X47.705 Y56.643 E37.36619
G1 X47.666 Y56.139 E37.43292
G1 X47.686 Y55.788 E37.47933
G1 X47.744 Y55.267 E37.54852
G1 X47.839 Y54.77 E37.61531
G1 X47.95 Y54.44 E37.66127
G1 X48.145 Y53.949 E37.73101
G1 X48.368 Y53.495 E37.79778
G1 X48.569 Y53.197 E37.84522
G1 X48.895 Y52.767 E37.91645
G1 X49.231 Y52.389 E37.98321
G10
;MESH:encoder_holder_m1.stl
G0 F3600 X50.981 Y54.203
G0 X51.749 Y54.97
G0 X53.153 Y54.94
G0 X53.931 Y55.579
G0 X53.949 Y56.907
;TYPE:WALL-INNER
G11
G1 F1050 X54.165 Y56.418 E38.0573
G1 X54.172 Y56.402 E38.05972
G1 X54.195 Y56.152 E38.09452
G1 X54.205 Y56.046 E38.10928
G1 X54.106 Y55.624 E38.16935
G1 X54.079 Y55.507 E38.186
G1 X53.716 Y55.047 E38.26721
G1 X53.622 Y54.999 E38.28184
G1 X53.244 Y54.805 E38.34073
G1 X53.193 Y54.779 E38.34866
G1 X52.891 Y54.769 E38.39054
G1 X52.608 Y54.759 E38.42979
G1 X52.541 Y54.786 E38.4398
G1 X52.202 Y54.926 E38.49064
G1 X52.067 Y54.982 E38.5109
G1 X51.921 Y55.141 E38.54081
G1 X51.67 Y55.415 E38.59232
G1 X51.563 Y55.751 E38.64119
G1 X51.491 Y55.975 E38.6738
G1 X51.506 Y56.098 E38.69097
G1 X51.553 Y56.462 E38.74184
G1 X51.565 Y56.557 E38.75512
G1 X51.704 Y56.779 E38.79142
G1 X51.876 Y57.053 E38.83626
G1 X51.904 Y57.071 E38.84087
G1 X52.235 Y57.289 E38.8958
G1 X52.365 Y57.375 E38.91741
G1 X52.946 Y57.461 E38.99881
G1 X53.117 Y57.411 E39.0235
G1 X53.509 Y57.295 E39.08016
G1 X53.642 Y57.177 E39.10481
G1 X53.938 Y56.916 E39.1595
G1 X53.949 Y56.907 E39.16147
G0 F3600 X53.924 Y57.594
G1 F1050 X54.033 Y58.008 E39.22081
G1 X54.065 Y58.131 E39.23842
G1 X54.076 Y58.172 E39.24431
G1 X54.254 Y58.406 E39.28506
G1 X54.44 Y58.649 E39.32747
G1 X54.7 Y58.797 E39.36894
G1 X54.96 Y58.946 E39.41047
G1 X55.063 Y58.958 E39.42484
G1 X55.492 Y59.009 E39.48472
G1 X55.528 Y59.014 E39.48976
G1 X55.482 Y59.098 E39.49602
G1 X55.409 Y59.75 E39.58695
G1 X55.403 Y59.808 E39.59503
G1 X55.41 Y60.107 E39.63648
G1 X55.42 Y60.46 E39.68543
G1 X55.455 Y60.664 E39.71412
G1 X55.534 Y61.11 E39.77689
G1 X55.564 Y61.204 E39.79057
G1 X55.735 Y61.73 E39.86723
G1 X55.993 Y62.253 E39.94806
G1 X56.024 Y62.316 E39.95779
G1 X56.297 Y62.716 E40.02491
G1 X56.392 Y62.854 E40.04813
G1 X56.652 Y63.139 E40.1016
G1 X56.831 Y63.336 E40.13849
G1 X57.049 Y63.516 E40.17767
G1 X57.335 Y63.751 E40.22898
G1 X57.487 Y63.843 E40.25361
G1 X57.879 Y64.082 E40.31724
G1 X57.963 Y64.118 E40.3299
G1 X58.476 Y64.34 E40.40738
G1 X59.045 Y64.496 E40.48915
G1 X59.105 Y64.513 E40.4978
G1 X59.582 Y64.572 E40.56441
G1 X59.752 Y64.593 E40.58815
G1 X60.142 Y64.589 E40.64221
G1 X60.404 Y64.585 E40.67853
G1 X60.668 Y64.542 E40.7156
G1 X61.048 Y64.48 E40.76896
G1 X61.223 Y64.427 E40.79431
G1 X61.672 Y64.288 E40.85945
G1 X61.743 Y64.254 E40.87036
G1 X62.267 Y64.005 E40.95077
G1 X62.675 Y63.735 E41.01858
G1 X62.806 Y63.648 E41.04038
G1 X63.086 Y63.408 E41.09149
G1 X63.212 Y63.3 E41.11449
G1 X63.256 Y63.219 E41.12727
G1 X63.278 Y63.248
G1 X63.379 Y63.38 E41.1437
G1 X63.529 Y63.576 E41.17791
G1 X63.571 Y63.63 E41.18739
G1 X63.755 Y63.735 E41.21675
G1 X64.09 Y63.926 E41.2702
G1 X64.298 Y63.95 E41.29922
G1 X64.685 Y63.997 E41.35325
G1 X64.781 Y63.97 E41.36707
G1 X64.911 Y63.933 E41.38581
G1 X65.262 Y63.832 E41.43643
G1 X65.532 Y63.614 E41.48453
G1 X65.61 Y63.551 E41.49842
G1 X65.728 Y63.456 E41.51942
G1 X65.883 Y63.169 E41.56463
G1 X66.005 Y62.943 E41.60022
G1 X66.035 Y62.734 E41.62949
G1 X66.074 Y62.467 E41.66689
G1 X65.955 Y61.896 E41.74773
G1 X65.745 Y61.59 E41.79917
G1 X65.616 Y61.403 E41.83065
G1 X65.294 Y61.196 E41.88371
G1 X65.112 Y61.079 E41.9137
G1 X64.952 Y61.052 E41.93619
G1 X64.519 Y60.978 E41.99707
G1 X64.471 Y60.989 E42.0039
G1 X64.486 Y60.961
G1 X64.517 Y60.905 E42.00894
G1 X64.591 Y60.25 E42.1003
G1 X64.597 Y60.192 E42.10838
G1 X64.59 Y59.893 E42.14984
G1 X64.58 Y59.54 E42.19878
G1 X64.544 Y59.331 E42.22818
G1 X64.466 Y58.89 E42.29025
G1 X64.435 Y58.795 E42.3041
G1 X64.265 Y58.27 E42.38058
G1 X64.013 Y57.759 E42.45955
G1 X63.976 Y57.684 E42.47114
G1 X63.702 Y57.284 E42.53834
G1 X63.608 Y57.146 E42.56148
G1 X63.348 Y56.861 E42.61495
G1 X63.169 Y56.664 E42.65185
G1 X62.951 Y56.484 E42.69103
G1 X62.665 Y56.249 E42.74233
G1 X62.513 Y56.157 E42.76696
G1 X62.121 Y55.918 E42.83059
G1 X62.037 Y55.882 E42.84326
G1 X61.524 Y55.66 E42.92073
G1 X60.955 Y55.504 E43.00251
G1 X60.895 Y55.487 E43.01115
G1 X60.418 Y55.428 E43.07777
G1 X60.248 Y55.407 E43.10151
G1 X59.858 Y55.411 E43.15556
G1 X59.596 Y55.415 E43.19188
G1 X59.332 Y55.458 E43.22895
G1 X58.952 Y55.52 E43.28232
G1 X58.777 Y55.573 E43.30766
G1 X58.328 Y55.712 E43.37281
G1 X58.257 Y55.746 E43.38372
G1 X57.733 Y55.995 E43.46413
G1 X57.325 Y56.265 E43.53194
G1 X57.194 Y56.352 E43.55373
G1 X56.918 Y56.589 E43.60415
G1 X56.788 Y56.7 E43.62785
G1 X56.739 Y56.791 E43.64217
G1 X56.713 Y56.753
G1 X56.616 Y56.612 E43.65909
G1 X56.495 Y56.436 E43.68869
G1 X56.486 Y56.423 E43.69088
G1 X56.233 Y56.26 E43.73259
G1 X55.982 Y56.099 E43.77392
G1 X55.698 Y56.051 E43.81385
G1 X55.389 Y55.998 E43.8573
G1 X55.208 Y56.041 E43.88308
G1 X55.077 Y56.072 E43.90174
G1 X54.806 Y56.136 E43.94033
G1 X54.525 Y56.34 E43.98846
G1 X54.322 Y56.487 E44.01417
G1 X54.036 Y56.959 E44.041
G1 X54.012 Y56.999 E44.04437
G1 X53.955 Y57.39 E44.08058
G1 X53.924 Y57.594 E44.10918
G0 F3600 X56.164 Y62.236
G0 X56.942 Y63.218
G0 X57.955 Y63.94
G0 X59.139 Y64.356
G0 X59.938 Y64.43
G0 X64.29 Y64.023
