;FLAVOR:UltiGCode
;TIME:2370
;MATERIAL:921
;MATERIAL2:0
;NOZZLE_DIAMETER:0.4
;MINX:46.85
;MINY:44.5
;MINZ:0.3
;MAXX:73.15
;MAXY:75.483
;MAXZ:15.78
;Generated with Cura_SteamEngine 4.7.1
M82 ;absolute extrusion mode
G0 F3000 Y50 ;avoid prime blob
G92 E0
G92 E0
G10
;LAYER_COUNT:259
;LAYER:0
M107
G0 F3600 X50.016 Y45.695 Z0.3
;TYPE:SKIRT
G11
G1 F1050 X50.441 Y45.322 E0.07464
G1 X50.915 Y45.013 E0.14933
G1 X51.427 Y44.774 E0.22392
G1 X51.968 Y44.61 E0.29854
G1 X52.747 Y44.511 E0.40219
G1 X53.18 Y44.5 E0.45937
G1 X66.5 Y44.5 E2.21761
G1 X67.201 Y44.51 E2.31015
G1 X67.764 Y44.558 E2.38473
G1 X68.315 Y44.685 E2.45937
G1 X68.843 Y44.889 E2.53409
G1 X69.336 Y45.164 E2.6086
G1 X69.786 Y45.507 E2.68329
G1 X70.183 Y45.909 E2.75787
G1 X70.519 Y46.364 E2.83253
G1 X70.867 Y46.998 E2.928
G1 X71.732 Y48.615 E3.17006
G1 X72.457 Y49.94 E3.36943
G1 X72.682 Y50.39 E3.43584
G1 X72.782 Y50.613 E3.46811
G1 X72.976 Y51.144 E3.54273
G1 X73.094 Y51.697 E3.61737
G1 X73.131 Y52.175 E3.68065
G1 X73.15 Y53.206 E3.81677
G1 X73.15 Y59.685 E4.672
G1 X73.14 Y60.39 E4.76506
G1 X73.092 Y60.953 E4.83965
G1 X72.965 Y61.504 E4.91429
G1 X72.769 Y62.02 E4.98715
G1 X72.493 Y62.59 E5.07075
G1 X72.153 Y63.223 E5.16559
G1 X71.928 Y63.614 E5.22514
G1 X70.805 Y65.469 E5.51137
G1 X69.479 Y67.806 E5.86606
G1 X68.599 Y69.491 E6.11698
G1 X68.534 Y69.597 E6.13339
G1 X67.919 Y70.756 E6.30659
G1 X67.503 Y71.451 E6.41351
G1 X67.188 Y71.897 E6.48558
G1 X66.815 Y72.362 E6.56427
G1 X66.348 Y72.863 E6.65467
G1 X65.854 Y73.317 E6.74324
G1 X65.584 Y73.535 E6.78904
G1 X65.048 Y73.932 E6.87709
G1 X64.612 Y74.216 E6.94577
G1 X64.151 Y74.472 E7.01538
G1 X63.641 Y74.716 E7.09001
G1 X63.131 Y74.926 E7.16281
G1 X62.436 Y75.151 E7.25924
G1 X61.887 Y75.287 E7.3339
G1 X61.264 Y75.397 E7.41741
G1 X60.538 Y75.465 E7.51366
G1 X59.854 Y75.483 E7.60398
G1 X59.331 Y75.465 E7.67305
G1 X58.772 Y75.405 E7.74727
G1 X58.271 Y75.321 E7.81432
G1 X57.655 Y75.18 E7.89774
G1 X56.966 Y74.962 E7.99313
G1 X56.469 Y74.766 E8.06365
G1 X55.98 Y74.54 E8.13476
G1 X55.343 Y74.188 E8.23082
G1 X54.847 Y73.863 E8.3091
G1 X54.367 Y73.506 E8.38806
G1 X53.876 Y73.079 E8.47395
G1 X53.458 Y72.664 E8.55171
G1 X53.079 Y72.239 E8.62687
G1 X52.657 Y71.684 E8.7189
G1 X52.342 Y71.205 E8.79458
G1 X52.07 Y70.733 E8.86649
G1 X51.612 Y69.851 E8.99767
G1 X50.333 Y67.473 E9.35409
G1 X48.979 Y65.115 E9.71301
G1 X48.47 Y64.283 E9.84176
G1 X47.983 Y63.459 E9.9681
G1 X47.92 Y63.348 E9.98495
G1 X47.543 Y62.661 E10.08839
G1 X47.318 Y62.21 E10.15492
G1 X47.218 Y61.987 E10.18718
G1 X47.024 Y61.456 E10.2618
G1 X46.906 Y60.903 E10.33644
G1 X46.869 Y60.425 E10.39973
G1 X46.85 Y59.394 E10.53584
G1 X46.85 Y52.897 E11.39345
G1 X46.861 Y52.2 E11.48546
G1 X46.91 Y51.637 E11.56006
G1 X47.038 Y51.086 E11.63473
G1 X47.216 Y50.615 E11.70119
G1 X47.445 Y50.131 E11.77187
G1 X47.508 Y50.008 E11.79011
G1 X48.447 Y48.262 E12.0518
G1 X48.667 Y47.846 E12.11392
G1 X49.344 Y46.6 E12.3011
G1 X49.648 Y46.124 E12.37565
G1 X50.016 Y45.695 E12.45026
G0 F3600 X50.34 Y45.938
G1 F1050 X50.749 Y45.592 E12.52097
G1 X51.206 Y45.311 E12.59179
G1 X51.7 Y45.101 E12.66265
G1 X52.219 Y44.966 E12.73343
G1 X52.758 Y44.91 E12.80496
G1 X53.18 Y44.9 E12.86068
G1 X66.494 Y44.9 E14.61813
G1 X67.195 Y44.91 E14.71067
G1 X67.73 Y44.958 E14.78158
G1 X68.251 Y45.084 E14.85233
G1 X68.747 Y45.287 E14.92307
G1 X69.208 Y45.561 E14.99386
G1 X69.624 Y45.9 E15.0647
G1 X69.984 Y46.297 E15.13544
G1 X70.334 Y46.842 E15.22094
G1 X70.514 Y47.186 E15.27219
G1 X71.381 Y48.807 E15.51484
G1 X72.106 Y50.132 E15.71421
G1 X72.417 Y50.777 E15.80873
G1 X72.599 Y51.281 E15.87947
G1 X72.705 Y51.807 E15.95029
G1 X72.731 Y52.182 E15.99991
G1 X72.75 Y53.206 E16.1351
G1 X72.75 Y59.679 E16.98954
G1 X72.74 Y60.384 E17.08261
G1 X72.692 Y60.918 E17.15338
G1 X72.566 Y61.439 E17.22414
G1 X72.331 Y62.015 E17.30625
G1 X72.14 Y62.4 E17.36298
G1 X71.743 Y63.137 E17.47348
G1 X71.585 Y63.407 E17.51478
G1 X70.473 Y65.244 E17.79823
G1 X69.122 Y67.625 E18.15959
G1 X68.244 Y69.306 E18.40992
G1 X68.186 Y69.4 E18.4245
G1 X67.515 Y70.662 E18.61317
G1 X67.164 Y71.238 E18.70221
G1 X66.873 Y71.65 E18.76879
G1 X66.515 Y72.098 E18.84449
G1 X66.061 Y72.585 E18.93237
G1 X65.588 Y73.017 E19.01693
G1 X65.346 Y73.214 E19.05812
G1 X64.81 Y73.611 E19.14616
G1 X64.272 Y73.95 E19.2301
G1 X63.768 Y74.218 E19.30545
G1 X63.15 Y74.489 E19.39453
G1 X62.669 Y74.663 E19.46205
G1 X62.117 Y74.824 E19.53795
G1 X61.505 Y74.955 E19.62056
G1 X60.843 Y75.043 E19.70871
G1 X60.528 Y75.065 E19.75039
G1 X59.844 Y75.083 E19.84071
G1 X59.193 Y75.051 E19.92675
G1 X58.593 Y74.975 E20.00658
G1 X57.984 Y74.85 E20.08864
G1 X57.464 Y74.706 E20.15987
G1 X56.902 Y74.512 E20.23835
G1 X56.313 Y74.257 E20.32307
G1 X55.82 Y74.004 E20.39621
G1 X55.379 Y73.741 E20.46399
G1 X54.779 Y73.318 E20.5609
G1 X54.142 Y72.781 E20.67087
G1 X53.754 Y72.395 E20.74312
G1 X53.389 Y71.986 E20.81548
G1 X52.98 Y71.448 E20.90468
G1 X52.686 Y71.002 E20.9752
G1 X52.425 Y70.549 E21.04421
G1 X51.967 Y69.667 E21.17539
G1 X50.683 Y67.278 E21.5334
G1 X49.324 Y64.912 E21.89357
G1 X48.845 Y64.131 E22.0145
G1 X48.328 Y63.256 E22.14866
G1 X48.271 Y63.156 E22.16385
G1 X47.894 Y62.469 E22.26729
G1 X47.583 Y61.823 E22.36193
G1 X47.401 Y61.319 E22.43266
G1 X47.295 Y60.793 E22.50349
G1 X47.269 Y60.418 E22.55311
G1 X47.25 Y59.394 E22.6883
G1 X47.25 Y52.903 E23.54511
G1 X47.261 Y52.206 E23.63713
G1 X47.31 Y51.672 E23.70791
G1 X47.437 Y51.151 E23.7787
G1 X47.666 Y50.592 E23.85844
G1 X47.861 Y50.198 E23.91647
G1 X48.814 Y48.427 E24.18194
G1 X49.016 Y48.042 E24.23933
G1 X49.695 Y46.791 E24.42721
G1 X49.985 Y46.34 E24.49799
G1 X50.34 Y45.938 E24.56878
G0 F3600 X50.661 Y46.183
G1 F1050 X51.055 Y45.866 E24.63554
G1 X51.494 Y45.615 E24.70229
G1 X51.967 Y45.436 E24.76904
G1 X52.462 Y45.334 E24.83576
G1 X53.09 Y45.301 E24.91877
G1 X66.489 Y45.3 E26.68744
G1 X67.19 Y45.31 E26.77998
G1 X67.693 Y45.357 E26.84666
G1 X68.183 Y45.483 E26.91345
G1 X68.646 Y45.685 E26.98013
G1 X69.073 Y45.957 E27.04695
G1 X69.451 Y46.292 E27.11363
G1 X69.771 Y46.683 E27.18032
G1 X70.161 Y47.375 E27.28517
G1 X71.03 Y48.999 E27.5283
G1 X71.755 Y50.324 E27.72767
G1 X72.052 Y50.941 E27.81806
G1 X72.222 Y51.417 E27.88478
G1 X72.314 Y51.914 E27.9515
G1 X72.331 Y52.19 E27.988
G1 X72.35 Y53.206 E28.12213
G1 X72.35 Y59.673 E28.97578
G1 X72.34 Y60.378 E29.06885
G1 X72.293 Y60.882 E29.13566
G1 X72.08 Y61.597 E29.23414
G1 X71.847 Y62.097 E29.30696
G1 X71.788 Y62.211 E29.3239
G1 X71.448 Y62.844 E29.41875
G1 X71.243 Y63.199 E29.47286
G1 X70.126 Y65.044 E29.75755
G1 X68.783 Y67.409 E30.11656
G1 X67.89 Y69.121 E30.37143
G1 X67.835 Y69.208 E30.38502
G1 X67.213 Y70.381 E30.56028
G1 X66.826 Y71.024 E30.65934
G1 X66.331 Y71.693 E30.76919
G1 X65.773 Y72.307 E30.87871
G1 X65.323 Y72.718 E30.95916
G1 X65.108 Y72.892 E30.99567
G1 X64.572 Y73.289 E31.08371
G1 X64.08 Y73.599 E31.16047
G1 X63.598 Y73.856 E31.23258
G1 X62.995 Y74.12 E31.31947
G1 X62.204 Y74.386 E31.42963
G1 X61.428 Y74.562 E31.53466
G1 X60.798 Y74.645 E31.61854
G1 X60.517 Y74.665 E31.65572
G1 X59.833 Y74.683 E31.74604
G1 X59.238 Y74.653 E31.82468
G1 X58.663 Y74.581 E31.90117
G1 X58.068 Y74.459 E31.98135
G1 X57.22 Y74.203 E32.09827
G1 X56.478 Y73.892 E32.20447
G1 X56.022 Y73.658 E32.27213
G1 X55.447 Y73.306 E32.36112
G1 X55.015 Y72.995 E32.43138
G1 X54.408 Y72.482 E32.53629
G1 X54.05 Y72.125 E32.60303
G1 X53.699 Y71.733 E32.67248
G1 X53.303 Y71.211 E32.75897
G1 X52.866 Y70.519 E32.867
G1 X52.78 Y70.365 E32.89029
G1 X52.343 Y69.523 E33.01551
G1 X51.016 Y67.053 E33.38562
G1 X49.669 Y64.709 E33.74248
G1 X49.159 Y63.876 E33.87141
G1 X48.672 Y63.052 E33.99775
G1 X48.245 Y62.276 E34.11467
G1 X47.948 Y61.659 E34.20506
G1 X47.778 Y61.183 E34.27178
G1 X47.686 Y60.686 E34.33849
G1 X47.669 Y60.41 E34.375
G1 X47.65 Y59.394 E34.50913
G1 X47.65 Y52.91 E35.36502
G1 X47.661 Y52.213 E35.45703
G1 X47.709 Y51.709 E35.52386
G1 X47.836 Y51.22 E35.59055
G1 X48.03 Y50.757 E35.65682
G1 X48.213 Y50.387 E35.7113
G1 X49.138 Y48.667 E35.96909
G1 X49.373 Y48.224 E36.03529
G1 X50.047 Y46.982 E36.22182
G1 X50.322 Y46.558 E36.28853
G1 X50.661 Y46.183 E36.35525
G10
;MESH:pin_conn_m1.stl
G0 F3600 X52.438 Y48.089
G0 X53.264 Y48.914
G0 X55.831 Y52.338
;TYPE:WALL-INNER
G11
G1 F1050 X55.453 Y52.78 E36.43586
G1 X55.119 Y53.258 E36.51668
G1 X54.836 Y53.768 E36.59752
G1 X54.607 Y54.302 E36.67805
G1 X54.432 Y54.858 E36.75884
G1 X54.315 Y55.43 E36.83976
G1 X54.257 Y56.009 E36.92041
G1 X54.257 Y56.591 E37.00108
G1 X54.315 Y57.17 E37.08173
G1 X54.432 Y57.742 E37.16265
G1 X54.607 Y58.298 E37.24344
G1 X54.836 Y58.832 E37.32397
G1 X55.119 Y59.342 E37.40481
G1 X55.453 Y59.82 E37.48563
G1 X55.831 Y60.262 E37.56624
G1 X56.254 Y60.664 E37.64712
G1 X56.715 Y61.02 E37.72785
G1 X57.209 Y61.328 E37.80854
G1 X57.732 Y61.585 E37.8893
G1 X58.278 Y61.787 E37.96999
G1 X58.842 Y61.933 E38.05074
G1 X59.419 Y62.021 E38.13164
G1 X60 Y62.05 E38.21226
G1 X60.581 Y62.021 E38.29289
G1 X61.158 Y61.933 E38.37379
G1 X61.722 Y61.787 E38.45453
G1 X62.268 Y61.585 E38.53522
G1 X62.791 Y61.328 E38.61599
G1 X63.285 Y61.02 E38.69667
G1 X63.746 Y60.664 E38.7774
G1 X64.169 Y60.262 E38.85828
G1 X64.547 Y59.82 E38.93889
G1 X64.881 Y59.342 E39.01971
G1 X65.164 Y58.832 E39.10055
G1 X65.393 Y58.298 E39.18108
G1 X65.568 Y57.742 E39.26187
G1 X65.685 Y57.17 E39.34279
G1 X65.743 Y56.591 E39.42344
G1 X65.743 Y56.009 E39.50411
G1 X65.685 Y55.43 E39.58476
G1 X65.568 Y54.858 E39.66568
G1 X65.393 Y54.302 E39.74647
G1 X65.164 Y53.768 E39.827
G1 X64.881 Y53.258 E39.90784
G1 X64.547 Y52.78 E39.98866
G1 X64.169 Y52.338 E40.06927
G1 X63.746 Y51.936 E40.15015
G1 X63.285 Y51.58 E40.23088
G1 X62.791 Y51.272 E40.31157
G1 X62.268 Y51.015 E40.39233
G1 X61.722 Y50.813 E40.47302
G1 X61.158 Y50.667 E40.55377
G1 X60.581 Y50.579 E40.63467
G1 X60 Y50.55 E40.71529
G1 X59.419 Y50.579 E40.79592
G1 X58.842 Y50.667 E40.87682
G1 X58.278 Y50.813 E40.95756
G1 X57.732 Y51.015 E41.03825
G1 X57.209 Y51.272 E41.11902
G1 X56.715 Y51.58 E41.1997
G1 X56.254 Y51.936 E41.28043
G1 X55.831 Y52.338 E41.36131
G0 F3600 X57.288 Y51.413
G0 X58.329 Y50.965
G0 X59.426 Y50.74
G0 X66.55 Y50.9
G1 F1050 X66.629 Y50.9 E41.37226
G1 X67.15 Y50.9 E41.44447
G1 X67.671 Y50.9 E41.51668
G1 X67.686 Y50.9 E41.51876
G1 X67.794 Y51.055 E41.54495
G1 X67.867 Y51.158 E41.56244
G1 X67.987 Y51.354 E41.5943
G1 X67.814 Y51.238 E41.59699
G1 X67.671 Y51.142 E41.60676
G1 X67.639 Y51.136
G1 X67.15 Y51.038 E41.63858
G1 X66.629 Y51.142 E41.67411
G1 X66.188 Y51.437 E41.74764
G1 X65.891 Y51.879 E41.82145
G1 X65.788 Y52.41 E41.89642
G1 X65.893 Y52.923 E41.96899
G1 X66.188 Y53.362 E42.0423
G1 X66.629 Y53.658 E42.11592
G1 X67.15 Y53.762 E42.18955
G1 X67.671 Y53.658 E42.26319
G1 X68.112 Y53.362 E42.3368
G1 X68.173 Y53.272 E42.35187
G1 X68.408 Y52.921 E42.41041
G1 X68.512 Y52.4 E42.48405
G1 X68.482 Y52.252 E42.50498
G1 X68.544 Y52.384 E42.5056
G1 X68.55 Y52.397 E42.50668
G1 X68.55 Y52.921 E42.52291
G1 X68.55 Y53.344 E42.56348
G1 X68.55 Y59.256 E43.38289
G1 X68.55 Y59.679 E43.44151
G1 X68.55 Y60.2 E43.51373
G1 X68.543 Y60.214 E43.51589
G1 X68.485 Y60.335 E43.53449
G1 X68.512 Y60.2 E43.53564
G1 X68.408 Y59.679 E43.55301
G1 X68.173 Y59.328 E43.59348
G1 X68.112 Y59.238 E43.60855
G1 X67.671 Y58.942 E43.68216
G1 X67.15 Y58.838 E43.7558
G1 X66.629 Y58.942 E43.82943
G1 X66.188 Y59.237 E43.90297
G1 X65.891 Y59.679 E43.97678
G1 X65.788 Y60.21 E44.05175
G1 X65.893 Y60.723 E44.12432
G1 X66.188 Y61.162 E44.19763
G1 X66.629 Y61.458 E44.27124
G1 X66.79 Y61.49 E44.294
G1 X67.15 Y61.562 E44.34488
G1 X67.646 Y61.463 E44.41498
G1 X67.671 Y61.458 E44.41851
G1 X67.994 Y61.241 E44.47245
G1 X67.798 Y61.54 E44.48084
G1 X67.694 Y61.7 E44.49987
G1 X67.671 Y61.7 E44.50173
G1 X67.15 Y61.7 E44.53645
G1 X66.749 Y61.7 E44.56231
G1 X64.275 Y67.675 E45.45863
G1 X64.195 Y67.869 E45.48771
G1 X64.062 Y68.19 E45.53587
G1 X63.882 Y68.57 E45.59415
G1 X63.871 Y68.592 E45.59756
G1 X63.865 Y68.602 E45.59917
G1 X63.637 Y68.976 E45.65988
G1 X63.429 Y69.25 E45.70756
G1 X63.363 Y69.337 E45.7227
G1 X63.05 Y69.67 E45.78604
G1 X62.904 Y69.796 E45.81277
G1 X62.708 Y69.965 E45.84864
G1 X62.356 Y70.215 E45.90848
G1 X62.246 Y70.277 E45.92598
G1 X61.969 Y70.434 E45.97011
G1 X61.563 Y70.612 E46.03155
G1 X61.506 Y70.63 E46.03983
G1 X61.127 Y70.751 E46.09498
G1 X60.749 Y70.83 E46.1485
G1 X60.681 Y70.845 E46.15815
G1 X60.233 Y70.891 E46.22057
G1 X60 Y70.892 E46.25286
G1 X59.782 Y70.894 E46.28308
G1 X59.341 Y70.85 E46.34451
G1 X59.185 Y70.818 E46.36658
G1 X58.898 Y70.759 E46.40719
G1 X58.462 Y70.622 E46.47053
G1 X58.395 Y70.593 E46.48065
G1 X58.045 Y70.441 E46.53354
G1 X57.694 Y70.245 E46.58926
G1 X57.664 Y70.228 E46.59404
G1 X57.287 Y69.963 E46.6579
G1 X57.042 Y69.751 E46.70281
G1 X56.951 Y69.672 E46.71951
G1 X56.643 Y69.343 E46.78197
G1 X56.531 Y69.195 E46.8077
G1 X56.367 Y68.98 E46.84518
G1 X56.128 Y68.589 E46.90869
G1 X56.088 Y68.505 E46.92159
G1 X55.939 Y68.191 E46.96976
G1 X55.779 Y67.804 E47.0278
G1 X55.719 Y67.658 E47.04968
G1 X53.251 Y61.7 E47.9435
G1 X52.85 Y61.7 E47.99908
G1 X52.329 Y61.7 E48.07129
G1 X52.314 Y61.7 E48.07337
G1 X52.206 Y61.545 E48.09955
G1 X52.133 Y61.442 E48.11705
G1 X52.013 Y61.246 E48.1489
G1 X52.186 Y61.362 E48.1516
G1 X52.329 Y61.458 E48.16136
G1 X52.361 Y61.464
G1 X52.85 Y61.562 E48.19319
G1 X53.209 Y61.491 E48.21416
G1 X53.371 Y61.458 E48.23707
G1 X53.812 Y61.162 E48.31069
G1 X54.108 Y60.721 E48.3843
G1 X54.212 Y60.2 E48.45794
G1 X54.108 Y59.679 E48.53157
G1 X53.812 Y59.238 E48.60519
G1 X53.371 Y58.942 E48.6788
G1 X52.85 Y58.838 E48.75243
G1 X52.329 Y58.942 E48.82607
G1 X51.888 Y59.237 E48.89961
G1 X51.827 Y59.327 E48.91468
G1 X51.591 Y59.679 E48.97341
G1 X51.488 Y60.21 E49.04838
G1 X51.515 Y60.343 E49.06719
G1 X51.46 Y60.224 E49.0677
G1 X51.45 Y60.203 E49.06945
G1 X51.45 Y59.679 E49.08505
G1 X51.45 Y59.255 E49.12562
G1 X51.45 Y53.344 E49.94489
G1 X51.45 Y52.923 E50.00324
G1 X51.45 Y52.4 E50.07573
G1 X51.517 Y52.26 E50.09724
G1 X51.488 Y52.41 E50.0982
G1 X51.593 Y52.923 E50.11498
G1 X51.828 Y53.273 E50.15544
G1 X51.888 Y53.362 E50.17032
G1 X52.329 Y53.658 E50.24394
G1 X52.85 Y53.762 E50.31757
G1 X53.371 Y53.658 E50.39121
G1 X53.812 Y53.362 E50.46482
G1 X54.108 Y52.921 E50.53844
G1 X54.212 Y52.4 E50.61207
G1 X54.108 Y51.879 E50.68571
G1 X53.812 Y51.438 E50.75932
G1 X53.371 Y51.142 E50.83293
G1 X52.85 Y51.038 E50.90657
G1 X52.354 Y51.137 E50.97667
G1 X52.329 Y51.142 E50.9802
G1 X52.007 Y51.358 E51.03395
G1 X52.202 Y51.06 E51.04231
G1 X52.306 Y50.9 E51.06134
G1 X52.329 Y50.9 E51.0632
G1 X52.85 Y50.9 E51.09791
G1 X53.371 Y50.9 E51.13203
G1 X53.45 Y50.9 E51.14298
G1 X53.45 Y49.1 E51.39246
G1 X66.55 Y49.1 E53.20812
G1 X66.55 Y50.9 E53.4576
G0 F3600 X66.044 Y51.941
G0 X65.582 Y56.017
G0 X65.526 Y57.145
G0 X63.704 Y67.685
G0 X63.025 Y68.943
G0 X61.993 Y69.84
G0 X60.655 Y70.335
G0 X58.532 Y70.275
G1 F1050 X58.558 Y70.282 E53.46043
G1 X58.998 Y70.408 E53.51736
G1 X59.254 Y70.482 E53.54978
G1 X59.374 Y70.493 E53.56408
G1 X59.815 Y70.534 E53.61926
G1 X59.997 Y70.552 E53.64116
G1 X60.203 Y70.535 E53.66588
G1 X60.651 Y70.497 E53.72086
G1 X60.678 Y70.494 E53.72372
G1 X61.032 Y70.4 E53.76836
G1 X61.4 Y70.301 E53.81498
G1 X61.411 Y70.296 E53.816
G1 X61.811 Y70.105 E53.87093
G1 X62.076 Y69.978 E53.90672
G1 X62.146 Y69.927 E53.91686
G1 X62.495 Y69.673 E53.97051
G1 X62.68 Y69.538 E53.99811
G1 X62.79 Y69.423 E54.0171
G1 X63.105 Y69.092 E54.07353
G1 X63.153 Y69.042 E54.08159
G1 X63.332 Y68.773 E54.12124
G1 X63.567 Y68.421 E54.17348
G1 X63.725 Y68.048 E54.22341
G1 X63.859 Y67.731 E54.2668
G1 X63.904 Y67.526 E54.29454
G1 X64.02 Y67 E54.3692
G1 X64.045 Y66.319 E54.46365
G1 X63.945 Y65.579 E54.56714
G1 X63.708 Y64.868 E54.67102
G1 X63.345 Y64.213 E54.77481
G1 X62.867 Y63.637 E54.87855
G1 X62.343 Y63.196 E54.97348
G1 X61.697 Y62.822 E55.07693
G1 X60.99 Y62.571 E55.18092
G1 X60.251 Y62.457 E55.28455
G1 X59.57 Y62.472 E55.37896
G1 X58.838 Y62.62 E55.48247
G1 X58.143 Y62.899 E55.58627
G1 X57.512 Y63.302 E55.69004
G1 X57.01 Y63.767 E55.78488
G1 X56.559 Y64.363 E55.88847
G1 X56.225 Y65.032 E55.99211
G1 X56.02 Y65.745 E56.09494
G1 X55.957 Y66.258 E56.16657
G1 X55.972 Y66.93 E56.25973
G1 X56.089 Y67.506 E56.3412
G1 X56.12 Y67.662 E56.3624
G1 X56.277 Y68.055 E56.41617
G1 X56.399 Y68.357 E56.45594
