;FLAVOR:UltiGCode
;TIME:2997
;MATERIAL:1457
;MATERIAL2:0
;NOZZLE_DIAMETER:0.4
;MINX:43.468
;MINY:43.46
;MINZ:0.3
;MAXX:76.532
;MAXY:76.538
;MAXZ:15
;Generated with Cura_SteamEngine 4.7.1
M82 ;absolute extrusion mode
G0 F3000 Y50 ;avoid prime blob
G92 E0
G92 E0
G10
;LAYER_COUNT:246
;LAYER:0
M107
G0 F3600 X48.357 Y48.262 Z0.3
;TYPE:SKIRT
G11
G1 F1050 X49.013 Y47.647 E0.11869
G1 X49.217 Y47.469 E0.15443
G1 X49.887 Y46.921 E0.26869
G1 X50.116 Y46.746 E0.30673
G1 X50.846 Y46.232 E0.42458
G1 X51.08 Y46.08 E0.46141
G1 X51.808 Y45.64 E0.5737
G1 X52.048 Y45.505 E0.61005
G1 X52.832 Y45.102 E0.7264
G1 X53.086 Y44.983 E0.76343
G1 X53.915 Y44.628 E0.88247
G1 X54.176 Y44.527 E0.91941
G1 X54.978 Y44.248 E1.0315
G1 X55.243 Y44.166 E1.06811
G1 X56.082 Y43.938 E1.18288
G1 X56.355 Y43.874 E1.21989
G1 X57.21 Y43.705 E1.33494
G1 X57.486 Y43.66 E1.37185
G1 X58.39 Y43.546 E1.49212
G1 X58.669 Y43.521 E1.5291
G1 X59.554 Y43.472 E1.6461
G1 X60.05 Y43.46 E1.71159
G1 X60.778 Y43.481 E1.80772
G1 X60.911 Y43.49 E1.82532
G1 X61.802 Y43.565 E1.94335
G1 X62.077 Y43.598 E1.97991
G1 X62.97 Y43.736 E2.09918
G1 X63.248 Y43.789 E2.13654
G1 X64.073 Y43.977 E2.24823
G1 X64.343 Y44.048 E2.28508
G1 X65.222 Y44.314 E2.40631
G1 X65.483 Y44.403 E2.44271
G1 X66.26 Y44.698 E2.55241
G1 X66.516 Y44.806 E2.58909
G1 X67.333 Y45.183 E2.70786
G1 X67.588 Y45.312 E2.74558
G1 X68.361 Y45.738 E2.86209
G1 X68.6 Y45.881 E2.89885
G1 X69.32 Y46.346 E3.01199
G1 X69.539 Y46.498 E3.04718
G1 X70.244 Y47.023 E3.16321
G1 X70.469 Y47.203 E3.20124
G1 X71.127 Y47.771 E3.31598
G1 X71.333 Y47.962 E3.35307
G1 X71.971 Y48.596 E3.47179
G1 X72.162 Y48.8 E3.50868
G1 X72.755 Y49.478 E3.62758
G1 X73.212 Y50.046 E3.72381
G1 X73.565 Y50.546 E3.8046
G1 X74.06 Y51.302 E3.92388
G1 X74.204 Y51.539 E3.96049
G1 X74.64 Y52.318 E4.07832
G1 X74.772 Y52.575 E4.11646
G1 X75.153 Y53.388 E4.23498
G1 X75.26 Y53.637 E4.27075
G1 X75.587 Y54.479 E4.38998
G1 X75.821 Y55.173 E4.48666
G1 X75.976 Y55.739 E4.56412
G1 X76.192 Y56.661 E4.68912
G1 X76.245 Y56.933 E4.7257
G1 X76.383 Y57.784 E4.8395
G1 X76.419 Y58.061 E4.87637
G1 X76.5 Y58.951 E4.99434
G1 X76.515 Y59.234 E5.03174
G1 X76.532 Y60.085 E5.1441
G1 X76.528 Y60.359 E5.18027
G1 X76.485 Y61.244 E5.29723
G1 X76.462 Y61.525 E5.33444
G1 X76.357 Y62.403 E5.45117
G1 X76.315 Y62.674 E5.48736
G1 X76.153 Y63.527 E5.60197
G1 X76.089 Y63.809 E5.64014
G1 X75.85 Y64.708 E5.76293
G1 X75.627 Y65.423 E5.8618
G1 X75.43 Y65.945 E5.93545
G1 X75.071 Y66.796 E6.05736
G1 X74.958 Y67.041 E6.09298
G1 X74.554 Y67.843 E6.21152
G1 X74.419 Y68.09 E6.24867
G1 X73.961 Y68.859 E6.36682
G1 X73.806 Y69.098 E6.40442
G1 X73.294 Y69.833 E6.52266
G1 X72.837 Y70.432 E6.62211
G1 X72.459 Y70.871 E6.69858
G1 X71.844 Y71.536 E6.81814
G1 X71.643 Y71.738 E6.85576
G1 X70.987 Y72.353 E6.97445
G1 X70.783 Y72.531 E7.01019
G1 X70.113 Y73.079 E7.12445
G1 X69.884 Y73.254 E7.16249
G1 X69.154 Y73.768 E7.28034
G1 X68.92 Y73.92 E7.31717
G1 X68.192 Y74.36 E7.42946
G1 X67.952 Y74.495 E7.46581
G1 X67.168 Y74.898 E7.58217
G1 X66.914 Y75.017 E7.61919
G1 X66.085 Y75.372 E7.73823
G1 X65.824 Y75.473 E7.77517
G1 X65.022 Y75.752 E7.88726
G1 X64.757 Y75.834 E7.92387
G1 X63.918 Y76.062 E8.03864
G1 X63.645 Y76.126 E8.07565
G1 X62.79 Y76.295 E8.1907
G1 X62.514 Y76.34 E8.22761
G1 X61.61 Y76.454 E8.34788
G1 X61.331 Y76.479 E8.38486
G1 X60.446 Y76.528 E8.50186
G1 X59.671 Y76.538 E8.60416
G1 X59.089 Y76.51 E8.68108
G1 X58.198 Y76.435 E8.79911
G1 X57.923 Y76.402 E8.83567
G1 X57.03 Y76.264 E8.95494
G1 X56.752 Y76.211 E8.9923
G1 X55.927 Y76.023 E9.10399
G1 X55.657 Y75.952 E9.14084
G1 X54.778 Y75.686 E9.26207
G1 X54.517 Y75.597 E9.29847
G1 X53.74 Y75.302 E9.40817
G1 X53.484 Y75.194 E9.44485
G1 X52.667 Y74.817 E9.56362
G1 X52.412 Y74.688 E9.60134
G1 X51.639 Y74.262 E9.71785
G1 X51.4 Y74.119 E9.75461
G1 X50.68 Y73.654 E9.86775
G1 X50.46 Y73.502 E9.90305
G1 X49.754 Y72.976 E10.01926
G1 X49.53 Y72.796 E10.05719
G1 X48.872 Y72.228 E10.17193
G1 X48.666 Y72.037 E10.20901
G1 X48.028 Y71.403 E10.32774
G1 X47.837 Y71.199 E10.36463
G1 X47.245 Y70.522 E10.48334
G1 X46.781 Y69.944 E10.58118
G1 X46.433 Y69.452 E10.66073
G1 X45.939 Y68.697 E10.77982
G1 X45.795 Y68.46 E10.81643
G1 X45.358 Y67.679 E10.93456
G1 X45.227 Y67.423 E10.97252
G1 X44.847 Y66.612 E11.09074
G1 X44.74 Y66.363 E11.12652
G1 X44.413 Y65.521 E11.24575
G1 X44.174 Y64.812 E11.34451
G1 X44.025 Y64.261 E11.41986
G1 X43.809 Y63.34 E11.54473
G1 X43.754 Y63.067 E11.58149
G1 X43.616 Y62.215 E11.69542
G1 X43.582 Y61.938 E11.73225
G1 X43.501 Y61.049 E11.85009
G1 X43.485 Y60.766 E11.8875
G1 X43.468 Y59.915 E11.99986
G1 X43.472 Y59.641 E12.03603
G1 X43.515 Y58.756 E12.15299
G1 X43.538 Y58.475 E12.1902
G1 X43.643 Y57.597 E12.30693
G1 X43.686 Y57.323 E12.34354
G1 X43.851 Y56.457 E12.4599
G1 X43.915 Y56.176 E12.49795
G1 X44.151 Y55.29 E12.61898
G1 X44.373 Y54.577 E12.71755
G1 X44.576 Y54.04 E12.79333
G1 X44.934 Y53.193 E12.91471
G1 X45.047 Y52.949 E12.9502
G1 X45.447 Y52.156 E13.06744
G1 X45.581 Y51.91 E13.10442
G1 X46.039 Y51.141 E13.22257
G1 X46.194 Y50.902 E13.26017
G1 X46.706 Y50.167 E13.37841
G1 X47.163 Y49.568 E13.47786
G1 X47.545 Y49.124 E13.55517
G1 X48.158 Y48.462 E13.67427
G1 X48.357 Y48.262 E13.71151
G0 F3600 X48.631 Y48.554
G1 F1050 X49.287 Y47.939 E13.8302
G1 X49.47 Y47.778 E13.86238
G1 X50.14 Y47.23 E13.97663
G1 X50.346 Y47.073 E14.01082
G1 X51.076 Y46.559 E14.12867
G1 X51.287 Y46.422 E14.16188
G1 X52.015 Y45.982 E14.27416
G1 X52.231 Y45.861 E14.30684
G1 X53.015 Y45.458 E14.4232
G1 X53.244 Y45.351 E14.45657
G1 X54.073 Y44.996 E14.57561
G1 X54.307 Y44.905 E14.60875
G1 X55.109 Y44.626 E14.72084
G1 X55.348 Y44.552 E14.75386
G1 X56.187 Y44.324 E14.86863
G1 X56.433 Y44.266 E14.90199
G1 X57.288 Y44.097 E15.01703
G1 X57.536 Y44.057 E15.05019
G1 X58.44 Y43.943 E15.17047
G1 X58.691 Y43.921 E15.20372
G1 X59.576 Y43.872 E15.32072
G1 X60.047 Y43.86 E15.38292
G1 X60.758 Y43.881 E15.47681
G1 X60.877 Y43.889 E15.49255
G1 X61.768 Y43.964 E15.61058
G1 X62.016 Y43.993 E15.64354
G1 X62.909 Y44.131 E15.76281
G1 X63.159 Y44.179 E15.79642
G1 X63.984 Y44.367 E15.90811
G1 X64.227 Y44.431 E15.94128
G1 X65.106 Y44.697 E16.0625
G1 X65.341 Y44.777 E16.09527
G1 X66.118 Y45.072 E16.20498
G1 X66.348 Y45.169 E16.23793
G1 X67.165 Y45.546 E16.3567
G1 X67.395 Y45.662 E16.3907
G1 X68.168 Y46.088 E16.50721
G1 X68.383 Y46.217 E16.5403
G1 X69.103 Y46.682 E16.65344
G1 X69.3 Y46.819 E16.68512
G1 X70.005 Y47.344 E16.80114
G1 X70.207 Y47.506 E16.83532
G1 X70.865 Y48.074 E16.95006
G1 X71.051 Y48.245 E16.98341
G1 X71.689 Y48.879 E17.10214
G1 X71.861 Y49.063 E17.13539
G1 X72.454 Y49.741 E17.25429
G1 X72.896 Y50.291 E17.34743
G1 X73.231 Y50.765 E17.42404
G1 X73.726 Y51.521 E17.54332
G1 X73.855 Y51.735 E17.57631
G1 X74.291 Y52.514 E17.69414
G1 X74.41 Y52.744 E17.72833
G1 X74.791 Y53.557 E17.84684
G1 X74.887 Y53.782 E17.87913
G1 X75.214 Y54.624 E17.99836
G1 X75.44 Y55.293 E18.09158
G1 X75.586 Y55.83 E18.16503
G1 X75.802 Y56.752 E18.29003
G1 X75.851 Y56.997 E18.32301
G1 X75.989 Y57.848 E18.43681
G1 X76.02 Y58.098 E18.47006
G1 X76.101 Y58.988 E18.58803
G1 X76.115 Y59.242 E18.62161
G1 X76.132 Y60.093 E18.73396
G1 X76.129 Y60.34 E18.76657
G1 X76.086 Y61.225 E18.88353
G1 X76.065 Y61.477 E18.91691
G1 X75.96 Y62.355 E19.03363
G1 X75.922 Y62.6 E19.06635
G1 X75.76 Y63.453 E19.18096
G1 X75.702 Y63.706 E19.21523
G1 X75.463 Y64.605 E19.33802
G1 X75.247 Y65.296 E19.43358
G1 X75.062 Y65.789 E19.50309
G1 X74.703 Y66.64 E19.62501
G1 X74.601 Y66.861 E19.65713
G1 X74.197 Y67.663 E19.77567
G1 X74.075 Y67.885 E19.80911
G1 X73.617 Y68.654 E19.92726
G1 X73.478 Y68.87 E19.96116
G1 X72.966 Y69.605 E20.0794
G1 X72.524 Y70.183 E20.17545
G1 X72.165 Y70.599 E20.24798
G1 X71.55 Y71.264 E20.36755
G1 X71.369 Y71.446 E20.40143
G1 X70.713 Y72.061 E20.52012
G1 X70.53 Y72.222 E20.5523
G1 X69.86 Y72.77 E20.66655
G1 X69.654 Y72.927 E20.70074
G1 X68.924 Y73.441 E20.81859
G1 X68.713 Y73.578 E20.8518
G1 X67.985 Y74.018 E20.96408
G1 X67.769 Y74.139 E20.99676
G1 X66.985 Y74.542 E21.11312
G1 X66.756 Y74.649 E21.14649
G1 X65.927 Y75.004 E21.26553
G1 X65.693 Y75.095 E21.29867
G1 X64.891 Y75.374 E21.41075
G1 X64.652 Y75.448 E21.44378
G1 X63.813 Y75.676 E21.55854
G1 X63.567 Y75.734 E21.59191
G1 X62.712 Y75.903 E21.70695
G1 X62.464 Y75.943 E21.74011
G1 X61.56 Y76.057 E21.86038
G1 X61.309 Y76.079 E21.89364
G1 X60.424 Y76.128 E22.01064
G1 X59.674 Y76.138 E22.10965
G1 X59.123 Y76.111 E22.18247
G1 X58.232 Y76.036 E22.3005
G1 X57.984 Y76.007 E22.33346
G1 X57.091 Y75.869 E22.45273
G1 X56.841 Y75.821 E22.48633
G1 X56.016 Y75.633 E22.59802
G1 X55.773 Y75.569 E22.63119
G1 X54.894 Y75.303 E22.75242
G1 X54.659 Y75.223 E22.78519
G1 X53.882 Y74.928 E22.89489
G1 X53.652 Y74.831 E22.92784
G1 X52.835 Y74.454 E23.04662
G1 X52.605 Y74.338 E23.08062
G1 X51.832 Y73.912 E23.19712
G1 X51.617 Y73.783 E23.23022
G1 X50.897 Y73.318 E23.34336
G1 X50.699 Y73.181 E23.37514
G1 X49.993 Y72.655 E23.49135
G1 X49.792 Y72.493 E23.52543
G1 X49.134 Y71.925 E23.64017
G1 X48.948 Y71.754 E23.67352
G1 X48.31 Y71.12 E23.79225
G1 X48.138 Y70.936 E23.8255
G1 X47.546 Y70.259 E23.94421
G1 X47.098 Y69.7 E24.03877
G1 X46.768 Y69.233 E24.11425
G1 X46.274 Y68.478 E24.23335
G1 X46.144 Y68.265 E24.26629
G1 X45.707 Y67.484 E24.38442
G1 X45.589 Y67.253 E24.41866
G1 X45.209 Y66.442 E24.53688
G1 X45.113 Y66.218 E24.56905
G1 X44.786 Y65.376 E24.68828
G1 X44.555 Y64.691 E24.7837
G1 X44.414 Y64.17 E24.85495
G1 X44.198 Y63.249 E24.97982
G1 X44.149 Y63.003 E25.01293
G1 X44.011 Y62.151 E25.12686
G1 X43.98 Y61.902 E25.15998
G1 X43.899 Y61.013 E25.27781
G1 X43.885 Y60.758 E25.31153
G1 X43.868 Y59.907 E25.42388
G1 X43.871 Y59.66 E25.45649
G1 X43.914 Y58.775 E25.57344
G1 X43.935 Y58.523 E25.60682
G1 X44.04 Y57.645 E25.72355
G1 X44.079 Y57.398 E25.75655
G1 X44.244 Y56.532 E25.87292
G1 X44.301 Y56.279 E25.90715
G1 X44.537 Y55.393 E26.02818
G1 X44.753 Y54.704 E26.1235
G1 X44.944 Y54.195 E26.19526
G1 X45.302 Y53.348 E26.31664
G1 X45.404 Y53.129 E26.34853
G1 X45.804 Y52.336 E26.46577
G1 X45.925 Y52.115 E26.49903
G1 X46.383 Y51.346 E26.61717
G1 X46.522 Y51.13 E26.65108
G1 X47.034 Y50.395 E26.76932
G1 X47.476 Y49.817 E26.86537
G1 X47.839 Y49.396 E26.93874
G1 X48.452 Y48.734 E27.05784
G1 X48.631 Y48.554 E27.09135
G0 F3600 X48.904 Y48.845
G1 F1050 X49.56 Y48.23 E27.21004
G1 X49.723 Y48.088 E27.23858
G1 X50.393 Y47.54 E27.35283
G1 X50.577 Y47.401 E27.38327
G1 X51.307 Y46.887 E27.50112
G1 X51.494 Y46.764 E27.53066
G1 X52.222 Y46.324 E27.64295
G1 X52.414 Y46.217 E27.67196
G1 X53.198 Y45.814 E27.78832
G1 X53.401 Y45.718 E27.81796
G1 X54.23 Y45.363 E27.937
G1 X54.439 Y45.283 E27.96654
G1 X55.241 Y45.004 E28.07863
G1 X55.453 Y44.938 E28.10794
G1 X56.292 Y44.71 E28.2227
G1 X56.51 Y44.659 E28.25226
G1 X57.365 Y44.49 E28.3673
G1 X57.586 Y44.454 E28.39686
G1 X58.49 Y44.34 E28.51713
G1 X58.713 Y44.32 E28.54668
G1 X59.598 Y44.271 E28.66368
G1 X60.044 Y44.26 E28.72257
G1 X60.738 Y44.28 E28.81422
G1 X60.843 Y44.287 E28.82811
G1 X61.734 Y44.362 E28.94614
G1 X61.955 Y44.389 E28.97553
G1 X62.848 Y44.527 E29.0948
G1 X63.07 Y44.569 E29.12462
G1 X63.895 Y44.757 E29.23632
G1 X64.111 Y44.814 E29.2658
G1 X64.99 Y45.08 E29.38703
G1 X65.199 Y45.151 E29.41617
G1 X65.976 Y45.446 E29.52587
G1 X66.181 Y45.532 E29.55522
G1 X66.998 Y45.909 E29.67399
G1 X67.202 Y46.012 E29.70416
G1 X67.975 Y46.438 E29.82066
G1 X68.166 Y46.553 E29.85009
G1 X68.886 Y47.018 E29.96323
G1 X69.061 Y47.139 E29.99131
G1 X69.766 Y47.664 E30.10734
G1 X69.946 Y47.809 E30.13785
G1 X70.604 Y48.377 E30.25259
G1 X70.769 Y48.529 E30.2822
G1 X71.407 Y49.163 E30.40093
G1 X71.56 Y49.326 E30.43044
G1 X72.153 Y50.004 E30.54934
G1 X72.579 Y50.536 E30.6393
G1 X72.896 Y50.984 E30.71174
G1 X73.391 Y51.74 E30.83102
G1 X73.506 Y51.93 E30.86034
G1 X73.942 Y52.709 E30.97818
G1 X74.048 Y52.914 E31.00864
G1 X74.429 Y53.727 E31.12716
G1 X74.514 Y53.927 E31.15584
G1 X74.841 Y54.769 E31.27507
G1 X75.059 Y55.414 E31.36495
G1 X75.197 Y55.921 E31.4343
G1 X75.413 Y56.843 E31.5593
G1 X75.456 Y57.061 E31.58863
G1 X75.594 Y57.912 E31.70243
G1 X75.622 Y58.134 E31.73197
G1 X75.703 Y59.024 E31.84994
G1 X75.715 Y59.25 E31.87981
G1 X75.732 Y60.101 E31.99216
G1 X75.729 Y60.32 E32.02107
G1 X75.686 Y61.205 E32.13803
G1 X75.667 Y61.43 E32.16784
G1 X75.562 Y62.308 E32.28456
G1 X75.529 Y62.525 E32.31353
G1 X75.367 Y63.378 E32.42814
G1 X75.316 Y63.603 E32.4586
G1 X75.077 Y64.502 E32.58139
G1 X74.868 Y65.17 E32.67378
G1 X74.693 Y65.634 E32.73924
G1 X74.334 Y66.485 E32.86115
G1 X74.244 Y66.681 E32.88962
G1 X73.84 Y67.483 E33.00816
G1 X73.731 Y67.68 E33.03788
G1 X73.273 Y68.449 E33.15603
G1 X73.15 Y68.641 E33.18613
G1 X72.638 Y69.376 E33.30436
G1 X72.21 Y69.935 E33.3973
G1 X71.871 Y70.328 E33.46581
G1 X71.256 Y70.993 E33.58537
G1 X71.096 Y71.155 E33.61543
G1 X70.44 Y71.77 E33.73412
G1 X70.277 Y71.912 E33.76266
G1 X69.607 Y72.46 E33.87691
G1 X69.423 Y72.599 E33.90735
G1 X68.693 Y73.113 E34.0252
G1 X68.506 Y73.236 E34.05474
G1 X67.778 Y73.676 E34.16703
G1 X67.586 Y73.783 E34.19604
G1 X66.802 Y74.186 E34.3124
G1 X66.599 Y74.282 E34.34204
G1 X65.77 Y74.637 E34.46108
G1 X65.561 Y74.717 E34.49062
G1 X64.759 Y74.996 E34.60271
G1 X64.547 Y75.062 E34.63202
G1 X63.708 Y75.29 E34.74678
G1 X63.49 Y75.341 E34.77634
G1 X62.635 Y75.51 E34.89138
G1 X62.414 Y75.546 E34.92094
G1 X61.51 Y75.66 E35.04121
G1 X61.287 Y75.68 E35.07076
G1 X60.402 Y75.729 E35.18776
G1 X59.677 Y75.738 E35.28347
G1 X59.157 Y75.713 E35.35219
G1 X58.266 Y75.638 E35.47022
G1 X58.045 Y75.611 E35.49961
G1 X57.152 Y75.473 E35.61888
G1 X56.93 Y75.431 E35.6487
G1 X56.105 Y75.243 E35.7604
G1 X55.889 Y75.186 E35.78988
G1 X55.01 Y74.92 E35.91111
G1 X54.801 Y74.849 E35.94025
G1 X54.024 Y74.554 E36.04995
G1 X53.819 Y74.468 E36.0793
G1 X53.002 Y74.091 E36.19807
G1 X52.798 Y73.988 E36.22823
G1 X52.025 Y73.562 E36.34474
G1 X51.834 Y73.447 E36.37417
G1 X51.114 Y72.982 E36.48731
G1 X50.938 Y72.86 E36.51557
G1 X50.232 Y72.334 E36.63179
G1 X50.053 Y72.19 E36.66211
G1 X49.395 Y71.622 E36.77685
G1 X49.23 Y71.47 E36.80647
G1 X48.592 Y70.836 E36.92519
G1 X48.439 Y70.672 E36.9548
G1 X47.847 Y69.995 E37.07351
G1 X47.415 Y69.456 E37.16469
G1 X47.102 Y69.014 E37.23618
G1 X46.608 Y68.259 E37.35528
G1 X46.493 Y68.07 E37.38448
G1 X46.056 Y67.289 E37.50262
G1 X45.951 Y67.084 E37.53302
G1 X45.571 Y66.273 E37.65124
G1 X45.486 Y66.073 E37.67992
G1 X45.159 Y65.231 E37.79916
G1 X44.937 Y64.57 E37.8912
G1 X44.804 Y64.079 E37.95834
G1 X44.588 Y63.158 E38.08322
G1 X44.544 Y62.939 E38.1127
G1 X44.406 Y62.087 E38.22663
G1 X44.378 Y61.865 E38.25617
G1 X44.297 Y60.976 E38.374
G1 X44.285 Y60.75 E38.40388
G1 X44.268 Y59.899 E38.51623
G1 X44.271 Y59.68 E38.54514
G1 X44.314 Y58.795 E38.6621
G1 X44.333 Y58.57 E38.6919
G1 X44.438 Y57.692 E38.80863
G1 X44.472 Y57.473 E38.83788
G1 X44.637 Y56.607 E38.95425
G1 X44.688 Y56.382 E38.9847
G1 X44.924 Y55.496 E39.10573
G1 X45.132 Y54.83 E39.19783
G1 X45.312 Y54.351 E39.26538
G1 X45.67 Y53.504 E39.38676
G1 X45.761 Y53.309 E39.41516
G1 X46.161 Y52.516 E39.5324
G1 X46.269 Y52.32 E39.56194
G1 X46.727 Y51.551 E39.68009
G1 X46.85 Y51.359 E39.71019
G1 X47.362 Y50.624 E39.82842
G1 X47.79 Y50.065 E39.92136
G1 X48.132 Y49.668 E39.99053
G1 X48.745 Y49.006 E40.10962
G1 X48.904 Y48.845 E40.13949
G10
;MESH:mot_trans_1.stl
G0 F3600 X52.978 Y48.807
G0 X53.696 Y49.871
G0 X56.236 Y49.479
G0 X56.255 Y49.577
;TYPE:WALL-INNER
G11
G1 F1050 X55.521 Y49.843 E40.24769
G1 X54.78 Y50.203 E40.36188
G1 X54.074 Y50.614 E40.4751
G1 X53.402 Y51.074 E40.58797
G1 X52.765 Y51.582 E40.7009
G1 X52.166 Y52.135 E40.81389
G1 X51.611 Y52.732 E40.92687
G1 X51.101 Y53.367 E41.03975
G1 X50.638 Y54.038 E41.15274
G1 X50.224 Y54.741 E41.26582
G1 X49.859 Y55.487 E41.38092
G1 X49.682 Y55.904 E41.44371
G1 X49.549 Y56.464 E41.52349
G1 X49.584 Y57.077 E41.60859
G1 X49.8 Y57.662 E41.69502
G1 X50.087 Y58.042 E41.76102
G1 X50.165 Y58.146 E41.77904
G1 X50.26 Y58.216 E41.79539
G1 X50.658 Y58.51 E41.86397
G1 X50.707 Y58.527 E41.87116
G1 X51.233 Y58.715 E41.94858
G1 X51.436 Y58.729 E41.97679
G1 X51.742 Y58.75 E42.0193
G1 X56.699 Y58.75 E42.70634
G1 X57.267 Y58.664 E42.78596
G1 X57.633 Y58.489 E42.84219
G1 X57.825 Y58.398 E42.87164
G1 X58.265 Y57.998 E42.95405
G1 X58.285 Y57.98 E42.95778
G1 X58.507 Y57.604 E43.0183
G1 X58.599 Y57.448 E43.0434
