;FLAVOR:UltiGCode
;TIME:7193
;MATERIAL:3667
;MATERIAL2:0
;NOZZLE_DIAMETER:0.4
;MINX:29.795
;MINY:29.794
;MINZ:0.3
;MAXX:90.205
;MAXY:90.205
;MAXZ:17.46
;Generated with Cura_SteamEngine 4.7.1
M82 ;absolute extrusion mode
G0 F3000 Y50 ;avoid prime blob
G92 E0
G92 E0
G10
;LAYER_COUNT:287
;LAYER:0
M107
G0 F3600 X32.549 Y54.075 Z0.3
;TYPE:SKIRT
G11
G1 F1050 X54.179 Y32.446 E4.03771
G1 X54.637 Y32 E4.1221
G1 X55.152 Y31.548 E4.21255
G1 X55.405 Y31.339 E4.25586
G1 X55.847 Y31.028 E4.3272
G1 X56.33 Y30.741 E4.40137
G1 X56.522 Y30.633 E4.43044
G1 X57 Y30.409 E4.50012
G1 X57.564 Y30.195 E4.57975
G1 X57.76 Y30.127 E4.60714
G1 X58.253 Y29.994 E4.67454
G1 X58.831 Y29.884 E4.7522
G1 X59.063 Y29.847 E4.78322
G1 X59.567 Y29.803 E4.85
G1 X60.146 Y29.794 E4.92643
G1 X60.386 Y29.798 E4.95812
G1 X60.887 Y29.842 E5.0245
G1 X61.444 Y29.932 E5.09898
G1 X62.178 Y30.11 E5.19868
G1 X62.736 Y30.304 E5.27666
G1 X63.4 Y30.596 E5.37241
G1 X63.941 Y30.898 E5.45419
G1 X64.116 Y31.003 E5.48113
G1 X64.53 Y31.293 E5.54785
G1 X64.966 Y31.648 E5.62207
G1 X65.311 Y31.953 E5.68285
G1 X65.918 Y32.542 E5.7945
G1 X87.522 Y54.148 E9.82764
G1 X88.013 Y54.652 E9.92052
G1 X88.454 Y55.154 E10.00872
G1 X88.67 Y55.416 E10.05354
G1 X88.975 Y55.851 E10.12367
G1 X89.243 Y56.302 E10.19292
G1 X89.364 Y56.517 E10.22548
G1 X89.588 Y56.993 E10.29493
G1 X89.805 Y57.564 E10.37556
G1 X89.873 Y57.76 E10.40294
G1 X90.006 Y58.253 E10.47035
G1 X90.116 Y58.831 E10.54801
G1 X90.153 Y59.063 E10.57902
G1 X90.197 Y59.567 E10.6458
G1 X90.205 Y60.146 E10.72224
G1 X90.201 Y60.385 E10.75379
G1 X90.158 Y60.884 E10.8199
G1 X90.07 Y61.433 E10.8933
G1 X90.02 Y61.692 E10.92811
G1 X89.889 Y62.181 E10.99494
G1 X89.696 Y62.736 E11.0725
G1 X89.404 Y63.4 E11.16825
G1 X89.102 Y63.941 E11.25004
G1 X88.997 Y64.116 E11.27697
G1 X88.707 Y64.53 E11.3437
G1 X88.352 Y64.966 E11.41791
G1 X88.047 Y65.311 E11.4787
G1 X87.458 Y65.918 E11.59034
G1 X65.852 Y87.522 E15.62348
G1 X65.348 Y88.013 E15.71636
G1 X64.846 Y88.454 E15.80456
G1 X64.577 Y88.675 E15.85052
G1 X64.148 Y88.976 E15.91969
G1 X63.695 Y89.245 E15.98924
G1 X63.476 Y89.368 E16.02239
G1 X63 Y89.591 E16.09178
G1 X62.436 Y89.805 E16.17141
G1 X62.24 Y89.873 E16.19879
G1 X61.747 Y90.006 E16.26619
G1 X61.169 Y90.116 E16.34386
G1 X60.937 Y90.153 E16.37487
G1 X60.433 Y90.197 E16.44165
G1 X59.854 Y90.205 E16.51809
G1 X59.615 Y90.201 E16.54964
G1 X59.116 Y90.158 E16.61575
G1 X58.556 Y90.068 E16.69062
G1 X57.822 Y89.89 E16.79031
G1 X57.264 Y89.696 E16.8683
G1 X56.6 Y89.404 E16.96404
G1 X56.059 Y89.102 E17.04583
G1 X55.884 Y88.997 E17.07277
G1 X55.47 Y88.707 E17.13949
G1 X55.034 Y88.352 E17.21371
G1 X54.689 Y88.047 E17.27449
G1 X54.082 Y87.458 E17.38614
G1 X32.478 Y65.852 E21.41927
G1 X31.986 Y65.347 E21.51234
G1 X31.546 Y64.846 E21.60036
G1 X31.325 Y64.578 E21.64621
G1 X31.022 Y64.145 E21.71597
G1 X30.755 Y63.695 E21.78504
G1 X30.632 Y63.476 E21.81819
G1 X30.409 Y63 E21.88758
G1 X30.193 Y62.43 E21.96804
G1 X30.123 Y62.227 E21.99638
G1 X29.991 Y61.735 E22.06363
G1 X29.883 Y61.164 E22.14033
G1 X29.846 Y60.93 E22.17161
G1 X29.803 Y60.429 E22.23798
G1 X29.795 Y59.835 E22.3164
G1 X29.842 Y59.116 E22.41151
G1 X29.93 Y58.567 E22.4849
G1 X29.98 Y58.308 E22.51972
G1 X30.111 Y57.819 E22.58654
G1 X30.304 Y57.264 E22.66411
G1 X30.596 Y56.6 E22.75985
G1 X30.898 Y56.059 E22.84164
G1 X31.003 Y55.884 E22.86858
G1 X31.291 Y55.472 E22.93493
G1 X31.661 Y55.018 E23.01224
G1 X31.954 Y54.689 E23.07039
G1 X32.549 Y54.075 E23.18325
G0 F3600 X32.832 Y54.358
G1 F1050 X54.458 Y32.732 E27.22031
G1 X54.916 Y32.286 E27.3047
G1 X55.413 Y31.851 E27.39188
G1 X56.052 Y31.372 E27.4973
G1 X56.526 Y31.09 E27.5701
G1 X57.143 Y30.783 E27.66107
G1 X57.695 Y30.573 E27.73903
G1 X58.33 Y30.387 E27.82637
G1 X58.894 Y30.279 E27.90217
G1 X59.574 Y30.202 E27.9925
G1 X60.139 Y30.194 E28.06709
G1 X60.824 Y30.237 E28.15769
G1 X61.367 Y30.325 E28.2303
G1 X62.048 Y30.489 E28.32276
G1 X62.593 Y30.678 E28.39891
G1 X63.206 Y30.946 E28.48722
G1 X63.735 Y31.241 E28.56717
G1 X64.278 Y31.604 E28.65339
G1 X64.705 Y31.951 E28.72602
G1 X65.032 Y32.24 E28.78362
G1 X65.635 Y32.825 E28.89452
G1 X87.235 Y54.427 E32.92691
G1 X87.726 Y54.931 E33.01979
G1 X88.151 Y55.415 E33.10481
G1 X88.632 Y56.056 E33.2106
G1 X88.895 Y56.499 E33.2786
G1 X89.214 Y57.136 E33.37264
G1 X89.427 Y57.695 E33.4516
G1 X89.613 Y58.33 E33.53895
G1 X89.721 Y58.894 E33.61475
G1 X89.798 Y59.574 E33.70508
G1 X89.806 Y60.14 E33.7798
G1 X89.763 Y60.822 E33.87
G1 X89.677 Y61.358 E33.94166
G1 X89.511 Y62.051 E34.03572
G1 X89.322 Y62.593 E34.11149
G1 X89.054 Y63.206 E34.1998
G1 X88.759 Y63.735 E34.27976
G1 X88.396 Y64.278 E34.36597
G1 X88.049 Y64.705 E34.4386
G1 X87.76 Y65.032 E34.49621
G1 X87.175 Y65.635 E34.60711
G1 X65.573 Y87.235 E38.6395
G1 X65.069 Y87.726 E38.73238
G1 X64.585 Y88.151 E38.8174
G1 X63.943 Y88.632 E38.92329
G1 X63.499 Y88.896 E38.99148
G1 X62.857 Y89.217 E39.08622
G1 X62.305 Y89.427 E39.16418
G1 X61.67 Y89.613 E39.25152
G1 X61.106 Y89.721 E39.32732
G1 X60.426 Y89.798 E39.41766
G1 X59.86 Y89.806 E39.49238
G1 X59.178 Y89.763 E39.58258
G1 X58.633 Y89.675 E39.65545
G1 X57.952 Y89.511 E39.74791
G1 X57.407 Y89.322 E39.82406
G1 X56.794 Y89.054 E39.91237
G1 X56.265 Y88.759 E39.99232
G1 X55.722 Y88.396 E40.07854
G1 X55.295 Y88.049 E40.15116
G1 X54.968 Y87.76 E40.20877
G1 X54.365 Y87.175 E40.31967
G1 X32.765 Y65.573 E44.35206
G1 X32.273 Y65.068 E44.44513
G1 X31.849 Y64.585 E44.52996
G1 X31.365 Y63.94 E44.63641
G1 X31.104 Y63.499 E44.70405
G1 X30.783 Y62.857 E44.7988
G1 X30.571 Y62.299 E44.87759
G1 X30.384 Y61.659 E44.9656
G1 X30.278 Y61.102 E45.04045
G1 X30.202 Y60.423 E45.13063
G1 X30.195 Y59.842 E45.20733
G1 X30.237 Y59.178 E45.29516
G1 X30.323 Y58.642 E45.36681
G1 X30.489 Y57.949 E45.46088
G1 X30.678 Y57.407 E45.53664
G1 X30.946 Y56.794 E45.62496
G1 X31.241 Y56.265 E45.70491
G1 X31.602 Y55.724 E45.79076
G1 X31.963 Y55.28 E45.86629
G1 X32.241 Y54.967 E45.92155
G1 X32.832 Y54.358 E46.03357
G10
;MESH:base_stand_1.stl
G0 F3600 X34.624 Y56.151
G0 X35.533 Y57.059
G0 X37.689 Y58.32
G0 X37.707 Y58.418
;TYPE:WALL-INNER
G11
G1 F1050 X37.184 Y58.614 E46.11098
G1 X36.759 Y58.977 E46.18845
G1 X36.484 Y59.463 E46.26585
G1 X36.392 Y60.015 E46.34341
G1 X36.494 Y60.563 E46.42066
G1 X36.777 Y61.045 E46.49813
G1 X37.208 Y61.4 E46.57553
G1 X37.734 Y61.586 E46.65285
G1 X38.293 Y61.582 E46.73033
G1 X38.816 Y61.386 E46.80774
G1 X39.241 Y61.023 E46.88521
G1 X39.516 Y60.537 E46.9626
G1 X39.608 Y59.985 E47.04017
G1 X39.506 Y59.437 E47.11742
G1 X39.223 Y58.955 E47.19489
G1 X38.792 Y58.6 E47.27228
G1 X38.266 Y58.414 E47.34961
G1 X37.707 Y58.418 E47.42709
G0 F3600 X37.689 Y58.32
G0 X41.734 Y58.639
G0 X57.055 Y58.639
G0 X58.099 Y58.309
G0 X58.035 Y58.233
G1 F1050 X58.394 Y57.805 E47.50452
G1 X58.576 Y57.305 E47.57827
G1 X58.6 Y57.026 E47.61708
G1 X58.6 Y41.737 E49.73613
G1 X58.519 Y41.256 E49.80374
G1 X58.257 Y40.782 E49.8788
G1 X57.846 Y40.42 E49.95471
G1 X57.358 Y40.218 E50.02792
G1 X56.82 Y40.188 E50.1026
G1 X56.302 Y40.338 E50.17734
G1 X55.912 Y40.614 E50.24356
G1 X51.765 Y44.759 E51.05622
G1 X51.402 Y45.224 E51.13798
G1 X51.147 Y45.802 E51.22554
G1 X51.037 Y46.413 E51.31159
G1 X51.075 Y47.035 E51.39796
G1 X51.263 Y47.639 E51.48563
G1 X51.578 Y48.156 E51.56954
G1 X51.784 Y48.39 E51.61275
G1 X52.741 Y49.347 E51.80033
G1 X49.347 Y52.741 E52.46559
G1 X48.373 Y51.767 E52.65651
G1 X47.908 Y51.403 E52.73835
G1 X47.329 Y51.147 E52.8261
G1 X46.717 Y51.037 E52.91228
G1 X46.093 Y51.075 E52.99893
G1 X45.489 Y51.264 E53.08664
G1 X44.972 Y51.578 E53.17048
G1 X44.74 Y51.785 E53.21357
G1 X40.62 Y55.904 E54.02104
G1 X40.338 Y56.302 E54.08864
G1 X40.187 Y56.822 E54.16369
G1 X40.223 Y57.369 E54.23967
G1 X40.424 Y57.856 E54.31269
G1 X40.784 Y58.258 E54.38748
G1 X41.256 Y58.519 E54.46224
G1 X41.737 Y58.6 E54.52984
G1 X57.052 Y58.6 E56.6525
G1 X57.549 Y58.513 E56.72244
G1 X58.035 Y58.233 E56.80017
G0 F3600 X58.099 Y58.309
G0 X58.309 Y61.901
G0 X58.233 Y61.965
G1 F1050 X57.805 Y61.606 E56.8776
G1 X57.305 Y61.424 E56.95135
G1 X57.026 Y61.4 E56.99016
G1 X41.737 Y61.4 E59.10922
G1 X41.256 Y61.481 E59.17682
G1 X40.782 Y61.743 E59.25189
G1 X40.42 Y62.154 E59.3278
G1 X40.218 Y62.642 E59.401
G1 X40.188 Y63.18 E59.47568
G1 X40.338 Y63.698 E59.55042
G1 X40.62 Y64.096 E59.61803
G1 X55.904 Y79.38 E62.61385
G1 X56.302 Y79.662 E62.68145
G1 X56.822 Y79.813 E62.7565
G1 X57.369 Y79.777 E62.83248
G1 X57.856 Y79.576 E62.9055
G1 X58.258 Y79.216 E62.9803
G1 X58.519 Y78.744 E63.05505
G1 X58.6 Y78.263 E63.12266
G1 X58.6 Y62.948 E65.24531
G1 X58.513 Y62.451 E65.31525
G1 X58.233 Y61.965 E65.39299
G0 F3600 X58.309 Y61.901
G0 X61.901 Y61.691
G0 X61.965 Y61.767
G1 F1050 X61.606 Y62.195 E65.47041
G1 X61.424 Y62.695 E65.54416
G1 X61.4 Y62.974 E65.58297
G1 X61.4 Y78.263 E67.70203
G1 X61.481 Y78.744 E67.76963
G1 X61.743 Y79.218 E67.8447
G1 X62.154 Y79.58 E67.92061
G1 X62.642 Y79.782 E67.99381
G1 X63.18 Y79.812 E68.06849
G1 X63.698 Y79.662 E68.14324
G1 X64.096 Y79.38 E68.21084
G1 X68.235 Y75.24 E69.02223
G1 X68.598 Y74.776 E69.10388
G1 X68.853 Y74.198 E69.19144
G1 X68.963 Y73.587 E69.27748
G1 X68.925 Y72.965 E69.36385
G1 X68.737 Y72.361 E69.45153
G1 X68.422 Y71.844 E69.53544
G1 X68.216 Y71.61 E69.57865
G1 X67.259 Y70.653 E69.76623
G1 X70.653 Y67.259 E70.43149
G1 X71.627 Y68.233 E70.6224
G1 X72.092 Y68.597 E70.70425
G1 X72.671 Y68.853 E70.79199
G1 X73.283 Y68.963 E70.87818
G1 X73.907 Y68.925 E70.96482
G1 X74.511 Y68.736 E71.05254
G1 X75.028 Y68.422 E71.13638
G1 X75.26 Y68.215 E71.17947
G1 X79.38 Y64.096 E71.98693
G1 X79.662 Y63.698 E72.05454
G1 X79.813 Y63.178 E72.12959
G1 X79.777 Y62.631 E72.20557
G1 X79.576 Y62.144 E72.27859
G1 X79.216 Y61.742 E72.35338
G1 X78.744 Y61.481 E72.42814
G1 X78.263 Y61.4 E72.49574
G1 X62.948 Y61.4 E74.6184
G1 X62.451 Y61.487 E74.68833
G1 X61.965 Y61.767 E74.76607
G0 F3600 X61.901 Y61.691
G0 X61.691 Y58.099
G0 X61.767 Y58.035
G1 F1050 X62.195 Y58.394 E74.8435
G1 X62.695 Y58.576 E74.91724
G1 X62.974 Y58.6 E74.95606
G1 X78.263 Y58.6 E77.07511
G1 X78.744 Y58.519 E77.14272
G1 X79.218 Y58.257 E77.21778
G1 X79.58 Y57.846 E77.29369
G1 X79.782 Y57.358 E77.36689
G1 X79.812 Y56.82 E77.44158
G1 X79.662 Y56.302 E77.51632
G1 X79.386 Y55.912 E77.58254
G1 X64.096 Y40.62 E80.57973
G1 X63.698 Y40.338 E80.64734
G1 X63.178 Y40.187 E80.72239
G1 X62.631 Y40.223 E80.79836
G1 X62.144 Y40.424 E80.87139
G1 X61.742 Y40.784 E80.94618
G1 X61.481 Y41.256 E81.02093
G1 X61.4 Y41.737 E81.08854
G1 X61.4 Y57.052 E83.2112
G1 X61.487 Y57.549 E83.28113
G1 X61.767 Y58.035 E83.35887
G0 F3600 X61.691 Y58.099
G0 X62.687 Y58.615
G0 X78.266 Y58.639
G0 X81.689 Y58.32
G0 X81.707 Y58.418
G1 F1050 X81.184 Y58.614 E83.43628
G1 X80.759 Y58.977 E83.51375
G1 X80.484 Y59.463 E83.59114
G1 X80.392 Y60.015 E83.6687
G1 X80.494 Y60.563 E83.74596
G1 X80.777 Y61.045 E83.82343
G1 X81.208 Y61.4 E83.90082
G1 X81.734 Y61.586 E83.97815
G1 X82.293 Y61.582 E84.05563
G1 X82.816 Y61.386 E84.13304
G1 X83.241 Y61.023 E84.21051
G1 X83.516 Y60.537 E84.2879
G1 X83.608 Y59.985 E84.36546
G1 X83.506 Y59.437 E84.44272
G1 X83.223 Y58.955 E84.52019
G1 X82.792 Y58.6 E84.59758
G1 X82.266 Y58.414 E84.67491
G1 X81.707 Y58.418 E84.75239
G0 F3600 X81.689 Y58.32
G0 X80.729 Y58.952
G0 X79.24 Y61.711
G0 X79.815 Y62.622
G0 X79.698 Y63.715
G0 X64.121 Y79.41
G0 X59.689 Y80.32
G0 X59.707 Y80.418
G1 F1050 X59.184 Y80.614 E84.8298
G1 X58.759 Y80.977 E84.90727
G1 X58.484 Y81.463 E84.98466
G1 X58.392 Y82.015 E85.06222
G1 X58.494 Y82.563 E85.13948
G1 X58.777 Y83.045 E85.21695
G1 X59.208 Y83.4 E85.29434
G1 X59.734 Y83.586 E85.37167
G1 X60.293 Y83.582 E85.44915
G1 X60.816 Y83.386 E85.52656
G1 X61.241 Y83.023 E85.60403
G1 X61.516 Y82.537 E85.68142
G1 X61.608 Y81.985 E85.75898
G1 X61.506 Y81.437 E85.83624
G1 X61.223 Y80.955 E85.91371
G1 X60.792 Y80.6 E85.9911
G1 X60.266 Y80.414 E86.06843
G1 X59.707 Y80.418 E86.14591
G0 F3600 X59.689 Y80.32
G0 X58.747 Y39.07
G0 X58.352 Y38.015
G0 X58.729 Y36.952
G0 X59.689 Y36.32
G0 X59.707 Y36.418
G1 F1050 X59.184 Y36.614 E86.22332
G1 X58.759 Y36.977 E86.30079
G1 X58.484 Y37.463 E86.37818
G1 X58.392 Y38.015 E86.45574
G1 X58.494 Y38.563 E86.533
G1 X58.777 Y39.045 E86.61047
G1 X59.208 Y39.4 E86.68786
G1 X59.734 Y39.586 E86.76519
G1 X60.293 Y39.582 E86.84267
G1 X60.816 Y39.386 E86.92008
G1 X61.241 Y39.023 E86.99755
G1 X61.516 Y38.537 E87.07494
G1 X61.608 Y37.985 E87.1525
G1 X61.506 Y37.437 E87.22976
G1 X61.223 Y36.955 E87.30723
G1 X60.792 Y36.6 E87.38462
G1 X60.266 Y36.414 E87.46195
G1 X59.707 Y36.418 E87.53943
G0 F3600 X59.689 Y36.32
G0 X60.854 Y34.187
G0 X60.879 Y34.091
G1 F1050 X61.439 Y34.294 E87.62199
G1 X61.947 Y34.588 E87.70334
G1 X62.423 Y34.987 E87.78942
G1 X85.023 Y57.588 E92.21935
G1 X85.412 Y58.053 E92.30337
G1 X85.706 Y58.561 E92.38472
G1 X85.909 Y59.121 E92.46728
G1 X86.012 Y59.704 E92.54934
G1 X86.012 Y60.296 E92.63139
G1 X85.909 Y60.879 E92.71344
G1 X85.706 Y61.439 E92.796
G1 X85.412 Y61.947 E92.87735
G1 X85.013 Y62.423 E92.96344
G1 X62.412 Y85.023 E97.39336
G1 X61.947 Y85.412 E97.47739
G1 X61.439 Y85.706 E97.55874
G1 X60.879 Y85.909 E97.6413
G1 X60.296 Y86.012 E97.72335
G1 X59.704 Y86.012 E97.8054
G1 X59.121 Y85.909 E97.88746
G1 X58.561 Y85.706 E97.97002
G1 X58.053 Y85.412 E98.05137
G1 X57.577 Y85.013 E98.13745
G1 X34.977 Y62.412 E102.56738
G1 X34.588 Y61.947 E102.6514
G1 X34.294 Y61.439 E102.73275
G1 X34.091 Y60.879 E102.81531
G1 X33.988 Y60.296 E102.89737
G1 X33.988 Y59.704 E102.97942
G1 X34.091 Y59.121 E103.06147
G1 X34.294 Y58.561 E103.14403
G1 X34.588 Y58.053 E103.22538
G1 X34.988 Y57.576 E103.31166
G1 X57.577 Y34.987 E107.73933
G1 X58.053 Y34.588 E107.82542
G1 X58.561 Y34.294 E107.90677
G1 X59.121 Y34.091 E107.98933
G1 X59.704 Y33.988 E108.07138
G1 X60.296 Y33.988 E108.15343
G1 X60.879 Y34.091 E108.23549
G0 F3600 X60.984 Y33.703
;TYPE:WALL-OUTER
G1 F1050 X61.606 Y33.929 E108.32721
G1 X62.177 Y34.259 E108.41862
G1 X62.699 Y34.697 E108.51306
G1 X85.32 Y57.319 E112.9471
G1 X85.739 Y57.819 E113.03752
G1 X86.071 Y58.394 E113.12954
G1 X86.297 Y59.016 E113.22127
G1 X86.412 Y59.669 E113.31317
G1 X86.412 Y60.331 E113.40492
G1 X86.297 Y60.984 E113.49682
G1 X86.071 Y61.606 E113.58854
G1 X85.741 Y62.177 E113.67995
G1 X85.303 Y62.699 E113.77439
G1 X62.681 Y85.32 E118.20843
G1 X62.181 Y85.739 E118.29885
G1 X61.606 Y86.071 E118.39087
G1 X60.984 Y86.297 E118.4826
G1 X60.331 Y86.412 E118.5745
G1 X59.669 Y86.412 E118.66625
G1 X59.016 Y86.297 E118.75815
G1 X58.394 Y86.071 E118.84987
G1 X57.823 Y85.741 E118.94128
G1 X57.301 Y85.303 E119.03572
G1 X34.68 Y62.681 E123.46976
G1 X34.261 Y62.181 E123.56018
G1 X33.929 Y61.606 E123.6522
G1 X33.703 Y60.984 E123.74393
G1 X33.588 Y60.331 E123.83582
G1 X33.588 Y59.669 E123.92758
G1 X33.703 Y59.016 E124.01948
G1 X33.929 Y58.394 E124.1112
G1 X34.259 Y57.823 E124.20261
G1 X34.697 Y57.301 E124.29705
G1 X57.301 Y34.697 E128.72766
G1 X57.823 Y34.259 E128.82211
G1 X58.394 Y33.929 E128.91351
G1 X59.016 Y33.703 E129.00524
G1 X59.669 Y33.588 E129.09713
G1 X60.331 Y33.588 E129.18889
G1 X60.984 Y33.703 E129.28079
G0 F3600 X61.172 Y33.771
G0 X61.001 Y34.241
G0 X59.779 Y36.317
G0 X59.781 Y36.817
G1 F1050 X59.39 Y36.964 E129.33868
G1 X59.072 Y37.235 E129.39659
G1 X58.867 Y37.598 E129.45437
G1 X58.798 Y38.011 E129.51241
G1 X58.874 Y38.421 E129.5702
G1 X59.086 Y38.781 E129.62811
G1 X59.408 Y39.047 E129.68599
G1 X59.801 Y39.186 E129.74377
G1 X60.219 Y39.183 E129.80171
G1 X60.61 Y39.036 E129.8596
G1 X60.928 Y38.765 E129.91751
G1 X61.133 Y38.402 E129.97529
G1 X61.202 Y37.989 E130.03333
G1 X61.126 Y37.579 E130.09112
G1 X60.914 Y37.219 E130.14902
G1 X60.592 Y36.953 E130.20691
G1 X60.199 Y36.814 E130.26469
G1 X59.781 Y36.817 E130.32263
G0 F3600 X59.594 Y36.887
G0 X59.419 Y36.419
G0 X58.729 Y36.952
G0 X58.352 Y38.015
G0 X61.45 Y57.562
G0 X62.078 Y57.774
G1 F1050 X62.398 Y58.042 E130.38048
G1 X62.782 Y58.182 E130.43713
G1 X62.991 Y58.2 E130.4662
G1 X78.23 Y58.2 E132.57833
G1 X78.61 Y58.136 E132.63174
G1 X78.964 Y57.94 E132.68782
G1 X79.236 Y57.632 E132.74477
G1 X79.386 Y57.268 E132.79934
G1 X79.409 Y56.865 E132.85528
G1 X79.297 Y56.478 E132.91112
G1 X79.079 Y56.171 E132.96331
G1 X63.837 Y40.927 E135.95109
G1 X63.522 Y40.703 E136.00466
G1 X63.134 Y40.591 E136.06064
G1 X62.723 Y40.618 E136.11772
G1 X62.36 Y40.768 E136.17216
