;FLAVOR:UltiGCode
;TIME:8241
;MATERIAL:3907
;MATERIAL2:0
;NOZZLE_DIAMETER:0.4
;MINX:33.399
;MINY:38.4
;MINZ:0.3
;MAXX:86
;MAXY:81.6
;MAXZ:20.22
;Generated with Cura_SteamEngine 4.7.1
M82 ;absolute extrusion mode
G0 F3000 Y50 ;avoid prime blob
G92 E0
G92 E0
G10
;LAYER_COUNT:333
;LAYER:0
M107
G0 F3600 X40.415 Y39.893 Z0.3
;TYPE:SKIRT
G11
G1 F1050 X40.902 Y39.422 E0.08943
G1 X41.314 Y39.079 E0.16019
G1 X41.773 Y38.801 E0.23103
G1 X42.268 Y38.594 E0.30185
G1 X42.788 Y38.463 E0.37264
G1 X43.431 Y38.407 E0.45783
G1 X43.918 Y38.4 E0.52212
G1 X81.745 Y38.4 E5.51529
G1 X82.443 Y38.41 E5.60743
G1 X82.977 Y38.458 E5.67821
G1 X83.498 Y38.584 E5.74896
G1 X83.995 Y38.787 E5.81983
G1 X84.456 Y39.061 E5.89062
G1 X84.871 Y39.4 E5.96135
G1 X85.231 Y39.798 E6.03219
G1 X85.528 Y40.244 E6.10292
G1 X85.756 Y40.73 E6.17378
G1 X85.908 Y41.244 E6.24453
G1 X85.99 Y41.909 E6.33298
G1 X86 Y42.33 E6.38856
G1 X86 Y45.314 E6.78245
G1 X85.989 Y46.064 E6.88146
G1 X85.96 Y46.468 E6.93493
G1 X85.79 Y47.796 E7.11165
G1 X85.482 Y50.509 E7.47207
G1 X85.252 Y53.226 E7.832
G1 X85.099 Y55.922 E8.18844
G1 X85.022 Y58.684 E8.55317
G1 X85.022 Y61.379 E8.90891
G1 X85.101 Y64.147 E9.27443
G1 X85.254 Y66.838 E9.63022
G1 X85.485 Y69.555 E9.99016
G1 X85.793 Y72.26 E10.34952
G1 X85.895 Y72.997 E10.44773
G1 X85.964 Y73.567 E10.52352
G1 X85.995 Y74.109 E10.59519
G1 X86 Y74.518 E10.64918
G1 X86 Y77.303 E11.0168
G1 X85.991 Y78.035 E11.11343
G1 X85.944 Y78.57 E11.18432
G1 X85.819 Y79.091 E11.25504
G1 X85.617 Y79.588 E11.32586
G1 X85.344 Y80.05 E11.3967
G1 X85.006 Y80.465 E11.46735
G1 X84.609 Y80.826 E11.53818
G1 X84.163 Y81.124 E11.60898
G1 X83.678 Y81.353 E11.67978
G1 X83.165 Y81.507 E11.75048
G1 X82.492 Y81.59 E11.83999
G1 X82.07 Y81.6 E11.89571
G1 X44.056 Y81.6 E16.91355
G1 X43.355 Y81.59 E17.0061
G1 X42.82 Y81.542 E17.077
G1 X42.299 Y81.416 E17.14775
G1 X41.803 Y81.213 E17.2185
G1 X41.342 Y80.939 E17.28929
G1 X40.813 Y80.496 E17.38037
G1 X40.512 Y80.204 E17.43572
G1 X39.301 Y78.992 E17.66188
G1 X38.832 Y78.51 E17.75065
G1 X38.488 Y78.098 E17.8215
G1 X38.282 Y77.778 E17.87174
G1 X37.989 Y77.12 E17.96681
G1 X37.56 Y75.82 E18.14752
G1 X36.671 Y73.247 E18.50685
G1 X35.708 Y70.701 E18.86616
G1 X34.669 Y68.167 E19.22768
G1 X34 Y66.635 E19.44834
G1 X33.83 Y66.157 E19.51531
G1 X33.76 Y65.862 E19.55533
G1 X33.614 Y65.108 E19.65671
G1 X33.563 Y64.828 E19.69427
G1 X33.447 Y64.128 E19.78793
G1 X33.399 Y63.51 E19.86976
G1 X33.412 Y62.974 E19.94053
G1 X33.459 Y60.277 E20.29659
G1 X33.404 Y56.704 E20.76828
G1 X33.401 Y56.614 E20.78017
G1 X33.426 Y56.078 E20.85099
G1 X33.513 Y55.614 E20.91331
G1 X33.678 Y54.976 E21.0003
G1 X33.847 Y54.382 E21.08182
G1 X33.981 Y53.997 E21.13563
G1 X34.468 Y52.813 E21.30462
G1 X34.643 Y52.404 E21.36334
G1 X35.63 Y49.899 E21.71874
G1 X36.564 Y47.322 E22.08056
G1 X37.634 Y44.035 E22.53685
G1 X37.956 Y42.981 E22.68233
G1 X38.019 Y42.795 E22.70825
G1 X38.236 Y42.305 E22.77899
G1 X38.524 Y41.853 E22.84974
G1 X38.912 Y41.404 E22.92807
G1 X39.185 Y41.123 E22.97978
G1 X40.415 Y39.893 E23.20939
G0 F3600 X40.693 Y40.181
G1 F1050 X41.18 Y39.71 E23.29882
G1 X41.57 Y39.388 E23.36558
G1 X42.006 Y39.132 E23.43232
G1 X42.477 Y38.948 E23.49907
G1 X42.971 Y38.84 E23.56582
G1 X43.514 Y38.805 E23.63764
G1 X43.923 Y38.8 E23.69163
G1 X81.739 Y38.8 E28.68335
G1 X82.437 Y38.81 E28.77549
G1 X82.94 Y38.857 E28.84218
G1 X83.43 Y38.983 E28.90896
G1 X83.894 Y39.185 E28.97576
G1 X84.32 Y39.457 E29.04248
G1 X84.698 Y39.792 E29.10915
G1 X85.018 Y40.183 E29.17584
G1 X85.273 Y40.62 E29.24263
G1 X85.456 Y41.091 E29.30933
G1 X85.563 Y41.585 E29.37605
G1 X85.599 Y42.24 E29.46264
G1 X85.6 Y45.308 E29.86762
G1 X85.589 Y46.058 E29.96663
G1 X85.563 Y46.417 E30.01414
G1 X85.399 Y47.7 E30.18487
G1 X85.085 Y50.466 E30.55233
G1 X84.853 Y53.205 E30.91517
G1 X84.699 Y55.923 E31.27452
G1 X84.622 Y58.672 E31.63753
G1 X84.622 Y61.39 E31.99631
G1 X84.701 Y64.147 E32.36038
G1 X84.857 Y66.891 E32.72318
G1 X85.087 Y69.601 E33.08218
G1 X85.397 Y72.32 E33.44342
G1 X85.498 Y73.045 E33.54004
G1 X85.567 Y73.615 E33.61583
G1 X85.6 Y74.523 E33.73576
G1 X85.6 Y77.298 E34.10206
G1 X85.591 Y78.03 E34.1987
G1 X85.545 Y78.534 E34.2655
G1 X85.42 Y79.024 E34.33225
G1 X85.219 Y79.488 E34.399
G1 X84.948 Y79.915 E34.46576
G1 X84.613 Y80.293 E34.53243
G1 X84.223 Y80.615 E34.59919
G1 X83.787 Y80.87 E34.66586
G1 X83.316 Y81.054 E34.73261
G1 X82.822 Y81.162 E34.79936
G1 X82.16 Y81.199 E34.88688
G1 X44.061 Y81.2 E39.91594
G1 X43.36 Y81.19 E40.00849
G1 X42.857 Y81.143 E40.07517
G1 X42.367 Y81.017 E40.14195
G1 X41.904 Y80.815 E40.20863
G1 X41.477 Y80.543 E40.27546
G1 X41.084 Y80.202 E40.34414
G1 X40.795 Y79.921 E40.39735
G1 X39.588 Y78.713 E40.62276
G1 X39.119 Y78.231 E40.71154
G1 X38.796 Y77.842 E40.77828
G1 X38.63 Y77.58 E40.81922
G1 X38.369 Y76.995 E40.90378
G1 X37.94 Y75.695 E41.08448
G1 X37.051 Y73.122 E41.44382
G1 X36.076 Y70.544 E41.80764
G1 X35.021 Y67.97 E42.17484
G1 X34.367 Y66.474 E42.39035
G1 X34.153 Y65.786 E42.48546
G1 X34.007 Y65.036 E42.58632
G1 X33.958 Y64.762 E42.62306
G1 X33.842 Y64.062 E42.71672
G1 X33.799 Y63.513 E42.78941
G1 X33.811 Y62.986 E42.85899
G1 X33.858 Y60.248 E43.22046
G1 X33.804 Y56.698 E43.68912
G1 X33.801 Y56.602 E43.70179
G1 X33.827 Y56.097 E43.76854
G1 X33.901 Y55.714 E43.82003
G1 X34.063 Y55.085 E43.90577
G1 X34.232 Y54.491 E43.98729
G1 X34.351 Y54.15 E44.03496
G1 X34.836 Y52.971 E44.20325
G1 X35.006 Y52.572 E44.2605
G1 X36.002 Y50.046 E44.61891
G1 X36.941 Y47.455 E44.98269
G1 X38.031 Y44.106 E45.44758
G1 X38.339 Y43.098 E45.58671
G1 X38.395 Y42.93 E45.61009
G1 X38.603 Y42.469 E45.67685
G1 X38.88 Y42.046 E45.74359
G1 X39.264 Y41.615 E45.81979
G1 X39.468 Y41.406 E45.85834
G1 X40.693 Y40.181 E46.08702
G0 F3600 X48.973 Y58.638
G1 F1050 X49.177 Y58.49 E46.12028
G1 X49.423 Y58.49 E46.15276
G1 X49.627 Y58.638 E46.18602
G1 X49.703 Y58.874 E46.21875
G1 X49.627 Y59.11 E46.25148
G1 X49.423 Y59.258 E46.28475
G1 X49.177 Y59.258 E46.31722
G1 X48.973 Y59.11 E46.35049
G1 X48.897 Y58.874 E46.38322
G1 X48.973 Y58.638 E46.41594
G0 F3600 X48.633 Y58.391
G1 F1050 X49.047 Y58.09 E46.48351
G1 X49.553 Y58.09 E46.5503
G1 X49.967 Y58.391 E46.61787
G1 X50.124 Y58.874 E46.6849
G1 X49.967 Y59.357 E46.75194
G1 X49.553 Y59.658 E46.81951
G1 X49.047 Y59.658 E46.8863
G1 X48.633 Y59.357 E46.95387
G1 X48.476 Y58.874 E47.02091
G1 X48.633 Y58.391 E47.08795
G0 F3600 X48.293 Y58.144
G1 F1050 X48.916 Y57.69 E47.1897
G1 X49.684 Y57.69 E47.29108
G1 X50.307 Y58.144 E47.39283
G1 X50.545 Y58.874 E47.49418
G1 X50.307 Y59.604 E47.59554
G1 X49.684 Y60.058 E47.69729
G1 X48.916 Y60.058 E47.79867
G1 X48.293 Y59.604 E47.90042
G1 X48.055 Y58.874 E48.00177
G1 X48.293 Y58.144 E48.10313
G0 F3600 X47.953 Y57.896
G1 F1050 X48.786 Y57.29 E48.2391
G1 X49.814 Y57.29 E48.3748
G1 X50.647 Y57.896 E48.51077
G1 X50.965 Y58.874 E48.64652
G1 X50.647 Y59.852 E48.78227
G1 X49.814 Y60.458 E48.91824
G1 X48.786 Y60.458 E49.05394
G1 X47.953 Y59.852 E49.18991
G1 X47.635 Y58.874 E49.32566
G1 X47.953 Y57.896 E49.46141
G0 F3600 X47.612 Y57.65
G1 F1050 X48.657 Y56.89 E49.63197
G1 X49.943 Y56.89 E49.80173
G1 X50.988 Y57.65 E49.97229
G1 X51.386 Y58.874 E50.14218
G1 X50.988 Y60.098 E50.31208
G1 X49.943 Y60.858 E50.48264
G1 X48.657 Y60.858 E50.65239
G1 X47.612 Y60.098 E50.82295
G1 X47.214 Y58.874 E50.99285
G1 X47.612 Y57.65 E51.16274
G0 F3600 X40.027 Y58.902
G1 F1050 X39.926 Y60.558 E51.38174
G1 X39.926 Y62.222 E51.60139
G1 X39.98 Y63.885 E51.82102
G1 X39.732 Y65.077 E51.98174
G1 X39.035 Y65.584 E52.09551
G1 X38.165 Y65.584 E52.21035
G1 X37.471 Y65.079 E52.32364
G1 X37.19 Y63.527 E52.53183
G1 X37.267 Y61.718 E52.77084
G1 X37.291 Y59.925 E53.00754
G1 X37.268 Y58.184 E53.23737
G1 X37.19 Y56.539 E53.45475
G1 X37.471 Y55.494 E53.59759
G1 X38.168 Y54.987 E53.71136
G1 X39.032 Y54.987 E53.82541
G1 X39.719 Y55.487 E53.93757
G1 X39.974 Y57.067 E54.14883
G1 X40.027 Y58.902 E54.39115
G0 F3600 X39.626 Y58.9
G1 F1050 X39.527 Y60.534 E54.60723
G1 X39.526 Y62.235 E54.83176
G1 X39.579 Y63.854 E55.04559
G1 X39.372 Y64.845 E55.17922
G1 X38.906 Y65.184 E55.25529
G1 X38.294 Y65.184 E55.33607
G1 X37.835 Y64.85 E55.411
G1 X37.591 Y63.5 E55.59209
G1 X37.667 Y61.723 E55.82687
G1 X37.691 Y59.92 E56.06489
G1 X37.667 Y58.165 E56.29657
G1 X37.592 Y56.583 E56.50563
G1 X37.821 Y55.734 E56.6217
G1 X38.297 Y55.387 E56.69945
G1 X38.903 Y55.387 E56.77945
G1 X39.35 Y55.713 E56.85248
G1 X39.575 Y57.105 E57.0386
G1 X39.626 Y58.9 E57.27564
G0 F3600 X39.226 Y58.898
G1 F1050 X39.128 Y60.509 E57.48868
G1 X39.126 Y60.57 E57.49674
G1 X39.127 Y62.248 E57.71824
G1 X39.178 Y63.814 E57.92506
G1 X39.012 Y64.612 E58.03265
G1 X38.776 Y64.784 E58.0712
G1 X38.424 Y64.784 E58.11766
G1 X38.201 Y64.621 E58.15412
G1 X37.993 Y63.472 E58.30826
G1 X38.067 Y61.728 E58.53867
G1 X38.091 Y59.915 E58.77801
G1 X38.067 Y58.146 E59.01154
G1 X37.995 Y56.628 E59.21214
G1 X38.171 Y55.973 E59.30167
G1 X38.427 Y55.787 E59.34343
G1 X38.773 Y55.787 E59.38911
G1 X38.982 Y55.939 E59.42322
G1 X39.176 Y57.141 E59.58394
G1 X39.226 Y58.898 E59.81595
G0 F3600 X38.826 Y58.885
G1 F1050 X38.729 Y60.485 E60.02754
G1 X38.726 Y60.57 E60.03877
G1 X38.727 Y62.261 E60.26198
G1 X38.776 Y63.778 E60.46233
G1 X38.651 Y64.38 E60.54349
G1 X38.565 Y64.384 E60.55485
G1 X38.395 Y63.445 E60.68082
G1 X38.467 Y61.734 E60.90687
G1 X38.491 Y59.909 E61.14779
G1 X38.468 Y58.174 E61.37683
G1 X38.397 Y56.672 E61.57531
G1 X38.521 Y56.214 E61.63795
G1 X38.616 Y56.187 E61.65098
G1 X38.778 Y57.186 E61.78457
G1 X38.826 Y58.885 E62.00893
G10
;MESH:mot_test_enc_hh_1.stl
G0 F3600 X40.735 Y58.885
G0 X41.82 Y58.885
G0 X43.828 Y65.204
G0 X44 Y71.232
;TYPE:WALL-INNER
G11
G1 F1050 X44 Y65.032 E62.86825
G1 X42 Y65.032 E63.14545
G1 X42 Y54.968 E64.54032
G1 X44 Y54.968 E64.81752
G1 X44 Y48.768 E65.67684
G1 X42 Y48.768 E65.95404
G1 X42 Y44.248 E66.58051
G1 X43.648 Y42.6 E66.90354
G1 X81.8 Y42.6 E72.19141
G1 X81.8 Y45.752 E72.62827
G1 X80.152 Y47.4 E72.9513
G1 X76.993 Y47.4 E73.38913
G1 X76.937 Y46.916 E73.45666
G1 X76.743 Y46.365 E73.53763
G1 X76.432 Y45.871 E73.61854
G1 X76.018 Y45.46 E73.69939
G1 X75.523 Y45.151 E73.78027
G1 X74.971 Y44.96 E73.86122
G1 X74.438 Y44.901 E73.93555
G1 X71.565 Y44.9 E74.33375
G1 X71.013 Y44.959 E74.41069
G1 X70.455 Y45.141 E74.49204
G1 X69.947 Y45.436 E74.57346
G1 X69.511 Y45.831 E74.655
G1 X69.168 Y46.306 E74.73621
G1 X68.932 Y46.843 E74.8175
G1 X68.814 Y47.401 E74.89655
G1 X68.8 Y47.685 E74.93596
G1 X68.8 Y72.335 E78.35245
G1 X68.859 Y72.887 E78.4294
G1 X69.041 Y73.445 E78.51074
G1 X69.336 Y73.953 E78.59216
G1 X69.731 Y74.389 E78.67371
G1 X70.206 Y74.732 E78.75491
G1 X70.743 Y74.968 E78.83621
G1 X71.301 Y75.086 E78.91526
G1 X71.585 Y75.1 E78.95467
G1 X74.438 Y75.1 E79.35009
G1 X74.984 Y75.037 E79.42627
G1 X75.535 Y74.843 E79.50724
G1 X76.029 Y74.532 E79.58814
G1 X76.44 Y74.118 E79.669
G1 X76.749 Y73.623 E79.74987
G1 X76.94 Y73.072 E79.8307
G1 X76.993 Y72.6 E79.89653
G1 X80.152 Y72.6 E80.33437
G1 X81.8 Y74.248 E80.65739
G1 X81.8 Y77.4 E81.09426
G1 X43.648 Y77.4 E86.38213
G1 X42 Y75.752 E86.70515
G1 X42 Y71.232 E87.33162
G1 X44 Y71.232 E87.60882
G0 F3600 X43.881 Y73.544
G1 F1050 X43.425 Y73.788 E87.68051
G1 X43.071 Y74.162 E87.75188
G1 X42.853 Y74.63 E87.82344
G1 X42.795 Y75.142 E87.89485
G1 X42.901 Y75.645 E87.9661
G1 X43.162 Y76.09 E88.0376
G1 X43.551 Y76.43 E88.10921
G1 X44.026 Y76.629 E88.18059
G1 X44.54 Y76.668 E88.25203
G1 X45.041 Y76.541 E88.32367
G1 X45.474 Y76.261 E88.39514
G1 X45.797 Y75.861 E88.4664
G1 X45.978 Y75.377 E88.53802
G1 X45.995 Y74.86 E88.60971
G1 X45.847 Y74.366 E88.68119
G1 X45.552 Y73.945 E88.75244
G1 X45.138 Y73.637 E88.82395
G1 X44.667 Y73.484 E88.89259
G1 X44.363 Y73.464 E88.93482
G1 X43.881 Y73.544 E89.00254
G0 F3600 X46.352 Y73.811
G0 X47.36 Y74.576
G0 X48.45 Y74.899
G0 X63.784 Y75.042
G1 F1050 X64.345 Y74.859 E89.08432
G1 X64.853 Y74.564 E89.16574
G1 X65.289 Y74.169 E89.24728
G1 X65.632 Y73.694 E89.32849
G1 X65.868 Y73.157 E89.40979
G1 X65.986 Y72.599 E89.48884
G1 X66 Y72.315 E89.52825
G1 X66 Y47.665 E92.94474
G1 X65.941 Y47.113 E93.02168
G1 X65.759 Y46.555 E93.10303
G1 X65.464 Y46.047 E93.18445
G1 X65.069 Y45.611 E93.26599
G1 X64.594 Y45.268 E93.3472
G1 X64.057 Y45.032 E93.42849
G1 X63.493 Y44.913 E93.50839
G1 X63.092 Y44.9 E93.56399
G1 X48.869 Y44.9 E95.5353
G1 X48.243 Y44.957 E95.62242
G1 X47.604 Y45.139 E95.71451
G1 X47.008 Y45.433 E95.80662
G1 X46.478 Y45.834 E95.89874
G1 X46.029 Y46.325 E95.99095
G1 X45.679 Y46.89 E96.08307
G1 X45.438 Y47.51 E96.17526
G1 X45.316 Y48.154 E96.26611
G1 X45.3 Y48.723 E96.34501
G1 X45.3 Y71.532 E99.50633
G1 X45.357 Y72.155 E99.59304
G1 X45.538 Y72.794 E99.68509
G1 X45.833 Y73.391 E99.77739
G1 X46.233 Y73.921 E99.86942
G1 X46.723 Y74.37 E99.96153
G1 X47.288 Y74.721 E100.05372
G1 X47.908 Y74.962 E100.14592
G1 X48.551 Y75.083 E100.2366
G1 X49.048 Y75.1 E100.30552
G1 X63.193 Y75.1 E102.26602
G1 X63.784 Y75.042 E102.34833
G0 F3600 X74.432 Y74.939
G0 X78.339 Y73.872
G1 F1050 X78.031 Y74.28 E102.41918
G1 X77.871 Y74.761 E102.48944
G1 X77.876 Y75.27 E102.55999
G1 X78.046 Y75.749 E102.63044
G1 X78.363 Y76.15 E102.70128
G1 X78.792 Y76.424 E102.77184
G1 X79.288 Y76.543 E102.84253
G1 X79.795 Y76.496 E102.9131
G1 X80.261 Y76.287 E102.98389
G1 X80.631 Y75.937 E103.05448
G1 X80.868 Y75.488 E103.12485
G1 X80.948 Y74.984 E103.19558
G1 X80.858 Y74.482 E103.26627
G1 X80.612 Y74.038 E103.33662
G1 X80.232 Y73.695 E103.40757
G1 X79.764 Y73.496 E103.47805
G1 X79.255 Y73.459 E103.54879
G1 X78.764 Y73.589 E103.61918
G1 X78.339 Y73.872 E103.68995
G0 F3600 X74.946 Y74.879
G0 X71.317 Y74.925
G0 X70.286 Y74.592
G0 X69.467 Y73.858
G0 X69.017 Y72.856
G0 X68.975 Y47.417
G0 X69.308 Y46.386
G0 X70.042 Y45.567
G0 X70.817 Y45.192
G0 X78.339 Y43.872
G1 F1050 X78.031 Y44.28 E103.76081
G1 X77.871 Y44.761 E103.83106
G1 X77.876 Y45.27 E103.90162
G1 X78.046 Y45.749 E103.97206
G1 X78.363 Y46.15 E104.04291
G1 X78.792 Y46.424 E104.11346
G1 X79.288 Y46.543 E104.18416
G1 X79.795 Y46.496 E104.25473
G1 X80.261 Y46.287 E104.32552
G1 X80.631 Y45.937 E104.39611
G1 X80.868 Y45.488 E104.46648
G1 X80.948 Y44.984 E104.5372
G1 X80.858 Y44.482 E104.60789
G1 X80.612 Y44.038 E104.67824
G1 X80.232 Y43.695 E104.74919
G1 X79.764 Y43.496 E104.81968
G1 X79.255 Y43.459 E104.89041
G1 X78.764 Y43.589 E104.96081
G1 X78.339 Y43.872 E105.03158
G0 F3600 X48.277 Y45.115
G0 X44.525 Y46.373
G0 X43.162 Y45.96
G1 F1050 X43.551 Y46.298 E105.103
G1 X44.026 Y46.497 E105.17438
G1 X44.54 Y46.536 E105.24583
G1 X45.04 Y46.409 E105.31733
G1 X45.474 Y46.13 E105.38884
G1 X45.797 Y45.728 E105.46031
G1 X45.978 Y45.245 E105.5318
G1 X45.995 Y44.729 E105.60336
G1 X45.847 Y44.234 E105.67497
G1 X45.551 Y43.814 E105.74618
G1 X45.139 Y43.506 E105.81748
G1 X44.669 Y43.352 E105.88603
G1 X44.363 Y43.332 E105.92853
G1 X43.881 Y43.413 E105.99627
G1 X43.426 Y43.655 E106.0677
G1 X43.071 Y44.03 E106.13927
G1 X42.853 Y44.498 E106.21083
G1 X42.795 Y45.01 E106.28225
G1 X42.901 Y45.514 E106.35363
G1 X43.162 Y45.96 E106.42525
G0 F3600 X43.474 Y45.701
;TYPE:WALL-OUTER
G1 F1050 X43.765 Y45.954 E106.47869
G1 X44.121 Y46.103 E106.53218
G1 X44.505 Y46.132 E106.58556
G1 X44.879 Y46.037 E106.63904
G1 X45.203 Y45.829 E106.6924
G1 X45.445 Y45.528 E106.74593
G1 X45.58 Y45.166 E106.79948
G1 X45.593 Y44.781 E106.85287
G1 X45.482 Y44.411 E106.90641
G1 X45.261 Y44.096 E106.95975
G1 X44.952 Y43.866 E107.01314
G1 X44.592 Y43.748 E107.06564
G1 X44.383 Y43.734 E107.09468
G1 X44.012 Y43.797 E107.14683
G1 X43.671 Y43.978 E107.20034
G1 X43.406 Y44.258 E107.25377
G1 X43.243 Y44.608 E107.30729
G1 X43.2 Y44.991 E107.3607
G1 X43.279 Y45.368 E107.41409
G1 X43.474 Y45.701 E107.46758
G0 F3600 X43.625 Y45.832
G0 X43.428 Y46.057
G0 X43.828 Y48.94
G0 X43.9 Y70.832
G0 X43.6 Y70.832
G1 F1050 X43.6 Y65.432 E108.21602
G1 X41.6 Y65.432 E108.49322
G1 X41.6 Y54.568 E109.99897
G1 X43.6 Y54.568 E110.27617
G1 X43.6 Y49.168 E111.02461
G1 X41.6 Y49.168 E111.30181
G1 X41.6 Y44.082 E112.00673
G1 X43.482 Y42.2 E112.37562
G1 X82.2 Y42.2 E117.74193
G1 X82.2 Y45.918 E118.25725
G1 X80.318 Y47.8 E118.62614
G1 X76.6 Y47.8 E119.14145
G1 X76.6 Y47.485 E119.18511
G1 X76.545 Y47.006 E119.25194
G1 X76.381 Y46.54 E119.32041
G1 X76.118 Y46.123 E119.38874
G1 X75.768 Y45.775 E119.45715
G1 X75.35 Y45.514 E119.52545
