;FLAVOR:UltiGCode
;TIME:9395
;MATERIAL:5302
;MATERIAL2:0
;NOZZLE_DIAMETER:0.4
;MINX:31.1
;MINY:40.15
;MINZ:0.3
;MAXX:92.717
;MAXY:80.091
;MAXZ:17.28
;Generated with Cura_SteamEngine 4.7.1
M82 ;absolute extrusion mode
G0 F3000 Y50 ;avoid prime blob
G92 E0
G92 E0
G10
;LAYER_COUNT:287
;LAYER:0
M107
G0 F3600 X36.911 Y40.921 Z0.3
;TYPE:SKIRT
G11
G1 F1050 X37.358 Y40.623 E0.07091
G1 X37.843 Y40.395 E0.14166
G1 X38.357 Y40.242 E0.21245
G1 X39.025 Y40.16 E0.30128
G1 X39.447 Y40.15 E0.357
G1 X88.462 Y40.15 E6.82698
G1 X89.16 Y40.16 E6.91913
G1 X89.694 Y40.208 E6.9899
G1 X90.215 Y40.334 E7.06066
G1 X90.712 Y40.537 E7.13152
G1 X91.173 Y40.811 E7.20231
G1 X91.588 Y41.15 E7.27304
G1 X91.948 Y41.548 E7.34388
G1 X92.245 Y41.994 E7.41461
G1 X92.473 Y42.48 E7.48547
G1 X92.625 Y42.994 E7.55623
G1 X92.707 Y43.659 E7.64467
G1 X92.717 Y44.08 E7.70026
G1 X92.717 Y64.594 E10.40811
G1 X92.708 Y65.228 E10.4918
G1 X92.666 Y65.893 E10.57976
G1 X92.557 Y66.607 E10.6751
G1 X92.383 Y67.27 E10.76558
G1 X92.188 Y67.783 E10.83802
G1 X91.928 Y68.336 E10.91868
G1 X91.645 Y68.831 E10.99395
G1 X91.178 Y69.463 E11.09768
G1 X90.735 Y69.944 E11.18399
G1 X90.308 Y70.328 E11.2598
G1 X89.817 Y70.698 E11.34095
G1 X89.383 Y70.965 E11.40821
G1 X88.906 Y71.206 E11.47876
G1 X88.315 Y71.451 E11.5632
G1 X87.712 Y71.64 E11.64662
G1 X87.017 Y71.772 E11.74
G1 X86.455 Y71.829 E11.81456
G1 X86.052 Y71.844 E11.8678
G1 X85.287 Y71.854 E11.96879
G1 X82.547 Y71.926 E12.33059
G1 X79.815 Y72.077 E12.69176
G1 X77.098 Y72.304 E13.05166
G1 X74.377 Y72.609 E13.41308
G1 X71.677 Y72.988 E13.77297
G1 X69.017 Y73.44 E14.12913
G1 X66.306 Y73.979 E14.49398
G1 X63.643 Y74.588 E14.85457
G1 X61.048 Y75.26 E15.20841
G1 X58.394 Y76.027 E15.57308
G1 X55.818 Y76.85 E15.93004
G1 X53.237 Y77.756 E16.29111
G1 X51.656 Y78.353 E16.51419
G1 X51.435 Y78.43 E16.54508
G1 X50.597 Y78.702 E16.66138
G1 X47.822 Y79.647 E17.04833
G1 X47.155 Y79.885 E17.14182
G1 X46.637 Y80.028 E17.21275
G1 X46.105 Y80.091 E17.28346
G1 X45.569 Y80.075 E17.35425
G1 X45.041 Y79.98 E17.42506
G1 X44.534 Y79.807 E17.49578
G1 X44.057 Y79.561 E17.56662
G1 X43.539 Y79.174 E17.65197
G1 X43.113 Y78.78 E17.72857
G1 X42.723 Y78.405 E17.79998
G1 X42.289 Y77.976 E17.88054
G1 X41.937 Y77.572 E17.95127
G1 X41.597 Y77.052 E18.03328
G1 X41.348 Y76.577 E18.10407
G1 X41.171 Y76.071 E18.17483
G1 X41.082 Y75.62 E18.23551
G1 X40.934 Y74.51 E18.38333
G1 X40.532 Y71.792 E18.74601
G1 X40.063 Y69.139 E19.10163
G1 X39.506 Y66.435 E19.46605
G1 X38.894 Y63.836 E19.8185
G1 X38.19 Y61.186 E20.18044
G1 X37.412 Y58.56 E20.54196
G1 X36.133 Y54.739 E21.07384
G1 X35.789 Y53.776 E21.20882
G1 X35.636 Y53.199 E21.28762
G1 X35.529 Y52.357 E21.39966
G1 X35.518 Y51.95 E21.4534
G1 X35.517 Y44.375 E22.4533
G1 X35.526 Y43.71 E22.54109
G1 X35.574 Y43.176 E22.61186
G1 X35.7 Y42.655 E22.68262
G1 X35.902 Y42.158 E22.75343
G1 X36.175 Y41.697 E22.82415
G1 X36.514 Y41.281 E22.89499
G1 X36.911 Y40.921 E22.96573
G0 F3600 X37.297 Y41.133
G1 F1050 X37.734 Y40.878 E23.03252
G1 X38.205 Y40.694 E23.09926
G1 X38.699 Y40.588 E23.16596
G1 X39.357 Y40.551 E23.25295
G1 X88.456 Y40.55 E29.73402
G1 X89.154 Y40.56 E29.82616
G1 X89.657 Y40.607 E29.89285
G1 X90.147 Y40.733 E29.95963
G1 X90.611 Y40.935 E30.02643
G1 X91.037 Y41.207 E30.09315
G1 X91.415 Y41.542 E30.15982
G1 X91.735 Y41.933 E30.22651
G1 X91.99 Y42.37 E30.2933
G1 X92.173 Y42.841 E30.36
G1 X92.28 Y43.335 E30.42672
G1 X92.316 Y43.99 E30.51331
G1 X92.317 Y64.588 E33.23225
G1 X92.308 Y65.222 E33.31594
G1 X92.267 Y65.864 E33.40086
G1 X92.163 Y66.535 E33.49049
G1 X91.999 Y67.157 E33.5754
G1 X91.826 Y67.613 E33.63978
G1 X91.566 Y68.166 E33.72044
G1 X91.315 Y68.606 E33.7873
G1 X90.862 Y69.218 E33.88781
G1 X90.454 Y69.659 E33.96712
G1 X90.043 Y70.029 E34.04011
G1 X89.593 Y70.366 E34.11432
G1 X88.752 Y70.836 E34.2415
G1 X88.161 Y71.081 E34.32594
G1 X87.626 Y71.25 E34.4
G1 X86.949 Y71.377 E34.49093
G1 X86.439 Y71.43 E34.55861
G1 X86.047 Y71.444 E34.61039
G1 X85.272 Y71.454 E34.7127
G1 X82.514 Y71.527 E35.07688
G1 X79.796 Y71.677 E35.4362
G1 X77.053 Y71.906 E35.79954
G1 X74.353 Y72.208 E36.15816
G1 X71.621 Y72.593 E36.52235
G1 X68.943 Y73.047 E36.88089
G1 X66.244 Y73.584 E37.24414
G1 X63.554 Y74.199 E37.60838
G1 X63.545 Y74.2 E37.60957
G1 X60.909 Y74.883 E37.96902
G1 X58.298 Y75.637 E38.32775
G1 X55.68 Y76.474 E38.69056
G1 X53.13 Y77.369 E39.04729
G1 X51.515 Y77.979 E39.27517
G1 X51.311 Y78.05 E39.30368
G1 X50.443 Y78.332 E39.42415
G1 X47.737 Y79.253 E39.80147
G1 X47.02 Y79.509 E39.90196
G1 X46.532 Y79.641 E39.96869
G1 X46.029 Y79.694 E40.03546
G1 X45.524 Y79.667 E40.10221
G1 X45.03 Y79.562 E40.16888
G1 X44.558 Y79.379 E40.2357
G1 X44.121 Y79.125 E40.30242
G1 X43.669 Y78.753 E40.37969
G1 X43.034 Y78.15 E40.49528
G1 X42.57 Y77.692 E40.58134
G1 X42.106 Y77.112 E40.67939
G1 X41.936 Y76.84 E40.72173
G1 X41.703 Y76.391 E40.7885
G1 X41.543 Y75.912 E40.85516
G1 X41.478 Y75.567 E40.9015
G1 X41.33 Y74.457 E41.04932
G1 X40.928 Y71.734 E41.41265
G1 X40.454 Y69.054 E41.7719
G1 X39.902 Y66.376 E42.13283
G1 X39.282 Y63.738 E42.49053
G1 X38.565 Y61.042 E42.85878
G1 X37.801 Y58.463 E43.21383
G1 X36.498 Y54.571 E43.7556
G1 X36.166 Y53.642 E43.88582
G1 X36.03 Y53.129 E43.95588
G1 X35.928 Y52.345 E44.06024
G1 X35.918 Y51.95 E44.11239
G1 X35.917 Y44.381 E45.1115
G1 X35.926 Y43.716 E45.19929
G1 X35.973 Y43.212 E45.26611
G1 X36.099 Y42.723 E45.33276
G1 X36.3 Y42.259 E45.39951
G1 X36.571 Y41.832 E45.46627
G1 X36.906 Y41.454 E45.53294
G1 X37.297 Y41.133 E45.59972
G10
;MESH:mot_holder_2.stl
G0 F3600 X39.731 Y43.085
G0 X39.731 Y44.364
G0 X46.452 Y55.839
G0 X46.634 Y56.543
;TYPE:WALL-INNER
G11
G1 F1050 X46.416 Y55.854 E45.69988
G1 X46.061 Y55.203 E45.80265
G1 X45.595 Y54.624 E45.90566
G1 X45.016 Y54.096 E46.01427
G1 X44.348 Y53.646 E46.1259
G1 X43.849 Y53.381 E46.20421
G1 X43.339 Y53.167 E46.28087
G1 X42.783 Y52.979 E46.36222
G1 X42.227 Y52.838 E46.44172
G1 X41.635 Y52.733 E46.52505
G1 X41.066 Y52.673 E46.60435
G1 X40.475 Y52.65 E46.68632
G1 X40.01 Y52.622 E46.75089
G1 X39.877 Y52.559 E46.77129
G1 X39.8 Y52.482 E46.78638
G1 X39.744 Y52.373 E46.80336
G1 X39.717 Y52.202 E46.82736
G1 X39.717 Y44.35 E47.91565
G1 X88.517 Y44.35 E54.67933
G1 X88.517 Y65.229 E57.57315
G1 X88.477 Y65.681 E57.63605
G1 X88.355 Y66.108 E57.6976
G1 X88.158 Y66.507 E57.75927
G1 X87.891 Y66.863 E57.82095
G1 X87.571 Y67.156 E57.88108
G1 X87.189 Y67.393 E57.94339
G1 X86.782 Y67.552 E58.00395
G1 X86.327 Y67.639 E58.06816
G1 X86.104 Y67.65 E58.0991
G1 X58.821 Y67.65 E61.88053
G1 X57.965 Y67.679 E61.99924
G1 X57.107 Y67.768 E62.11879
G1 X56.247 Y67.919 E62.23981
G1 X55.429 Y68.126 E62.35676
G1 X54.624 Y68.394 E62.47436
G1 X53.875 Y68.711 E62.58708
G1 X53.149 Y69.091 E62.70066
G1 X52.496 Y69.508 E62.80804
G1 X51.88 Y69.991 E62.91654
G1 X51.35 Y70.493 E63.01771
G1 X50.89 Y71.035 E63.11624
G1 X50.481 Y71.637 E63.21712
G1 X50.174 Y72.24 E63.3109
G1 X49.934 Y72.904 E63.40876
G1 X49.798 Y73.545 E63.49958
G1 X49.747 Y74.221 E63.59354
G1 X49.747 Y74.408 E63.61945
G1 X48.457 Y74.401 E63.79825
G1 X46.905 Y74.408 E64.01336
G1 X46.705 Y74.408 E64.04108
G1 X46.705 Y74.208 E64.05903
G1 X46.706 Y57.212 E66.41468
G1 X46.634 Y56.543 E66.50793
G0 F3600 X46.731 Y56.523
G0 X54.469 Y63.817
G0 X55.532 Y64.327
G0 X80.154 Y64.389
G0 X81.302 Y64.179
G0 X81.259 Y64.09
G1 F1050 X81.75 Y63.777 E66.58864
G1 X82.153 Y63.374 E66.66763
G1 X82.464 Y62.878 E66.74877
G1 X82.655 Y62.327 E66.8296
G1 X82.717 Y61.784 E66.90535
G1 X82.717 Y57.705 E67.4707
G1 X82.652 Y57.158 E67.54704
G1 X82.457 Y56.608 E67.62792
G1 X82.144 Y56.117 E67.70863
G1 X81.741 Y55.714 E67.78762
G1 X81.245 Y55.403 E67.86876
G1 X80.694 Y55.212 E67.94959
G1 X80.151 Y55.15 E68.02534
G1 X56.072 Y55.15 E71.36269
G1 X55.525 Y55.215 E71.43903
G1 X54.975 Y55.41 E71.51991
G1 X54.484 Y55.723 E71.60062
G1 X54.081 Y56.126 E71.67961
G1 X53.77 Y56.622 E71.76075
G1 X53.579 Y57.173 E71.84158
G1 X53.517 Y57.716 E71.91733
G1 X53.517 Y61.795 E72.48268
G1 X53.582 Y62.342 E72.55902
G1 X53.777 Y62.892 E72.6399
G1 X54.09 Y63.383 E72.72061
G1 X54.493 Y63.786 E72.7996
G1 X54.989 Y64.097 E72.88074
G1 X55.54 Y64.288 E72.96157
G1 X56.083 Y64.35 E73.03732
G1 X80.152 Y64.35 E76.37328
G1 X80.708 Y64.285 E76.45087
G1 X81.259 Y64.09 E76.53188
G0 F3600 X81.302 Y64.179
G0 X80.154 Y64.389
G0 X56.081 Y64.389
G0 X54.972 Y64.133
G0 X54.059 Y63.408
G0 X53.544 Y62.351
G0 X53.478 Y57.714
G0 X53.734 Y56.605
G0 X54.884 Y55.35
G0 X55.152 Y55.772
;TYPE:WALL-OUTER
G1 F1050 X54.736 Y56.037 E76.60024
G1 X54.396 Y56.377 E76.66688
G1 X54.133 Y56.796 E76.73545
G1 X53.971 Y57.262 E76.80383
G1 X53.917 Y57.739 E76.87036
G1 X53.917 Y61.771 E77.4292
G1 X53.974 Y62.25 E77.49605
G1 X54.139 Y62.715 E77.56444
G1 X54.404 Y63.131 E77.6328
G1 X54.744 Y63.471 E77.69945
G1 X55.163 Y63.734 E77.76801
G1 X55.629 Y63.896 E77.83639
G1 X56.106 Y63.95 E77.90293
G1 X80.129 Y63.95 E81.23251
G1 X80.617 Y63.893 E81.30061
G1 X81.082 Y63.728 E81.369
G1 X81.498 Y63.463 E81.43736
G1 X81.838 Y63.123 E81.504
G1 X82.101 Y62.704 E81.57257
G1 X82.263 Y62.238 E81.64095
G1 X82.317 Y61.761 E81.70748
G1 X82.317 Y57.729 E82.26632
G1 X82.26 Y57.25 E82.33317
G1 X82.095 Y56.785 E82.40156
G1 X81.83 Y56.369 E82.46992
G1 X81.49 Y56.029 E82.53657
G1 X81.071 Y55.766 E82.60513
G1 X80.605 Y55.604 E82.67351
G1 X80.128 Y55.55 E82.74005
G1 X56.096 Y55.55 E86.07088
G1 X55.617 Y55.607 E86.13774
G1 X55.152 Y55.772 E86.20612
G0 F3600 X54.984 Y55.879
G0 X54.716 Y55.457
G0 X54.05 Y56.102
G0 X53.54 Y57.165
G0 X49.759 Y73.54
G0 X49.677 Y74.338
G0 X49.947 Y74.809
G1 F1050 X48.457 Y74.801 E86.41264
G1 X46.505 Y74.809 E86.68319
G1 X46.304 Y74.809 E86.71105
G1 X46.304 Y74.608 E86.72907
G1 X46.306 Y74.029 E86.80932
G1 X46.306 Y57.233 E89.13724
G1 X46.241 Y56.626 E89.22185
G1 X46.046 Y56.012 E89.31114
G1 X45.727 Y55.426 E89.40362
G1 X45.303 Y54.899 E89.49736
G1 X44.768 Y54.411 E89.59773
G1 X44.142 Y53.989 E89.70237
G1 X43.678 Y53.743 E89.77516
G1 X43.197 Y53.541 E89.84746
G1 X42.67 Y53.363 E89.92456
G1 X42.143 Y53.229 E89.99993
G1 X41.579 Y53.129 E90.07932
G1 X41.037 Y53.072 E90.15485
G1 X40.46 Y53.05 E90.23488
G1 X39.907 Y53.016 E90.31167
G1 X39.644 Y52.892 E90.35197
G1 X39.473 Y52.721 E90.38549
G1 X39.359 Y52.498 E90.4202
G1 X39.317 Y52.232 E90.45753
G1 X39.317 Y43.95 E91.60541
G1 X88.917 Y43.95 E98.47997
G1 X88.917 Y65.243 E101.43118
G1 X88.871 Y65.757 E101.50271
G1 X88.73 Y66.253 E101.57418
G1 X88.501 Y66.716 E101.64577
G1 X88.189 Y67.132 E101.71784
G1 X87.813 Y67.477 E101.78857
G1 X87.369 Y67.753 E101.86103
G1 X86.894 Y67.938 E101.93168
G1 X86.377 Y68.036 E102.00461
G1 X86.106 Y68.05 E102.04222
G1 X58.828 Y68.05 E105.82295
G1 X57.992 Y68.078 E105.93889
G1 X57.162 Y68.164 E106.05454
G1 X56.331 Y68.31 E106.17148
G1 X55.542 Y68.51 E106.28429
G1 X54.765 Y68.769 E106.39781
G1 X54.046 Y69.073 E106.50601
G1 X53.35 Y69.437 E106.61487
G1 X52.728 Y69.835 E106.71722
G1 X52.141 Y70.294 E106.82049
G1 X51.641 Y70.768 E106.91598
G1 X51.209 Y71.277 E107.00852
G1 X50.826 Y71.841 E107.10301
G1 X50.542 Y72.399 E107.18979
G1 X50.32 Y73.014 E107.28041
G1 X50.195 Y73.602 E107.36373
G1 X50.147 Y74.236 E107.45185
G1 X50.148 Y74.609 E107.50355
G1 X50.148 Y74.61 E107.50369
G1 X50.148 Y74.81 E107.53141
G1 X49.948 Y74.81 E107.54936
G1 X49.947 Y74.809 E107.54955
G0 F3600 X49.747 Y74.808
G0 X49.372 Y74.016
;TYPE:SKIN
G1 F1050 X48.457 Y74.011 E107.67033
G1 X47.095 Y74.016 E107.85012
G1 X47.096 Y57.191 E110.07102
G1 X47.018 Y56.463 E110.16766
G1 X46.777 Y55.7 E110.27329
G1 X46.387 Y54.986 E110.38068
G1 X45.88 Y54.357 E110.48732
G1 X45.258 Y53.788 E110.59859
G1 X44.549 Y53.311 E110.71139
G1 X44.016 Y53.028 E110.79105
G1 X43.477 Y52.802 E110.8682
G1 X42.894 Y52.605 E110.94943
G1 X42.309 Y52.456 E111.02911
G1 X41.69 Y52.347 E111.11208
G1 X41.094 Y52.283 E111.1912
G1 X40.499 Y52.26 E111.2698
G1 X40.118 Y52.237 E111.32019
G1 X40.107 Y52.168 E111.32941
G1 X40.107 Y44.74 E112.3099
G1 X88.127 Y44.74 E118.64854
G1 X88.127 Y65.222 E121.35217
G1 X88.093 Y65.608 E121.40332
G1 X87.989 Y65.969 E121.45291
G1 X87.826 Y66.299 E121.50149
G1 X87.601 Y66.6 E121.5511
G1 X87.333 Y66.844 E121.59894
G1 X87.013 Y67.044 E121.64875
G1 X86.675 Y67.176 E121.69665
G1 X86.284 Y67.25 E121.74918
G1 X86.084 Y67.26 E121.77561
G1 X58.815 Y67.26 E125.37512
G1 X57.938 Y67.289 E125.49095
G1 X57.053 Y67.382 E125.60841
G1 X56.165 Y67.537 E125.7274
G1 X55.32 Y67.752 E125.84249
G1 X54.486 Y68.029 E125.95849
G1 X53.709 Y68.358 E126.06987
G1 X52.954 Y68.753 E126.18235
G1 X52.27 Y69.19 E126.28949
G1 X51.625 Y69.695 E126.39762
G1 X51.067 Y70.224 E126.49911
G1 X50.58 Y70.799 E126.59858
G1 X50.144 Y71.438 E126.70069
G1 X49.815 Y72.084 E126.79638
G1 X49.558 Y72.797 E126.89643
G1 X49.412 Y73.49 E126.98991
G1 X49.372 Y74.016 E127.05954
G0 F3600 X50.339 Y71.857
G0 X54.819 Y64.451
G1 F1050 X55.453 Y64.67 E127.14808
G1 X56.061 Y64.74 E127.22887
G1 X80.175 Y64.74 E130.41192
G1 X80.797 Y64.667 E130.49459
G1 X81.431 Y64.443 E130.58334
G1 X81.996 Y64.083 E130.67178
G1 X82.46 Y63.618 E130.75849
G1 X82.818 Y63.048 E130.84734
G1 X83.037 Y62.414 E130.93588
G1 X83.107 Y61.806 E131.01666
G1 X83.107 Y57.682 E131.56103
G1 X83.034 Y57.068 E131.64265
G1 X82.81 Y56.436 E131.73116
G1 X82.45 Y55.871 E131.81959
G1 X81.985 Y55.407 E131.9063
G1 X81.415 Y55.049 E131.99515
G1 X80.781 Y54.83 E132.08369
G1 X80.173 Y54.76 E132.16448
G1 X56.049 Y54.76 E135.34885
G1 X55.435 Y54.833 E135.43047
G1 X54.803 Y55.057 E135.51897
G1 X54.238 Y55.417 E135.60741
G1 X53.774 Y55.882 E135.69412
G1 X53.416 Y56.452 E135.78297
G1 X53.197 Y57.086 E135.87151
G1 X53.127 Y57.694 E135.95229
G1 X53.127 Y61.818 E136.49666
G1 X53.2 Y62.432 E136.57828
G1 X53.424 Y63.064 E136.66679
G1 X53.784 Y63.629 E136.75522
G1 X54.249 Y64.093 E136.84193
G1 X54.819 Y64.451 E136.93078
G0 F3600 X47.81 Y73.831
G1 F1050 X47.275 Y73.296 E137.03065
G0 F3600 X47.275 Y72.73
G1 F1050 X48.374 Y73.83 E137.2359
G0 F3600 X48.942 Y73.832
G1 F1050 X47.275 Y72.165 E137.54709
G0 F3600 X47.275 Y71.599
G1 F1050 X49.228 Y73.552 E137.91167
G0 F3600 X49.316 Y73.075
G1 F1050 X47.275 Y71.033 E138.29277
G0 F3600 X47.275 Y70.468
G1 F1050 X49.43 Y72.623 E138.69506
G0 F3600 X49.579 Y72.206
G1 F1050 X47.275 Y69.902 E139.12516
G0 F3600 X47.275 Y69.336
G1 F1050 X49.751 Y71.813 E139.58746
G0 F3600 X49.942 Y71.438
G1 F1050 X47.275 Y68.771 E140.08533
G0 F3600 X47.275 Y68.205
G1 F1050 X50.162 Y71.092 E140.62426
G0 F3600 X50.391 Y70.756
G1 F1050 X47.275 Y67.639 E141.20604
G0 F3600 X47.275 Y67.074
G1 F1050 X50.645 Y70.444 E141.83514
G0 F3600 X50.904 Y70.137
G1 F1050 X47.275 Y66.508 E142.51259
G0 F3600 X47.275 Y65.942
G1 F1050 X51.19 Y69.857 E143.24342
G0 F3600 X51.48 Y69.582
G1 F1050 X47.275 Y65.376 E144.02849
G0 F3600 X47.275 Y64.811
G1 F1050 X51.795 Y69.331 E144.87227
G0 F3600 X52.113 Y69.083
G1 F1050 X47.275 Y64.245 E145.77541
G0 F3600 X47.275 Y63.679
G1 F1050 X52.453 Y68.858 E146.74211
G0 F3600 X52.798 Y68.637
G1 F1050 X47.275 Y63.114 E147.77312
G0 F3600 X47.275 Y62.548
G1 F1050 X53.165 Y68.438 E148.87264
G0 F3600 X53.536 Y68.244
G1 F1050 X47.275 Y61.982 E150.04152
G0 F3600 X47.275 Y61.417
G1 F1050 X53.926 Y68.068 E151.2831
G0 F3600 X54.324 Y67.9
G1 F1050 X47.275 Y60.851 E152.59898
G0 F3600 X47.275 Y60.285
G1 F1050 X54.742 Y67.752 E153.99289
G0 F3600 X55.167 Y67.612
G1 F1050 X47.275 Y59.72 E155.46614
G0 F3600 X47.275 Y59.154
G1 F1050 X55.611 Y67.491 E157.02237
G0 F3600 X56.062 Y67.375
G1 F1050 X47.275 Y58.588 E158.66269
G0 F3600 X47.275 Y58.023
G1 F1050 X56.54 Y67.288 E160.39225
G0 F3600 X57.021 Y67.204
G1 F1050 X47.275 Y57.457 E162.21169
G0 F3600 X47.241 Y56.857
G1 F1050 X53.116 Y62.733 E163.3085
G0 F3600 X52.97 Y62.021
G1 F1050 X47.113 Y56.164 E164.40186
G1 X47.043 Y56.094
G0 F3600 X46.702 Y55.187
G1 F1050 X52.946 Y61.432 E165.56756
G0 F3600 X52.946 Y60.866
G1 F1050 X40.286 Y48.206 E167.93088
G0 F3600 X40.286 Y48.771
G1 F1050 X44.73 Y53.215 E168.76047
G1 X44.8 Y53.285
G0 F3600 X43.611 Y52.662
G1 F1050 X40.286 Y49.337 E169.38117
G0 F3600 X40.286 Y49.903
G1 F1050 X42.77 Y52.386 E169.84478
G0 F3600 X42.043 Y52.225
G1 F1050 X40.286 Y50.469 E170.17268
G0 F3600 X40.286 Y51.034
G1 F1050 X41.384 Y52.132 E170.37765
G0 F3600 X40.776 Y52.089
G1 F1050 X40.286 Y51.6 E170.46903
G0 F3600 X40.286 Y47.64
G1 F1050 X52.946 Y60.3 E172.83235
