;FLAVOR:UltiGCode
;TIME:4099
;MATERIAL:2028
;MATERIAL2:0
;NOZZLE_DIAMETER:0.4
;MINX:42.017
;MINY:42.016
;MINZ:0.3
;MAXX:77.991
;MAXY:77.984
;MAXZ:9
;Generated with Cura_SteamEngine 4.7.1
M82 ;absolute extrusion mode
G0 F3000 Y50 ;avoid prime blob
G92 E0
G92 E0
G10
;LAYER_COUNT:146
;LAYER:0
M107
G0 F3600 X47.512 Y47.055 Z0.3
;TYPE:SKIRT
G11
G1 F1050 X47.711 Y46.866 E0.03623
G1 X48.418 Y46.24 E0.16088
G1 X48.624 Y46.07 E0.19613
G1 X49.398 Y45.472 E0.32524
G1 X49.621 Y45.311 E0.36155
G1 X50.393 Y44.795 E0.48412
G1 X50.624 Y44.652 E0.51998
G1 X51.46 Y44.172 E0.64723
G1 X51.704 Y44.043 E0.68366
G1 X52.546 Y43.634 E0.80722
G1 X52.78 Y43.529 E0.84108
G1 X53.663 Y43.168 E0.967
G1 X53.961 Y43.058 E1.00893
G1 X54.791 Y42.785 E1.12426
G1 X55.051 Y42.709 E1.16002
G1 X56.022 Y42.461 E1.29231
G1 X56.538 Y42.345 E1.36212
G1 X57.232 Y42.224 E1.45511
G1 X57.976 Y42.127 E1.55415
G1 X58.123 Y42.113 E1.57364
G1 X59.088 Y42.038 E1.7014
G1 X59.353 Y42.026 E1.73642
G1 X60.234 Y42.016 E1.85272
G1 X60.494 Y42.022 E1.88705
G1 X61.462 Y42.074 E2.01501
G1 X61.743 Y42.099 E2.05225
G1 X62.696 Y42.218 E2.17902
G1 X62.958 Y42.259 E2.21402
G1 X63.886 Y42.438 E2.33878
G1 X64.155 Y42.5 E2.37522
G1 X65.058 Y42.74 E2.49855
G1 X65.321 Y42.82 E2.53484
G1 X66.26 Y43.14 E2.66579
G1 X66.734 Y43.316 E2.73253
G1 X67.377 Y43.591 E2.82484
G1 X67.788 Y43.784 E2.88478
G1 X68.414 Y44.097 E2.97716
G1 X68.587 Y44.189 E3.00303
G1 X69.033 Y44.44 E3.07058
G1 X69.618 Y44.799 E3.16118
G1 X69.73 Y44.872 E3.17883
G1 X70.532 Y45.42 E3.30705
G1 X71.019 Y45.776 E3.38667
G1 X71.524 Y46.185 E3.47245
G1 X72.074 Y46.668 E3.56907
G1 X72.177 Y46.764 E3.58766
G1 X72.833 Y47.399 E3.70818
G1 X73.019 Y47.592 E3.74356
G1 X73.655 Y48.296 E3.86879
G1 X74.023 Y48.729 E3.9438
G1 X74.432 Y49.258 E4.03207
G1 X74.714 Y49.65 E4.09581
G1 X75.068 Y50.169 E4.17873
G1 X75.454 Y50.789 E4.27514
G1 X75.672 Y51.168 E4.33285
G1 X76.011 Y51.794 E4.42682
G1 X76.108 Y51.984 E4.45498
G1 X76.356 Y52.509 E4.53163
G1 X76.509 Y52.854 E4.58144
G1 X76.765 Y53.472 E4.66974
G1 X76.974 Y54.037 E4.74926
G1 X77.154 Y54.583 E4.82515
G1 X77.277 Y55.002 E4.88279
G1 X77.492 Y55.818 E4.99418
G1 X77.623 Y56.379 E5.07022
G1 X77.727 Y56.939 E5.14541
G1 X77.813 Y57.505 E5.22097
G1 X77.829 Y57.622 E5.23656
G1 X77.902 Y58.228 E5.31713
G1 X77.946 Y58.735 E5.38431
G1 X77.975 Y59.312 E5.46057
G1 X77.979 Y59.426 E5.47563
G1 X77.991 Y60.034 E5.5559
G1 X77.976 Y60.721 E5.6466
G1 X77.949 Y61.21 E5.71125
G1 X77.895 Y61.869 E5.79853
G1 X77.873 Y62.072 E5.82548
G1 X77.803 Y62.596 E5.89526
G1 X77.738 Y62.997 E5.94889
G1 X77.605 Y63.709 E6.0445
G1 X77.551 Y63.957 E6.078
G1 X77.406 Y64.549 E6.15845
G1 X77.348 Y64.762 E6.18759
G1 X77.134 Y65.488 E6.2875
G1 X77.058 Y65.72 E6.31973
G1 X76.885 Y66.21 E6.38832
G1 X76.67 Y66.756 E6.46578
G1 X76.616 Y66.883 E6.484
G1 X76.21 Y67.79 E6.61517
G1 X76.089 Y68.038 E6.65159
G1 X75.64 Y68.88 E6.77755
G1 X75.504 Y69.115 E6.81339
G1 X74.995 Y69.931 E6.94034
G1 X74.702 Y70.371 E7.01012
G1 X74.306 Y70.91 E7.0984
G1 X73.996 Y71.304 E7.16458
G1 X73.601 Y71.779 E7.24613
G1 X73.465 Y71.933 E7.27325
G1 X72.974 Y72.464 E7.36871
G1 X72.588 Y72.847 E7.44049
G1 X72.501 Y72.93 E7.45636
G1 X71.802 Y73.572 E7.58164
G1 X71.36 Y73.952 E7.65858
G1 X70.858 Y74.346 E7.74282
G1 X70.456 Y74.639 E7.80848
G1 X69.906 Y75.019 E7.89672
G1 X69.734 Y75.131 E7.92382
G1 X69.25 Y75.43 E7.99891
G1 X68.654 Y75.767 E8.08929
G1 X68.544 Y75.825 E8.10571
G1 X67.762 Y76.224 E8.22159
G1 X67.247 Y76.467 E8.29676
G1 X67.061 Y76.548 E8.32354
G1 X66.487 Y76.78 E8.40526
G1 X65.873 Y77.001 E8.4914
G1 X65.752 Y77.041 E8.50822
G1 X64.897 Y77.306 E8.62638
G1 X64.635 Y77.377 E8.66221
G1 X63.677 Y77.604 E8.79217
G1 X63.411 Y77.658 E8.82799
G1 X62.479 Y77.813 E8.95271
G1 X62.207 Y77.848 E8.98891
G1 X61.275 Y77.938 E9.1125
G1 X60.96 Y77.958 E9.15417
G1 X60.101 Y77.984 E9.26761
G1 X59.79 Y77.983 E9.30866
G1 X58.875 Y77.95 E9.42952
G1 X58.593 Y77.93 E9.46684
G1 X57.585 Y77.822 E9.60065
G1 X57.013 Y77.743 E9.67687
G1 X56.795 Y77.704 E9.70611
G1 X56.226 Y77.591 E9.78268
G1 X55.714 Y77.47 E9.85213
G1 X55.578 Y77.434 E9.8707
G1 X54.602 Y77.156 E10.00465
G1 X54.345 Y77.073 E10.0403
G1 X53.494 Y76.767 E10.15968
G1 X53.195 Y76.648 E10.20216
G1 X52.368 Y76.286 E10.32132
G1 X52.123 Y76.169 E10.35716
G1 X51.256 Y75.717 E10.48622
G1 X51.019 Y75.583 E10.52216
G1 X50.237 Y75.105 E10.64314
G1 X49.968 Y74.928 E10.68564
G1 X49.237 Y74.411 E10.80383
G1 X49.017 Y74.243 E10.84037
G1 X48.275 Y73.637 E10.96683
G1 X48.074 Y73.462 E11.00201
G1 X47.375 Y72.809 E11.12827
G1 X47.182 Y72.615 E11.1644
G1 X46.537 Y71.924 E11.28917
G1 X46.357 Y71.718 E11.32528
G1 X45.74 Y70.959 E11.45439
G1 X45.578 Y70.746 E11.48972
G1 X45.068 Y70.025 E11.60629
G1 X44.918 Y69.796 E11.64243
G1 X44.376 Y68.906 E11.77998
G1 X44.034 Y68.294 E11.87252
G1 X43.783 Y67.788 E11.94708
G1 X43.615 Y67.425 E11.99988
G1 X43.333 Y66.776 E12.09328
G1 X43.107 Y66.186 E12.17668
G1 X42.933 Y65.684 E12.24681
G1 X42.811 Y65.29 E12.30126
G1 X42.567 Y64.42 E12.42053
G1 X42.503 Y64.161 E12.45574
G1 X42.31 Y63.241 E12.57983
G1 X42.264 Y62.979 E12.61494
G1 X42.13 Y62.029 E12.74158
G1 X42.101 Y61.753 E12.77822
G1 X42.032 Y60.781 E12.90684
G1 X42.022 Y60.521 E12.94119
G1 X42.017 Y59.64 E13.05748
G1 X42.032 Y59.074 E13.13222
G1 X42.065 Y58.571 E13.19876
G1 X42.112 Y58.116 E13.25914
G1 X42.239 Y57.164 E13.38592
G1 X42.283 Y56.904 E13.42072
G1 X42.469 Y55.98 E13.54514
G1 X42.533 Y55.71 E13.58177
G1 X42.788 Y54.781 E13.70893
G1 X42.954 Y54.242 E13.78337
G1 X43.042 Y53.99 E13.81861
G1 X43.272 Y53.376 E13.90516
G1 X43.503 Y52.835 E13.98281
G1 X43.937 Y51.908 E14.11792
G1 X44.065 Y51.659 E14.15487
G1 X44.488 Y50.899 E14.26968
G1 X44.625 Y50.671 E14.3048
G1 X45.182 Y49.81 E14.44016
G1 X45.331 Y49.595 E14.47469
G1 X45.858 Y48.887 E14.59119
G1 X46.038 Y48.662 E14.62922
G1 X46.698 Y47.897 E14.76259
G1 X46.882 Y47.695 E14.79866
G1 X47.512 Y47.055 E14.9172
G0 F3600 X47.797 Y47.336
G1 F1050 X47.977 Y47.166 E14.94988
G1 X48.684 Y46.54 E15.07453
G1 X48.869 Y46.386 E15.10631
G1 X49.643 Y45.788 E15.23542
G1 X49.844 Y45.644 E15.26805
G1 X50.616 Y45.128 E15.39063
G1 X50.823 Y44.999 E15.42282
G1 X51.659 Y44.519 E15.55007
G1 X51.879 Y44.403 E15.5829
G1 X52.721 Y43.994 E15.70646
G1 X52.932 Y43.9 E15.73695
G1 X53.925 Y43.495 E15.87851
G1 X54.086 Y43.438 E15.90106
G1 X54.916 Y43.165 E16.01639
G1 X55.15 Y43.097 E16.04856
G1 X56.121 Y42.849 E16.18084
G1 X56.624 Y42.736 E16.24889
G1 X57.297 Y42.619 E16.33906
G1 X58.021 Y42.525 E16.43543
G1 X58.154 Y42.512 E16.45307
G1 X59.119 Y42.437 E16.58083
G1 X59.357 Y42.426 E16.61228
G1 X60.238 Y42.416 E16.72858
G1 X60.472 Y42.421 E16.75948
G1 X61.44 Y42.473 E16.88744
G1 X61.693 Y42.496 E16.92097
G1 X62.646 Y42.615 E17.04775
G1 X62.882 Y42.652 E17.07928
G1 X63.81 Y42.831 E17.20403
G1 X64.053 Y42.887 E17.23695
G1 X64.956 Y43.127 E17.36028
G1 X65.192 Y43.198 E17.39281
G1 X66.131 Y43.518 E17.52376
G1 X66.776 Y43.764 E17.61488
G1 X67.306 Y43.998 E17.69136
G1 X67.609 Y44.142 E17.73564
G1 X68.235 Y44.455 E17.82803
G1 X68.391 Y44.538 E17.85135
G1 X68.926 Y44.84 E17.93245
G1 X69.404 Y45.137 E18.00673
G1 X69.504 Y45.203 E18.02255
G1 X70.306 Y45.751 E18.15076
G1 X70.774 Y46.093 E18.22728
G1 X71.271 Y46.495 E18.31166
G1 X71.806 Y46.965 E18.40566
G1 X71.899 Y47.051 E18.42238
G1 X72.555 Y47.686 E18.54289
G1 X72.722 Y47.86 E18.57473
G1 X73.358 Y48.564 E18.69996
G1 X73.717 Y48.987 E18.7732
G1 X74.113 Y49.501 E18.85884
G1 X74.383 Y49.875 E18.91973
G1 X74.737 Y50.394 E19.00266
G1 X75.113 Y50.997 E19.09646
G1 X75.321 Y51.359 E19.15157
G1 X75.66 Y51.985 E19.24554
G1 X75.746 Y52.155 E19.27069
G1 X75.991 Y52.673 E19.34633
G1 X76.14 Y53.007 E19.39461
G1 X76.396 Y53.625 E19.4829
G1 X76.597 Y54.173 E19.55995
G1 X76.771 Y54.698 E19.63296
G1 X76.89 Y55.104 E19.6888
G1 X77.105 Y55.92 E19.80019
G1 X77.233 Y56.468 E19.87448
G1 X77.333 Y57.008 E19.94697
G1 X77.418 Y57.564 E20.02121
G1 X77.432 Y57.669 E20.0352
G1 X77.505 Y58.275 E20.11577
G1 X77.554 Y58.876 E20.19536
G1 X77.579 Y59.434 E20.26909
G1 X77.591 Y60.042 E20.34936
G1 X77.577 Y60.71 E20.43756
G1 X77.55 Y61.177 E20.4993
G1 X77.496 Y61.836 E20.58658
G1 X77.476 Y62.019 E20.61088
G1 X77.406 Y62.543 E20.68067
G1 X77.345 Y62.923 E20.73147
G1 X77.213 Y63.63 E20.82641
G1 X77.163 Y63.863 E20.85786
G1 X77.041 Y64.364 E20.92593
G1 X76.964 Y64.649 E20.96489
G1 X76.753 Y65.366 E21.06355
G1 X76.681 Y65.587 E21.09423
G1 X76.508 Y66.077 E21.16283
G1 X76.3 Y66.605 E21.23774
G1 X76.251 Y66.72 E21.25424
G1 X75.845 Y67.627 E21.38541
G1 X75.736 Y67.85 E21.41817
G1 X75.287 Y68.692 E21.54413
G1 X75.164 Y68.903 E21.57637
G1 X74.655 Y69.719 E21.70332
G1 X74.37 Y70.147 E21.77119
G1 X73.985 Y70.671 E21.85702
G1 X73.688 Y71.048 E21.92038
G1 X73.293 Y71.523 E22.00192
G1 X73.171 Y71.662 E22.02634
G1 X72.685 Y72.188 E22.12087
G1 X72.309 Y72.561 E22.19078
G1 X71.531 Y73.277 E22.33035
G1 X71.101 Y73.647 E22.40523
G1 X70.613 Y74.029 E22.48703
G1 X70.228 Y74.31 E22.54995
G1 X69.678 Y74.69 E22.63819
G1 X69.524 Y74.791 E22.6625
G1 X69.04 Y75.09 E22.7376
G1 X68.461 Y75.416 E22.8253
G1 X68.362 Y75.469 E22.84013
G1 X67.58 Y75.868 E22.95601
G1 X67.078 Y76.104 E23.02923
G1 X66.91 Y76.177 E23.05341
G1 X66.345 Y76.406 E23.13389
G1 X65.743 Y76.623 E23.21835
G1 X65.634 Y76.659 E23.23351
G1 X64.779 Y76.924 E23.35166
G1 X64.543 Y76.988 E23.38394
G1 X63.585 Y77.215 E23.5139
G1 X63.346 Y77.263 E23.54608
G1 X62.414 Y77.418 E23.67079
G1 X62.169 Y77.45 E23.7034
G1 X61.237 Y77.54 E23.827
G1 X60.948 Y77.558 E23.86522
G1 X60.089 Y77.584 E23.97866
G1 X59.804 Y77.584 E24.01628
G1 X58.889 Y77.551 E24.13714
G1 X58.635 Y77.533 E24.17075
G1 X57.627 Y77.425 E24.30457
G1 X57.08 Y77.348 E24.37749
G1 X56.872 Y77.312 E24.40535
G1 X56.371 Y77.213 E24.47276
G1 X55.81 Y77.082 E24.54881
G1 X55.688 Y77.049 E24.56549
G1 X54.712 Y76.771 E24.69944
G1 X54.48 Y76.697 E24.73159
G1 X53.629 Y76.391 E24.85096
G1 X53.355 Y76.282 E24.88989
G1 X52.528 Y75.92 E25.00905
G1 X52.308 Y75.814 E25.04129
G1 X51.441 Y75.362 E25.17035
G1 X51.227 Y75.242 E25.20273
G1 X50.445 Y74.764 E25.32372
G1 X50.199 Y74.601 E25.36267
G1 X49.468 Y74.084 E25.48085
G1 X49.27 Y73.933 E25.51372
G1 X48.528 Y73.327 E25.64018
G1 X48.347 Y73.17 E25.67181
G1 X47.648 Y72.517 E25.79808
G1 X47.474 Y72.342 E25.83065
G1 X46.829 Y71.651 E25.95542
G1 X46.668 Y71.466 E25.9878
G1 X46.051 Y70.707 E26.11691
G1 X45.905 Y70.515 E26.14875
G1 X45.395 Y69.794 E26.26533
G1 X45.259 Y69.587 E26.29802
G1 X44.717 Y68.697 E26.43557
G1 X44.391 Y68.116 E26.52351
G1 X44.146 Y67.62 E26.59653
G1 X43.982 Y67.266 E26.64803
G1 X43.7 Y66.617 E26.74144
G1 X43.482 Y66.046 E26.82212
G1 X43.314 Y65.563 E26.88962
G1 X43.196 Y65.182 E26.94227
G1 X42.952 Y64.312 E27.06154
G1 X42.895 Y64.079 E27.0932
G1 X42.702 Y63.159 E27.21729
G1 X42.66 Y62.923 E27.24893
G1 X42.526 Y61.973 E27.37557
G1 X42.5 Y61.725 E27.40848
G1 X42.431 Y60.753 E27.53711
G1 X42.422 Y60.518 E27.56815
G1 X42.417 Y59.637 E27.68445
G1 X42.432 Y59.097 E27.75576
G1 X42.495 Y58.289 E27.86273
G1 X42.509 Y58.169 E27.87868
G1 X42.636 Y57.217 E28.00546
G1 X42.675 Y56.983 E28.03677
G1 X42.861 Y56.059 E28.16119
G1 X42.918 Y55.816 E28.19413
G1 X43.173 Y54.887 E28.3213
G1 X43.333 Y54.371 E28.39261
G1 X43.417 Y54.13 E28.4263
G1 X43.643 Y53.525 E28.51155
G1 X43.866 Y53.005 E28.58623
G1 X44.3 Y52.078 E28.72135
G1 X44.414 Y51.853 E28.75464
G1 X44.837 Y51.093 E28.86945
G1 X44.96 Y50.889 E28.9009
G1 X45.517 Y50.028 E29.03626
G1 X45.652 Y49.833 E29.06756
G1 X46.179 Y49.125 E29.18407
G1 X46.341 Y48.923 E29.21825
G1 X47.001 Y48.158 E29.35161
G1 X47.167 Y47.976 E29.38413
G1 X47.797 Y47.336 E29.50267
G0 F3600 X48.083 Y47.616
G1 F1050 X48.242 Y47.465 E29.53162
G1 X48.949 Y46.839 E29.65627
G1 X49.114 Y46.703 E29.68449
G1 X49.888 Y46.105 E29.8136
G1 X50.066 Y45.977 E29.84254
G1 X50.838 Y45.461 E29.96511
G1 X51.023 Y45.346 E29.99387
G1 X51.859 Y44.866 E30.12111
G1 X52.054 Y44.763 E30.15022
G1 X52.896 Y44.354 E30.27379
G1 X53.083 Y44.27 E30.30085
G1 X54.034 Y43.882 E30.43642
G1 X54.211 Y43.818 E30.46127
G1 X55.041 Y43.545 E30.5766
G1 X55.249 Y43.485 E30.60518
G1 X56.321 Y43.212 E30.7512
G1 X56.876 Y43.094 E30.8261
G1 X57.449 Y43 E30.90274
G1 X58.067 Y42.922 E30.98497
G1 X58.185 Y42.911 E31.00061
G1 X59.15 Y42.836 E31.12837
G1 X59.362 Y42.826 E31.15639
G1 X60.243 Y42.816 E31.27269
G1 X60.451 Y42.821 E31.30015
G1 X61.419 Y42.873 E31.42811
G1 X61.644 Y42.893 E31.45793
G1 X62.597 Y43.012 E31.5847
G1 X62.806 Y43.045 E31.61263
G1 X63.734 Y43.224 E31.73739
G1 X63.95 Y43.273 E31.76662
G1 X64.853 Y43.513 E31.88996
G1 X65.063 Y43.577 E31.91894
G1 X66.002 Y43.897 E32.04988
G1 X66.615 Y44.131 E32.13649
G1 X67.135 Y44.36 E32.2115
G1 X67.43 Y44.5 E32.2546
G1 X68.056 Y44.813 E32.34698
G1 X68.194 Y44.886 E32.36759
G1 X68.72 Y45.183 E32.44733
G1 X69.189 Y45.474 E32.52018
G1 X69.278 Y45.533 E32.53428
G1 X70.08 Y46.081 E32.6625
G1 X70.529 Y46.409 E32.73589
G1 X71.018 Y46.805 E32.81895
G1 X71.538 Y47.262 E32.91033
G1 X71.621 Y47.339 E32.92528
G1 X72.277 Y47.974 E33.04579
G1 X72.426 Y48.128 E33.07408
G1 X73.062 Y48.832 E33.19931
G1 X73.411 Y49.244 E33.27059
G1 X73.795 Y49.743 E33.3537
G1 X74.053 Y50.101 E33.41195
G1 X74.448 Y50.682 E33.50469
G1 X74.771 Y51.205 E33.58583
G1 X74.969 Y51.549 E33.63822
G1 X75.308 Y52.175 E33.73219
G1 X75.385 Y52.327 E33.75468
G1 X75.626 Y52.837 E33.82914
G1 X75.77 Y53.16 E33.87582
G1 X76.026 Y53.778 E33.96412
G1 X76.221 Y54.308 E34.03866
G1 X76.387 Y54.814 E34.10896
G1 X76.503 Y55.206 E34.16292
G1 X76.718 Y56.022 E34.27431
G1 X76.843 Y56.558 E34.34696
G1 X76.939 Y57.078 E34.41676
G1 X77.022 Y57.624 E34.48966
G1 X77.035 Y57.717 E34.50205
G1 X77.108 Y58.323 E34.58262
G1 X77.154 Y58.895 E34.65837
G1 X77.179 Y59.442 E34.73065
G1 X77.191 Y60.05 E34.81092
G1 X77.177 Y60.698 E34.89648
G1 X77.151 Y61.144 E34.95545
G1 X77.097 Y61.803 E35.04273
G1 X77.08 Y61.966 E35.06436
G1 X76.997 Y62.579 E35.14602
G1 X76.952 Y62.85 E35.18228
G1 X76.821 Y63.551 E35.27641
G1 X76.774 Y63.768 E35.30572
G1 X76.634 Y64.341 E35.38358
G1 X76.58 Y64.536 E35.41029
G1 X76.372 Y65.244 E35.5077
G1 X76.303 Y65.453 E35.53675
G1 X76.1 Y66.027 E35.61712
G1 X75.886 Y66.556 E35.69244
G1 X75.48 Y67.463 E35.82361
G1 X75.383 Y67.662 E35.85283
G1 X74.934 Y68.504 E35.97879
G1 X74.825 Y68.692 E36.00748
G1 X74.316 Y69.508 E36.13443
G1 X74.038 Y69.924 E36.20047
G1 X73.665 Y70.431 E36.28356
G1 X73.38 Y70.792 E36.34427
G1 X72.985 Y71.267 E36.42582
G1 X72.877 Y71.391 E36.44752
G1 X72.396 Y71.911 E36.54102
G1 X72.03 Y72.275 E36.60916
G1 X71.96 Y72.341 E36.62186
G1 X71.261 Y72.983 E36.74714
G1 X70.841 Y73.342 E36.82007
G1 X70.368 Y73.713 E36.89942
G1 X70.001 Y73.981 E36.95941
G1 X69.451 Y74.361 E37.04765
G1 X69.314 Y74.45 E37.06922
G1 X68.741 Y74.803 E37.15805
G1 X68.268 Y75.066 E37.22949
G1 X67.398 Y75.511 E37.35848
G1 X66.909 Y75.742 E37.42987
G1 X66.76 Y75.807 E37.45133
G1 X66.202 Y76.033 E37.5308
G1 X65.612 Y76.245 E37.61355
G1 X65.515 Y76.277 E37.62704
G1 X64.66 Y76.542 E37.74519
G1 X64.451 Y76.599 E37.77379
G1 X63.493 Y76.826 E37.90374
G1 X63.28 Y76.869 E37.93243
G1 X62.348 Y77.024 E38.05714
G1 X62.131 Y77.052 E38.08602
G1 X61.199 Y77.142 E38.20962
G1 X60.936 Y77.159 E38.24441
G1 X60.077 Y77.185 E38.35785
G1 X59.819 Y77.184 E38.3919
G1 X58.904 Y77.151 E38.51276
G1 X58.678 Y77.135 E38.54267
G1 X57.67 Y77.027 E38.67649
G1 X57.147 Y76.954 E38.74619
G1 X56.95 Y76.919 E38.7726
G1 X56.395 Y76.809 E38.84729
G1 X55.906 Y76.693 E38.91363
G1 X55.797 Y76.665 E38.92848
G1 X54.821 Y76.387 E39.06244
G1 X54.615 Y76.32 E39.09103
G1 X53.764 Y76.014 E39.21041
G1 X53.516 Y75.915 E39.24565
G1 X52.689 Y75.553 E39.36482
G1 X52.493 Y75.46 E39.39346
G1 X51.626 Y75.008 E39.52252
G1 X51.436 Y74.9 E39.55137
G1 X50.654 Y74.422 E39.67235
G1 X50.43 Y74.275 E39.70771
G1 X49.699 Y73.758 E39.8259
G1 X49.523 Y73.623 E39.85518
G1 X48.781 Y73.017 E39.98164
G1 X48.621 Y72.877 E40.0097
G1 X47.922 Y72.224 E40.13597
G1 X47.767 Y72.07 E40.16481
G1 X47.122 Y71.379 E40.28958
G1 X46.978 Y71.214 E40.31849
G1 X46.361 Y70.455 E40.44761
G1 X46.232 Y70.284 E40.47588
G1 X45.722 Y69.563 E40.59246
G1 X45.601 Y69.379 E40.62152
G1 X45.059 Y68.489 E40.75907
G1 X44.749 Y67.937 E40.84264
G1 X44.508 Y67.451 E40.91425
G1 X44.349 Y67.106 E40.96439
G1 X44.067 Y66.457 E41.0578
