;FLAVOR:UltiGCode
;TIME:5601
;MATERIAL:3000
;MATERIAL2:0
;NOZZLE_DIAMETER:0.4
;MINX:50
;MINY:40.47
;MINZ:0.3
;MAXX:70
;MAXY:83.799
;MAXZ:22.98
;Generated with Cura_SteamEngine 4.7.1
M82 ;absolute extrusion mode
G0 F3000 Y50 ;avoid prime blob
G92 E0
G92 E0
G10
;LAYER_COUNT:379
;LAYER:0
M107
G0 F3600 X53.085 Y43.344 Z0.3
;TYPE:SKIRT
G11
G1 F1050 X53.499 Y42.959 E0.07463
G1 X53.975 Y42.628 E0.15116
G1 X54.546 Y42.3 E0.23808
G1 X55.234 Y41.932 E0.34107
G1 X55.752 Y41.702 E0.41588
G1 X57.049 Y41.231 E0.59803
G1 X57.11 Y41.202 E0.60694
G1 X57.596 Y41.03 E0.67499
G1 X58.372 Y40.743 E0.78421
G1 X58.914 Y40.585 E0.85873
G1 X59.704 Y40.495 E0.96368
G1 X60.251 Y40.489 E1.03589
G1 X60.674 Y40.495 E1.09173
G1 X61.32 Y40.557 E1.1774
G1 X61.71 Y40.644 E1.23014
G1 X62.329 Y40.815 E1.31491
G1 X62.965 Y40.999 E1.4023
G1 X63.625 Y41.199 E1.49334
G1 X64.331 Y41.489 E1.59408
G1 X64.91 Y41.811 E1.68154
G1 X65.69 Y42.268 E1.80087
G1 X66.276 Y42.624 E1.89137
G1 X66.737 Y42.951 E1.96598
G1 X67.148 Y43.34 E2.04068
G1 X67.499 Y43.783 E2.11529
G1 X67.784 Y44.269 E2.18965
G1 X68.133 Y44.974 E2.29349
G1 X68.462 Y45.663 E2.39428
G1 X68.792 Y46.379 E2.49834
G1 X68.993 Y46.907 E2.57292
G1 X69.081 Y47.26 E2.62094
G1 X69.274 Y48.214 E2.74942
G1 X69.336 Y48.545 E2.79387
G1 X69.459 Y49.271 E2.89107
G1 X69.501 Y49.608 E2.9359
G1 X69.563 Y50.357 E3.03511
G1 X69.676 Y51.959 E3.24709
G1 X69.788 Y53.264 E3.41999
G1 X69.797 Y53.833 E3.49511
G1 X69.718 Y55.213 E3.67756
G1 X69.687 Y55.672 E3.73829
G1 X69.578 Y58.39 E4.09735
G1 X69.545 Y61.135 E4.45972
G1 X69.59 Y63.804 E4.81208
G1 X69.712 Y66.52 E5.17095
G1 X69.958 Y69.777 E5.6021
G1 X69.993 Y70.342 E5.67682
G1 X70 Y70.828 E5.74098
G1 X70 Y73.138 E6.0459
G1 X69.99 Y73.861 E6.14135
G1 X69.964 Y74.463 E6.22088
G1 X69.903 Y75.115 E6.30732
G1 X69.765 Y75.912 E6.41409
G1 X69.6 Y76.56 E6.50236
G1 X69.353 Y77.316 E6.60734
G1 X69.024 Y78.093 E6.71872
G1 X68.732 Y78.657 E6.80256
G1 X68.325 Y79.332 E6.9066
G1 X68.016 Y79.768 E6.97714
G1 X67.617 Y80.277 E7.06251
G1 X67.1 Y80.84 E7.16341
G1 X66.539 Y81.36 E7.26438
G1 X65.968 Y81.823 E7.36141
G1 X65.3 Y82.28 E7.46825
G1 X64.709 Y82.619 E7.55819
G1 X64.015 Y82.959 E7.6602
G1 X63.523 Y83.158 E7.73025
G1 X62.917 Y83.366 E7.81482
G1 X62.175 Y83.563 E7.91616
G1 X61.441 Y83.694 E8.01458
G1 X60.716 Y83.775 E8.11088
G1 X60.137 Y83.799 E8.18737
G1 X59.551 Y83.792 E8.26473
G1 X58.771 Y83.726 E8.36806
G1 X58.049 Y83.606 E8.46467
G1 X57.313 Y83.433 E8.56447
G1 X56.832 Y83.283 E8.63097
G1 X56.23 Y83.063 E8.71558
G1 X55.509 Y82.736 E8.82008
G1 X54.866 Y82.379 E8.91716
G1 X54.241 Y81.974 E9.01547
G1 X53.82 Y81.657 E9.08503
G1 X53.345 Y81.262 E9.16658
G1 X52.754 Y80.689 E9.27524
G1 X52.298 Y80.17 E9.36643
G1 X51.852 Y79.589 E9.46311
G1 X51.534 Y79.106 E9.53945
G1 X51.206 Y78.549 E9.62477
G1 X50.878 Y77.879 E9.72324
G1 X50.594 Y77.162 E9.82504
G1 X50.374 Y76.477 E9.92001
G1 X50.19 Y75.691 E10.02657
G1 X50.082 Y74.963 E10.12371
G1 X50.031 Y74.399 E10.19847
G1 X50.009 Y73.849 E10.27112
G1 X50.006 Y73.729 E10.28697
G1 X50 Y73.131 E10.36591
G1 X50 Y70.96 E10.65248
G1 X50.011 Y70.25 E10.74621
G1 X50.059 Y69.696 E10.81961
G1 X50.276 Y68.304 E11.00558
G1 X50.334 Y67.963 E11.05124
G1 X50.708 Y65.297 E11.40659
G1 X51.031 Y62.375 E11.79465
G1 X51.192 Y60.691 E12.01795
G1 X51.3 Y59.715 E12.14757
G1 X51.581 Y56.073 E12.62974
G1 X51.623 Y55.36 E12.72402
G1 X51.742 Y52.636 E13.08393
G1 X51.785 Y49.939 E13.43998
G1 X51.769 Y48.024 E13.69277
G1 X51.751 Y46.974 E13.83139
G1 X51.781 Y46.409 E13.90607
G1 X51.925 Y45.734 E13.99718
G1 X52.103 Y45.152 E14.07752
G1 X52.223 Y44.792 E14.12761
G1 X52.441 Y44.27 E14.20228
G1 X52.73 Y43.784 E14.27691
G1 X53.085 Y43.344 E14.35154
G0 F3600 X53.435 Y43.557
G1 F1050 X53.837 Y43.202 E14.42233
G1 X54.438 Y42.819 E14.51641
G1 X54.786 Y42.625 E14.569
G1 X55.423 Y42.285 E14.66431
G1 X55.888 Y42.078 E14.7315
G1 X57.143 Y41.622 E14.90775
G1 X57.697 Y41.419 E14.98564
G1 X58.51 Y41.118 E15.10007
G1 X59.026 Y40.97 E15.17093
G1 X59.709 Y40.895 E15.26163
G1 X60.245 Y40.889 E15.33238
G1 X60.668 Y40.895 E15.38822
G1 X61.25 Y40.951 E15.4654
G1 X61.604 Y41.03 E15.51328
G1 X62.261 Y41.212 E15.60327
G1 X62.849 Y41.382 E15.68407
G1 X63.509 Y41.582 E15.7751
G1 X64.145 Y41.843 E15.86584
G1 X64.712 Y42.158 E15.95146
G1 X65.482 Y42.61 E16.06932
G1 X66.068 Y42.966 E16.15983
G1 X66.504 Y43.278 E16.2306
G1 X66.89 Y43.651 E16.30145
G1 X67.215 Y44.077 E16.37218
G1 X67.426 Y44.447 E16.4284
G1 X67.772 Y45.147 E16.53147
G1 X68.12 Y45.877 E16.63822
G1 X68.429 Y46.546 E16.7355
G1 X68.617 Y47.049 E16.80638
G1 X68.689 Y47.339 E16.84582
G1 X68.881 Y48.288 E16.97363
G1 X68.941 Y48.612 E17.01712
G1 X69.064 Y49.338 E17.11432
G1 X69.103 Y49.641 E17.15465
G1 X69.164 Y50.385 E17.25318
G1 X69.274 Y51.948 E17.46001
G1 X69.39 Y53.298 E17.63887
G1 X69.397 Y53.81 E17.70646
G1 X69.319 Y55.186 E17.88838
G1 X69.287 Y55.666 E17.95188
G1 X69.179 Y58.369 E18.30896
G1 X69.146 Y61.101 E18.66961
G1 X69.192 Y63.864 E19.03438
G1 X69.312 Y66.537 E19.38757
G1 X69.555 Y69.758 E19.81395
G1 X69.593 Y70.355 E19.89291
G1 X69.6 Y70.833 E19.95602
G1 X69.6 Y73.133 E20.25962
G1 X69.59 Y73.856 E20.35506
G1 X69.565 Y74.435 E20.43156
G1 X69.508 Y75.052 E20.51335
G1 X69.372 Y75.838 E20.61864
G1 X69.215 Y76.453 E20.70243
G1 X68.982 Y77.167 E20.80157
G1 X68.659 Y77.931 E20.91106
G1 X68.381 Y78.466 E20.99064
G1 X67.998 Y79.102 E21.08864
G1 X67.695 Y79.528 E21.15765
G1 X67.318 Y80.011 E21.23853
G1 X66.809 Y80.565 E21.33783
G1 X66.272 Y81.062 E21.43442
G1 X65.737 Y81.496 E21.52535
G1 X65.079 Y81.946 E21.63058
G1 X64.516 Y82.269 E21.71625
G1 X63.864 Y82.589 E21.81212
G1 X63.382 Y82.784 E21.88076
G1 X62.811 Y82.981 E21.96049
G1 X62.078 Y83.175 E22.06058
G1 X61.379 Y83.299 E22.15429
G1 X60.698 Y83.375 E22.24474
G1 X60.133 Y83.399 E22.31938
G1 X59.579 Y83.393 E22.39252
G1 X58.811 Y83.328 E22.49425
G1 X58.122 Y83.213 E22.58646
G1 X57.431 Y83.051 E22.68015
G1 X56.671 Y82.806 E22.78555
G1 X56.052 Y82.549 E22.87402
G1 X55.407 Y82.231 E22.96894
G1 X54.736 Y81.828 E23.07226
G1 X54.159 Y81.413 E23.16608
G1 X53.618 Y80.97 E23.25838
G1 X53.038 Y80.407 E23.36508
G1 X52.603 Y79.911 E23.45216
G1 X52.185 Y79.367 E23.54272
G1 X51.874 Y78.895 E23.61733
G1 X51.562 Y78.368 E23.69817
G1 X51.239 Y77.708 E23.79517
G1 X50.968 Y77.022 E23.89253
G1 X50.762 Y76.38 E23.98153
G1 X50.581 Y75.606 E24.08645
G1 X50.479 Y74.913 E24.17891
G1 X50.431 Y74.383 E24.24916
G1 X50.409 Y73.833 E24.32182
G1 X50.406 Y73.725 E24.33608
G1 X50.4 Y73.127 E24.41502
G1 X50.4 Y70.966 E24.70027
G1 X50.411 Y70.256 E24.794
G1 X50.454 Y69.758 E24.85998
G1 X50.67 Y68.37 E25.04541
G1 X50.731 Y68.009 E25.09373
G1 X51.107 Y65.33 E25.45083
G1 X51.423 Y62.473 E25.83025
G1 X51.59 Y60.735 E26.06072
G1 X51.697 Y59.762 E26.18993
G1 X51.979 Y56.121 E26.67199
G1 X52.019 Y55.435 E26.76269
G1 X52.141 Y52.659 E27.12948
G1 X52.185 Y49.912 E27.49213
G1 X52.169 Y48.021 E27.74175
G1 X52.151 Y46.967 E27.8809
G1 X52.181 Y46.432 E27.95163
G1 X52.307 Y45.851 E28.0301
G1 X52.485 Y45.269 E28.11044
G1 X52.602 Y44.919 E28.15915
G1 X52.811 Y44.425 E28.22996
G1 X53.09 Y43.968 E28.30063
G1 X53.435 Y43.557 E28.37147
G0 F3600 X53.783 Y43.775
G1 F1050 X54.382 Y43.317 E28.471
G1 X54.933 Y43.001 E28.55484
G1 X55.611 Y42.638 E28.65636
G1 X56.025 Y42.453 E28.71621
G1 X57.322 Y41.982 E28.89836
G1 X57.377 Y41.956 E28.90639
G1 X57.877 Y41.779 E28.9764
G1 X58.649 Y41.494 E29.08503
G1 X59.136 Y41.356 E29.15184
G1 X59.715 Y41.295 E29.22869
G1 X60.239 Y41.289 E29.29787
G1 X60.662 Y41.295 E29.35371
G1 X61.18 Y41.345 E29.4224
G1 X61.497 Y41.416 E29.46528
G1 X62.151 Y41.596 E29.55482
G1 X62.692 Y41.752 E29.62914
G1 X63.393 Y41.965 E29.72585
G1 X63.958 Y42.197 E29.80647
G1 X64.514 Y42.506 E29.89044
G1 X65.274 Y42.952 E30.00676
G1 X65.86 Y43.308 E30.09726
G1 X66.27 Y43.604 E30.16401
G1 X66.629 Y43.961 E30.23084
G1 X66.926 Y44.369 E30.29746
G1 X67.067 Y44.624 E30.33592
G1 X67.411 Y45.319 E30.43828
G1 X67.757 Y46.045 E30.54444
G1 X68.066 Y46.714 E30.64172
G1 X68.297 Y47.419 E30.73964
G1 X68.488 Y48.362 E30.86665
G1 X68.547 Y48.678 E30.90908
G1 X68.67 Y49.404 E31.00628
G1 X68.704 Y49.674 E31.0422
G1 X68.765 Y50.413 E31.14008
G1 X68.878 Y52.017 E31.35233
G1 X68.991 Y53.332 E31.52655
G1 X68.998 Y53.787 E31.58662
G1 X68.92 Y55.159 E31.76801
G1 X68.886 Y55.659 E31.83417
G1 X68.779 Y58.348 E32.1894
G1 X68.746 Y61.103 E32.55308
G1 X68.791 Y63.854 E32.91626
G1 X68.914 Y66.585 E33.27712
G1 X69.156 Y69.786 E33.70086
G1 X69.193 Y70.367 E33.77771
G1 X69.2 Y70.838 E33.83988
G1 X69.2 Y73.127 E34.14203
G1 X69.19 Y73.85 E34.23748
G1 X69.166 Y74.407 E34.31107
G1 X69.113 Y74.99 E34.38834
G1 X68.979 Y75.764 E34.49203
G1 X68.829 Y76.346 E34.57137
G1 X68.611 Y77.017 E34.66449
G1 X68.293 Y77.769 E34.77227
G1 X68.03 Y78.275 E34.84754
G1 X67.671 Y78.871 E34.93939
G1 X67.375 Y79.288 E35.00689
G1 X67.019 Y79.745 E35.08335
G1 X66.518 Y80.29 E35.18107
G1 X66.006 Y80.763 E35.27308
G1 X65.507 Y81.169 E35.358
G1 X64.859 Y81.612 E35.46161
G1 X64.323 Y81.919 E35.54315
G1 X63.713 Y82.218 E35.63282
G1 X63.241 Y82.409 E35.70003
G1 X62.704 Y82.595 E35.77505
G1 X61.981 Y82.786 E35.87376
G1 X61.317 Y82.903 E35.96276
G1 X60.68 Y82.976 E36.04739
G1 X60.128 Y82.999 E36.12032
G1 X59.607 Y82.994 E36.18909
G1 X58.851 Y82.93 E36.28924
G1 X58.194 Y82.82 E36.37717
G1 X57.548 Y82.668 E36.46477
G1 X56.8 Y82.427 E36.56851
G1 X56.212 Y82.182 E36.65259
G1 X55.609 Y81.885 E36.74132
G1 X54.947 Y81.489 E36.84314
G1 X54.399 Y81.093 E36.93239
G1 X53.891 Y80.677 E37.01906
G1 X53.322 Y80.125 E37.12371
G1 X52.908 Y79.652 E37.20668
G1 X52.518 Y79.145 E37.29111
G1 X52.214 Y78.685 E37.36389
G1 X51.919 Y78.187 E37.4403
G1 X51.601 Y77.537 E37.53582
G1 X51.343 Y76.881 E37.62886
G1 X51.15 Y76.283 E37.71181
G1 X50.972 Y75.521 E37.8151
G1 X50.876 Y74.862 E37.90301
G1 X50.831 Y74.367 E37.96862
G1 X50.806 Y73.721 E38.05395
G1 X50.8 Y73.123 E38.13289
G1 X50.8 Y70.972 E38.41682
G1 X50.811 Y70.262 E38.51056
G1 X50.849 Y69.819 E38.56925
G1 X51.065 Y68.437 E38.75389
G1 X51.122 Y68.099 E38.79913
G1 X51.502 Y65.393 E39.15983
G1 X51.827 Y62.463 E39.54896
G1 X51.987 Y60.779 E39.77225
G1 X52.098 Y59.776 E39.90545
G1 X52.377 Y56.162 E40.38392
G1 X52.421 Y55.407 E40.48375
G1 X52.541 Y52.684 E40.84353
G1 X52.585 Y49.914 E41.20922
G1 X52.569 Y48.047 E41.45567
G1 X52.55 Y46.96 E41.59918
G1 X52.582 Y46.455 E41.66597
G1 X52.69 Y45.968 E41.73182
G1 X52.868 Y45.386 E41.81216
G1 X52.981 Y45.047 E41.85932
G1 X53.18 Y44.582 E41.92609
G1 X53.449 Y44.155 E41.99271
G1 X53.783 Y43.775 E42.05949
G0 F3600 X58.858 Y57.019
G1 F1050 X58.967 Y56.981 E42.07472
G1 X58.932 Y57.069 E42.08723
G1 X58.858 Y57.019 E42.09901
G0 F3600 X58.647 Y56.678
G1 F1050 X58.951 Y56.538 E42.14319
G1 X59.212 Y56.331 E42.18716
G1 X59.417 Y56.067 E42.23129
G1 X59.554 Y55.762 E42.27542
G1 X59.609 Y55.338 E42.33186
G1 X59.749 Y55.607 E42.37189
G1 X59.805 Y55.956 E42.41854
G1 X59.25 Y57.354 E42.61709
G1 X59.164 Y57.676 E42.66108
G1 X59.161 Y57.869 E42.68656
G1 X58.921 Y57.566 E42.73759
G1 X58.751 Y57.43 E42.76632
G1 X57.415 Y56.526 E42.97925
G1 X57.986 Y56.727 E43.05916
G1 X58.32 Y56.742 E43.10329
G1 X58.647 Y56.678 E43.14727
G0 F3600 X58.647 Y56.249
G1 F1050 X58.882 Y56.093 E43.18451
G1 X59.064 Y55.878 E43.22169
G1 X59.179 Y55.62 E43.25897
G1 X59.217 Y55.34 E43.29627
G1 X59.176 Y55.061 E43.3335
G1 X59.045 Y54.785 E43.37382
G1 X58.049 Y53.317 E43.60799
G1 X57.327 Y51.744 E43.83645
G1 X57.491 Y50.437 E44.01033
G1 X57.97 Y49.659 E44.13093
G1 X58.808 Y48.83 E44.28653
G1 X58.979 Y48.605 E44.32383
G1 X59.08 Y48.342 E44.36102
G1 X59.103 Y48.061 E44.39824
G1 X59.047 Y47.784 E44.43554
G1 X58.916 Y47.534 E44.4728
G1 X58.721 Y47.331 E44.50995
G1 X58.476 Y47.19 E44.54727
G1 X58.034 Y47.122 E44.6063
G1 X57.002 Y47.195 E44.74286
G1 X56.858 Y47.09 E44.76638
G1 X56.791 Y46.885 E44.79485
G1 X56.836 Y46.747 E44.81401
G1 X57.469 Y46.398 E44.90943
G1 X59.261 Y46.003 E45.15165
G1 X59.652 Y45.822 E45.20852
G1 X60.095 Y45.485 E45.282
G1 X60.48 Y45.485 E45.33282
G1 X62.084 Y45.949 E45.55323
G1 X63.436 Y46.743 E45.76019
G1 X64.224 Y48.394 E46.00167
G1 X64.524 Y50.019 E46.2198
G1 X64.523 Y51.759 E46.44948
G1 X64.535 Y51.915 E46.47013
G1 X64.796 Y53.573 E46.69168
G1 X64.641 Y54.269 E46.7858
G1 X64.509 Y54.365 E46.80735
G1 X64.293 Y54.365 E46.83586
G1 X64.175 Y54.279 E46.85513
G1 X63.892 Y52.785 E47.05585
G1 X63.838 Y50.993 E47.2925
G1 X63.833 Y50.923 E47.30176
G1 X63.651 Y49.105 E47.54294
G1 X63.563 Y48.783 E47.587
G1 X62.884 Y47.325 E47.7993
G1 X62.73 Y47.088 E47.83661
G1 X62.516 Y46.904 E47.87387
G1 X62.174 Y46.767 E47.9225
G1 X60.947 Y46.52 E48.08771
G1 X60.666 Y46.504 E48.12486
G1 X60.391 Y46.567 E48.1621
G1 X60.144 Y46.704 E48.19939
G1 X59.946 Y46.905 E48.23663
G1 X59.812 Y47.153 E48.27384
G1 X59.751 Y47.543 E48.32594
G1 X59.797 Y48.608 E48.46666
G1 X59.251 Y49.685 E48.62605
G1 X58.262 Y50.694 E48.81254
G1 X58.095 Y50.921 E48.84974
G1 X57.998 Y51.186 E48.88699
G1 X57.979 Y51.468 E48.9243
G1 X58.039 Y51.743 E48.96146
G1 X58.125 Y51.919 E48.98731
G1 X59.099 Y53.498 E49.2322
G1 X60.134 Y55.479 E49.52724
G1 X60.217 Y56.001 E49.597
G1 X59.622 Y57.501 E49.81001
G1 X59.555 Y57.775 E49.84725
G1 X59.611 Y58.212 E49.9054
G1 X60.281 Y60.05 E50.16363
G1 X60.415 Y60.299 E50.20096
G1 X60.689 Y60.555 E50.25046
G1 X62.31 Y61.574 E50.5032
G1 X62.936 Y62.202 E50.62024
G1 X63.466 Y63.718 E50.83223
G1 X63.801 Y64.582 E50.95455
G1 X63.743 Y64.758 E50.97901
G1 X63.568 Y64.886 E51.00763
G1 X63.461 Y64.886 E51.02176
G1 X62.943 Y64.333 E51.12177
G1 X62.398 Y62.826 E51.33331
G1 X62.266 Y62.577 E51.37051
G1 X61.97 Y62.307 E51.42339
G1 X60.931 Y61.688 E51.58304
G1 X60.67 Y61.579 E51.62037
G1 X60.39 Y61.547 E51.65757
G1 X60.112 Y61.595 E51.69481
G1 X59.809 Y61.754 E51.73998
G1 X58.134 Y63.042 E52.01889
G1 X57.937 Y63.244 E52.05613
G1 X57.838 Y63.412 E52.08187
G1 X57.269 Y64.632 E52.25957
G1 X57.04 Y64.799 E52.29698
G1 X56.824 Y64.799 E52.32549
G1 X56.669 Y64.686 E52.35081
G1 X56.598 Y64.431 E52.38575
G1 X56.883 Y63.719 E52.48699
G1 X56.95 Y63.445 E52.52422
G1 X56.938 Y63.163 E52.56148
G1 X56.847 Y62.896 E52.59871
G1 X56.631 Y62.61 E52.64602
G1 X56.217 Y62.231 E52.72011
G1 X56.131 Y61.967 E52.75676
G1 X56.198 Y61.762 E52.78523
G1 X56.371 Y61.636 E52.81348
G1 X56.605 Y61.638 E52.84437
G1 X57.077 Y62.025 E52.92494
G1 X57.318 Y62.172 E52.9622
G1 X57.59 Y62.245 E52.99938
G1 X57.872 Y62.239 E53.03661
G1 X58.142 Y62.154 E53.07397
G1 X58.331 Y62.037 E53.10331
G1 X59.269 Y61.296 E53.2611
G1 X59.463 Y61.091 E53.29836
G1 X59.593 Y60.841 E53.33555
G1 X59.648 Y60.564 E53.37283
G1 X59.591 Y60.176 E53.4246
G1 X58.908 Y58.254 E53.69384
G1 X58.777 Y58.004 E53.7311
G1 X58.526 Y57.761 E53.77722
G1 X56.718 Y56.538 E54.06534
G1 X56.622 Y56.277 E54.10205
G1 X56.683 Y56.092 E54.12777
G1 X56.807 Y56.001 E54.14807
G1 X57.349 Y56.062 E54.22006
G1 X57.823 Y56.265 E54.28813
G1 X58.095 Y56.339 E54.32534
G1 X58.377 Y56.333 E54.36257
G1 X58.647 Y56.249 E54.3999
G0 F3600 X58.409 Y55.914
G1 F1050 X58.6 Y55.808 E54.42873
G1 X58.74 Y55.641 E54.4575
G1 X58.81 Y55.434 E54.48634
G1 X58.803 Y55.216 E54.51513
G1 X58.714 Y55.009 E54.54487
G1 X57.697 Y53.51 E54.78398
G1 X56.915 Y51.808 E55.03123
G1 X57.105 Y50.301 E55.23172
G1 X57.652 Y49.412 E55.36951
G1 X58.527 Y48.546 E55.53201
G1 X58.652 Y48.366 E55.56094
G1 X58.704 Y48.155 E55.58962
G1 X58.677 Y47.938 E55.61849
G1 X58.575 Y47.746 E55.64719
G1 X58.41 Y47.602 E55.67609
G1 X58.205 Y47.527 E55.70491
G1 X58.063 Y47.521 E55.72367
G1 X56.884 Y47.605 E55.87969
G1 X56.518 Y47.338 E55.93949
G1 X56.371 Y46.885 E56.00236
G1 X56.505 Y46.472 E56.05967
G1 X57.326 Y46.02 E56.18338
G1 X59.175 Y45.612 E56.43332
G1 X59.409 Y45.503 E56.4674
G1 X59.958 Y45.085 E56.55848
G1 X60.539 Y45.085 E56.63517
G1 X62.24 Y45.577 E56.86891
G1 X63.745 Y46.461 E57.0993
G1 X64.607 Y48.267 E57.36346
G1 X64.924 Y49.984 E57.59393
G1 X64.923 Y51.76 E57.82836
G1 X64.93 Y51.853 E57.84067
G1 X65.202 Y53.585 E58.0721
G1 X64.998 Y54.504 E58.19636
G1 X64.639 Y54.765 E58.25495
G1 X64.163 Y54.765 E58.31778
G1 X63.812 Y54.509 E58.37513
G1 X63.493 Y52.827 E58.60111
G1 X63.438 Y51.005 E58.84172
G1 X63.435 Y50.963 E58.84728
G1 X63.253 Y49.145 E59.08845
G1 X63.2 Y48.952 E59.11487
G1 X62.521 Y47.494 E59.32718
G1 X62.394 Y47.316 E59.35604
