;FLAVOR:UltiGCode
;TIME:3490
;MATERIAL:1678
;MATERIAL2:0
;NOZZLE_DIAMETER:0.4
;MINX:44.728
;MINY:32.28
;MINZ:0.3
;MAXX:87.126
;MAXY:82.57
;MAXZ:7.38
;Generated with Cura_SteamEngine 4.7.1
M82 ;absolute extrusion mode
G0 F3000 Y50 ;avoid prime blob
G92 E0
G92 E0
G10
;LAYER_COUNT:119
;LAYER:0
M107
G0 F3600 X49.956 Y43.558 Z0.3
;TYPE:SKIRT
G11
G1 F1050 X50.315 Y43.16 E0.07075
G1 X50.917 Y42.696 E0.17108
G1 X51.359 Y42.428 E0.23931
G1 X51.959 Y42.09 E0.33021
G1 X52.348 Y41.884 E0.38832
G1 X54.177 Y40.953 E0.65922
G1 X56.564 Y39.651 E1.01813
G1 X58.933 Y38.269 E1.38016
G1 X61.232 Y36.842 E1.73733
G1 X61.681 Y36.548 E1.80818
G1 X62.286 Y36.185 E1.90131
G1 X63.076 Y35.78 E2.01849
G1 X64.338 Y35.154 E2.20445
G1 X64.871 Y34.937 E2.28041
G1 X65.409 Y34.778 E2.35446
G1 X66.036 Y34.615 E2.43998
G1 X66.335 Y34.551 E2.48034
G1 X67.229 Y34.4 E2.60002
G1 X67.434 Y34.37 E2.62737
G1 X70.11 Y33.892 E2.98619
G1 X72.787 Y33.335 E3.34712
G1 X76.288 Y32.487 E3.82262
G1 X76.707 Y32.386 E3.87951
G1 X77.421 Y32.292 E3.97457
G1 X77.859 Y32.28 E4.03241
G1 X79.877 Y32.28 E4.29878
G1 X80.497 Y32.289 E4.38063
G1 X81.033 Y32.337 E4.45167
G1 X81.486 Y32.412 E4.51228
G1 X82.007 Y32.539 E4.58306
G1 X82.651 Y32.819 E4.67576
G1 X83.706 Y33.407 E4.83519
G1 X83.914 Y33.514 E4.86606
G1 X84.815 Y34.025 E5.00279
G1 X85.315 Y34.312 E5.07889
G1 X85.759 Y34.613 E5.1497
G1 X86.153 Y34.976 E5.22041
G1 X86.489 Y35.394 E5.29121
G1 X86.759 Y35.857 E5.36195
G1 X86.958 Y36.356 E5.43287
G1 X87.08 Y36.878 E5.50363
G1 X87.126 Y37.5 E5.58596
G1 X87.122 Y38.045 E5.6579
G1 X87.062 Y38.645 E5.73749
G1 X86.848 Y39.796 E5.89203
G1 X86.711 Y40.481 E5.98424
G1 X86.246 Y43.203 E6.34875
G1 X85.868 Y45.871 E6.70444
G1 X85.562 Y48.584 E7.06483
G1 X85.332 Y51.308 E7.42568
G1 X85.181 Y53.998 E7.78131
G1 X85.105 Y56.762 E8.1463
G1 X85.107 Y59.493 E8.50679
G1 X85.185 Y62.189 E8.86281
G1 X85.342 Y64.916 E9.22337
G1 X85.574 Y67.629 E9.5828
G1 X85.886 Y70.358 E9.94537
G1 X86.272 Y73.055 E10.305
G1 X86.84 Y76.305 E10.74051
G1 X86.893 Y76.839 E10.81134
G1 X86.866 Y77.374 E10.88205
G1 X86.76 Y77.9 E10.95288
G1 X86.576 Y78.404 E11.0237
G1 X86.248 Y78.983 E11.11154
G1 X85.786 Y79.646 E11.21821
G1 X85.49 Y80.044 E11.28368
G1 X85.137 Y80.448 E11.3545
G1 X84.728 Y80.795 E11.4253
G1 X84.272 Y81.077 E11.49607
G1 X83.531 Y81.364 E11.60096
G1 X81.662 Y81.859 E11.85618
G1 X81.427 Y81.924 E11.88836
G1 X80.934 Y82.024 E11.95476
G1 X80.552 Y82.074 E12.00562
G1 X78.751 Y82.343 E12.24599
G1 X78.563 Y82.357 E12.27087
G1 X77.323 Y82.534 E12.43621
G1 X76.788 Y82.57 E12.50699
G1 X76.254 Y82.526 E12.57772
G1 X75.815 Y82.428 E12.63709
G1 X75.006 Y82.194 E12.74826
G1 X73.864 Y81.845 E12.90588
G1 X71.262 Y81.13 E13.26208
G1 X68.637 Y80.49 E13.61873
G1 X67.003 Y80.139 E13.83934
G1 X65.835 Y79.872 E13.99749
G1 X65.361 Y79.734 E14.06265
G1 X63.533 Y79.124 E14.31703
G1 X63.09 Y78.969 E14.37898
G1 X62.598 Y78.755 E14.4498
G1 X62.365 Y78.62 E14.48535
G1 X61.844 Y78.292 E14.56662
G1 X60.363 Y77.332 E14.79959
G1 X58.021 Y75.907 E15.16146
G1 X55.645 Y74.551 E15.52257
G1 X53.217 Y73.256 E15.8858
G1 X52.681 Y72.976 E15.96563
G1 X52.315 Y72.754 E16.02213
G1 X51.663 Y72.302 E16.12686
G1 X51.393 Y72.1 E16.17137
G1 X50.991 Y71.745 E16.24216
G1 X50.647 Y71.334 E16.31291
G1 X50.47 Y71.062 E16.35574
G1 X49.977 Y70.225 E16.48397
G1 X48.576 Y67.922 E16.8398
G1 X47.08 Y65.611 E17.20319
G1 X45.691 Y63.608 E17.52493
G1 X45.353 Y63.11 E17.60438
G1 X45.086 Y62.645 E17.67516
G1 X44.891 Y62.145 E17.746
G1 X44.772 Y61.622 E17.8168
G1 X44.728 Y61.035 E17.8945
G1 X44.734 Y60.439 E17.97318
G1 X44.734 Y60.399 E17.97846
G1 X44.812 Y57.605 E18.34741
G1 X44.814 Y55.188 E18.66645
G1 X44.8 Y53.728 E18.85918
G1 X44.81 Y53.029 E18.95146
G1 X44.858 Y52.494 E19.02236
G1 X44.984 Y51.973 E19.09312
G1 X45.187 Y51.477 E19.16386
G1 X45.563 Y50.856 E19.25969
G1 X47.049 Y48.517 E19.62548
G1 X48.432 Y46.194 E19.98234
G1 X49.659 Y44.005 E20.31359
G1 X49.956 Y43.558 E20.38443
G0 F3600 X50.29 Y43.781
G1 F1050 X50.633 Y43.41 E20.45112
G1 X51.127 Y43.037 E20.53283
G1 X51.555 Y42.777 E20.59893
G1 X52.155 Y42.439 E20.68984
G1 X52.529 Y42.24 E20.74576
G1 X54.37 Y41.303 E21.01843
G1 X56.766 Y39.995 E21.37876
G1 X59.151 Y38.605 E21.74315
G1 X61.45 Y37.178 E22.10032
G1 X61.961 Y36.844 E22.18091
G1 X62.469 Y36.541 E22.25899
G1 X63.253 Y36.139 E22.37528
G1 X64.518 Y35.511 E22.56171
G1 X64.991 Y35.319 E22.62909
G1 X65.52 Y35.162 E22.70193
G1 X66.136 Y35.002 E22.78594
G1 X66.402 Y34.945 E22.82185
G1 X67.222 Y34.806 E22.93163
G1 X67.498 Y34.765 E22.96847
G1 X70.191 Y34.284 E23.32957
G1 X72.866 Y33.728 E23.69021
G1 X76.514 Y32.842 E24.18575
G1 X76.799 Y32.775 E24.22439
G1 X77.433 Y32.691 E24.30881
G1 X77.859 Y32.68 E24.36506
G1 X79.871 Y32.68 E24.63065
G1 X80.491 Y32.689 E24.7125
G1 X81.421 Y32.807 E24.83624
G1 X81.911 Y32.929 E24.9029
G1 X82.456 Y33.169 E24.9815
G1 X83.602 Y33.807 E25.15464
G1 X83.717 Y33.862 E25.17146
G1 X84.616 Y34.372 E25.3079
G1 X85.116 Y34.659 E25.384
G1 X85.533 Y34.944 E25.45067
G1 X85.9 Y35.292 E25.51743
G1 X86.208 Y35.693 E25.58417
G1 X86.449 Y36.138 E25.65097
G1 X86.616 Y36.615 E25.71769
G1 X86.722 Y37.34 E25.8144
G1 X86.722 Y38.039 E25.90667
G1 X86.668 Y38.573 E25.97752
G1 X86.456 Y39.717 E26.1311
G1 X86.312 Y40.434 E26.22763
G1 X85.854 Y43.117 E26.58691
G1 X85.473 Y45.807 E26.94553
G1 X85.165 Y48.542 E27.30884
G1 X84.933 Y51.285 E27.6722
G1 X84.781 Y54 E28.03115
G1 X84.705 Y56.751 E28.39442
G1 X84.707 Y59.469 E28.75319
G1 X84.787 Y62.224 E29.11701
G1 X84.945 Y64.972 E29.48034
G1 X85.176 Y67.676 E29.83857
G1 X85.486 Y70.383 E30.19823
G1 X85.877 Y73.12 E30.56318
G1 X86.446 Y76.374 E30.99923
G1 X86.494 Y76.877 E31.06592
G1 X86.461 Y77.382 E31.13273
G1 X86.35 Y77.875 E31.19943
G1 X86.162 Y78.344 E31.26613
G1 X85.919 Y78.754 E31.32904
G1 X85.457 Y79.417 E31.43571
G1 X85.17 Y79.804 E31.49931
G1 X84.836 Y80.183 E31.56599
G1 X84.446 Y80.505 E31.63275
G1 X84.01 Y80.761 E31.69949
G1 X83.429 Y80.977 E31.78131
G1 X81.555 Y81.473 E32.03719
G1 X80.882 Y81.627 E32.12832
G1 X80.536 Y81.672 E32.17438
G1 X78.692 Y81.948 E32.4205
G1 X78.511 Y81.961 E32.44445
G1 X77.267 Y82.138 E32.61032
G1 X76.762 Y82.17 E32.67711
G1 X76.259 Y82.121 E32.74382
G1 X75.926 Y82.044 E32.78894
G1 X75.123 Y81.811 E32.8993
G1 X74.017 Y81.473 E33.05196
G1 X71.349 Y80.74 E33.41719
G1 X68.71 Y80.097 E33.77573
G1 X67.087 Y79.748 E33.99486
G1 X65.924 Y79.482 E34.15234
G1 X65.488 Y79.355 E34.21228
G1 X63.665 Y78.746 E34.46599
G1 X63.222 Y78.591 E34.52794
G1 X62.578 Y78.281 E34.62229
G1 X62.061 Y77.957 E34.70283
G1 X60.541 Y76.972 E34.94191
G1 X58.232 Y75.567 E35.29869
G1 X55.84 Y74.202 E35.66223
G1 X53.407 Y72.904 E36.02623
G1 X53.172 Y72.784 E36.06106
G1 X52.543 Y72.425 E36.15666
G1 X51.891 Y71.973 E36.26138
G1 X51.635 Y71.782 E36.30354
G1 X51.258 Y71.445 E36.37029
G1 X50.815 Y70.859 E36.46726
G1 X50.345 Y70.061 E36.5895
G1 X48.894 Y67.676 E36.95801
G1 X47.417 Y65.395 E37.31671
G1 X46.022 Y63.383 E37.63989
G1 X45.684 Y62.885 E37.71933
G1 X45.434 Y62.446 E37.78602
G1 X45.257 Y61.972 E37.85281
G1 X45.156 Y61.477 E37.91949
G1 X45.126 Y60.858 E38.0013
G1 X45.134 Y60.411 E38.06031
G1 X45.212 Y57.617 E38.42926
G1 X45.214 Y55.188 E38.74989
G1 X45.2 Y53.733 E38.94196
G1 X45.21 Y53.034 E39.03424
G1 X45.257 Y52.531 E39.10092
G1 X45.383 Y52.041 E39.16771
G1 X45.585 Y51.577 E39.23451
G1 X45.914 Y51.05 E39.31651
G1 X47.387 Y48.73 E39.67927
G1 X48.785 Y46.383 E40.03987
G1 X50.008 Y44.201 E40.37005
G1 X50.29 Y43.781 E40.43682
G0 F3600 X65.053 Y40.633
G1 F1050 X65.062 Y40.632 E40.43802
G1 X65.062 Y40.639 E40.43894
G1 X65.053 Y40.633 E40.44037
G0 F3600 X65.451 Y40.662
G1 F1050 X65.478 Y40.943 E40.47763
G1 X65.611 Y41.253 E40.52216
G1 X66.146 Y42.079 E40.65207
G1 X66.655 Y42.977 E40.78832
G1 X66.69 Y43.034 E40.79715
G1 X67.237 Y43.865 E40.92847
G1 X67.444 Y44.093 E40.96912
G1 X68.299 Y44.783 E41.11415
G1 X68.541 Y44.928 E41.15139
G1 X68.814 Y44.999 E41.18862
G1 X69.059 Y44.996 E41.22096
G1 X70.911 Y44.751 E41.46756
G1 X72.047 Y44.747 E41.61751
G1 X72.974 Y44.774 E41.73993
G1 X73.977 Y44.874 E41.87298
G1 X74.034 Y44.878 E41.88052
G1 X75.113 Y44.924 E42.02308
G1 X75.628 Y44.951 E42.09115
G1 X75.834 Y45.101 E42.12479
G1 X75.904 Y45.315 E42.15451
G1 X75.844 Y45.499 E42.18006
G1 X75.588 Y45.665 E42.22033
G1 X74.617 Y45.671 E42.34851
G1 X73.697 Y45.59 E42.47042
G1 X72.526 Y45.474 E42.62574
G1 X71.488 Y45.392 E42.76319
G1 X71.24 Y45.403 E42.79596
G1 X70.269 Y45.57 E42.92601
G1 X69.288 Y45.72 E43.05701
G1 X68.362 Y45.905 E43.18165
G1 X68.096 Y45.999 E43.21889
G1 X67.851 Y46.179 E43.25902
G1 X67.165 Y46.865 E43.38708
G1 X66.996 Y47.091 E43.42433
G1 X66.896 Y47.355 E43.4616
G1 X66.878 Y47.681 E43.5047
G1 X67.01 Y48.881 E43.66405
G1 X67.127 Y49.895 E43.79879
G1 X67.152 Y50.838 E43.92331
G1 X67.239 Y51.219 E43.97489
G1 X67.889 Y52.671 E44.18489
G1 X68.064 Y53.433 E44.28809
G1 X68.157 Y54.754 E44.46289
G1 X68.159 Y55.571 E44.57074
G1 X68.079 Y55.815 E44.60463
G1 X67.953 Y55.869 E44.62273
G1 X67.904 Y55.214 E44.70943
G1 X67.895 Y55.134 E44.72005
G1 X67.666 Y53.673 E44.91526
G1 X67.444 Y52.554 E45.06585
G1 X67.283 Y52.02 E45.13947
G1 X67.113 Y51.795 E45.17669
G1 X66.887 Y51.626 E45.21394
G1 X66.623 Y51.527 E45.25116
G1 X66.341 Y51.506 E45.28849
G1 X65.986 Y51.597 E45.33686
G1 X65.202 Y51.962 E45.45102
G1 X64.309 Y52.168 E45.57199
G1 X63.39 Y52.335 E45.69528
G1 X61.069 Y52.677 E46.00496
G1 X59.582 Y52.929 E46.20405
G1 X59.81 Y52.887 E46.23465
G1 X60.965 Y52.65 E46.39029
G1 X62.098 Y52.439 E46.54241
G1 X63.285 Y52.223 E46.70167
G1 X64.392 Y51.964 E46.85174
G1 X64.506 Y51.93 E46.86744
G1 X65.514 Y51.563 E47.00904
G1 X66.082 Y51.247 E47.09484
G1 X66.302 Y51.071 E47.13203
G1 X66.465 Y50.841 E47.16924
G1 X66.556 Y50.574 E47.20648
G1 X66.557 Y50.203 E47.25545
G1 X66.352 Y49.099 E47.40367
G1 X66.195 Y48.108 E47.53611
G1 X66.112 Y47.838 E47.5734
G1 X65.957 Y47.602 E47.61067
G1 X65.742 Y47.419 E47.64794
G1 X65.418 Y47.286 E47.69417
G1 X64.406 Y47.068 E47.83082
G1 X63.05 Y46.846 E48.01219
G1 X62.907 Y46.833 E48.03114
G1 X61.404 Y46.806 E48.22957
G1 X61.298 Y46.81 E48.24357
G1 X59.68 Y46.954 E48.45799
G1 X58.395 Y46.992 E48.62769
G1 X56.686 Y47.05 E48.85341
G1 X55.133 Y47.024 E49.05843
G1 X54.135 Y46.986 E49.19026
G1 X53.613 Y46.723 E49.26742
G1 X53.571 Y46.594 E49.28533
G1 X53.624 Y46.431 E49.30795
G1 X53.943 Y46.245 E49.35669
G1 X54.99 Y46.261 E49.49491
G1 X56.354 Y46.278 E49.67498
G1 X57.982 Y46.32 E49.88994
G1 X58.033 Y46.32 E49.89668
G1 X59.179 Y46.29 E50.048
G1 X60.792 Y46.176 E50.26145
G1 X61.698 Y46.091 E50.38156
G1 X62.569 Y46.087 E50.49654
G1 X63.632 Y46.142 E50.63704
G1 X64.508 Y46.332 E50.75536
G1 X65.745 Y46.57 E50.92164
G1 X66.027 Y46.584 E50.95891
G1 X66.301 Y46.518 E50.99611
G1 X66.835 Y46.16 E51.08097
G1 X67.033 Y45.96 E51.11812
G1 X67.168 Y45.712 E51.1554
G1 X67.228 Y45.436 E51.19268
G1 X67.209 Y45.155 E51.22986
G1 X67.092 Y44.855 E51.27236
G1 X66.502 Y43.854 E51.42574
G1 X65.95 Y42.908 E51.57031
G1 X65.276 Y41.441 E51.78342
G1 X65.123 Y41.203 E51.82076
G1 X64.924 Y41.027 E51.85583
G1 X64.183 Y40.53 E51.97361
G1 X64.19 Y40.422 E51.98789
G1 X64.308 Y40.337 E52.00709
G1 X65.086 Y40.224 E52.11086
G1 X65.357 Y40.144 E52.14816
G1 X65.598 Y39.989 E52.18598
G1 X66.43 Y39.267 E52.33139
G1 X67.138 Y39.073 E52.4283
G1 X68.495 Y38.918 E52.60858
G1 X69.248 Y38.971 E52.70823
G1 X69.092 Y38.989 E52.72895
G1 X68.205 Y38.967 E52.84607
G1 X68.037 Y38.977 E52.86829
G1 X67.059 Y39.118 E52.99872
G1 X66.789 Y39.197 E53.03586
G1 X66.578 Y39.327 E53.06857
G1 X65.826 Y39.928 E53.19564
G1 X65.632 Y40.133 E53.2329
G1 X65.504 Y40.385 E53.2702
G1 X65.451 Y40.662 E53.30743
G0 F3600 X65.858 Y40.61
G1 F1050 X65.862 Y40.828 E53.33621
G1 X65.946 Y41.035 E53.3657
G1 X66.49 Y41.875 E53.4978
G1 X67.003 Y42.78 E53.63512
G1 X67.024 Y42.814 E53.64039
G1 X67.571 Y43.645 E53.77172
G1 X67.695 Y43.782 E53.79611
G1 X68.55 Y44.472 E53.94114
G1 X68.742 Y44.576 E53.96996
G1 X69.006 Y44.6 E54.00495
G1 X70.89 Y44.351 E54.2558
G1 X72.057 Y44.347 E54.40985
G1 X72.998 Y44.375 E54.53411
G1 X74.017 Y44.476 E54.66928
G1 X75.134 Y44.524 E54.81686
G1 X75.767 Y44.557 E54.90053
G1 X76.175 Y44.854 E54.96714
G1 X76.325 Y45.315 E55.03114
G1 X76.181 Y45.758 E55.09262
G1 X75.707 Y46.064 E55.1671
G1 X74.606 Y46.071 E55.31243
G1 X73.65 Y45.987 E55.43911
G1 X72.494 Y45.873 E55.59244
G1 X71.456 Y45.791 E55.72989
G1 X71.308 Y45.798 E55.74944
G1 X70.347 Y45.962 E55.87813
G1 X69.393 Y46.108 E56.00552
G1 X68.44 Y46.298 E56.1338
G1 X68.134 Y46.462 E56.17962
G1 X67.448 Y47.148 E56.30768
G1 X67.324 Y47.327 E56.33643
G1 X67.276 Y47.637 E56.37783
G1 X67.407 Y48.835 E56.53691
G1 X67.527 Y49.873 E56.67484
G1 X67.552 Y50.827 E56.80081
G1 X67.604 Y51.056 E56.83181
G1 X68.268 Y52.54 E57.04641
G1 X68.461 Y53.379 E57.16005
G1 X68.557 Y54.74 E57.34015
G1 X68.559 Y55.637 E57.45856
G1 X68.42 Y56.062 E57.51758
G1 X68.136 Y56.269 E57.56397
G1 X67.786 Y56.269 E57.61017
G1 X67.569 Y56.111 E57.6456
G1 X67.505 Y55.244 E57.76036
G1 X67.5 Y55.195 E57.76686
G1 X67.274 Y53.751 E57.95979
G1 X67.054 Y52.642 E58.10903
G1 X66.907 Y52.171 E58.17416
G1 X66.755 Y52.015 E58.20291
G1 X66.557 Y51.923 E58.23173
G1 X66.34 Y51.908 E58.26044
G1 X66.155 Y51.96 E58.28581
G1 X65.338 Y52.341 E58.4048
G1 X64.364 Y52.565 E58.53672
G1 X63.478 Y52.726 E58.65559
G1 X61.136 Y53.071 E58.96807
G1 X58.806 Y53.469 E59.28009
G1 X57.851 Y53.476 E59.40615
G1 X56.636 Y53.454 E59.56656
G1 X56.383 Y53.505 E59.60062
G1 X55.471 Y53.907 E59.73218
G1 X55.039 Y54.11 E59.79519
G1 X54.862 Y54.237 E59.82395
G1 X54.741 Y54.419 E59.8528
G1 X54.694 Y54.646 E59.88339
G1 X54.686 Y55.354 E59.97686
G1 X54.261 Y55.492 E60.03584
G1 X53.874 Y55.214 E60.09874
G1 X53.677 Y55.121 E60.12749
G1 X53.48 Y55.103 E60.15361
G1 X52.293 Y55.19 E60.31071
G1 X51.526 Y54.801 E60.42423
G1 X51.273 Y54.366 E60.49066
G1 X51.09 Y54.248 E60.5194
G1 X50.917 Y54.205 E60.54293
G1 X49.954 Y54.114 E60.67061
G1 X49 Y53.812 E60.8027
G1 X49 Y53.513 E60.84217
G1 X49.54 Y53.337 E60.91714
G1 X50.314 Y53.532 E61.0225
G1 X50.531 Y53.546 E61.0512
G1 X50.799 Y53.445 E61.08901
G1 X51.209 Y53.164 E61.15462
G1 X51.364 Y53.01 E61.18346
G1 X51.453 Y52.811 E61.21224
G1 X51.465 Y52.593 E61.24105
G1 X51.367 Y52.334 E61.27761
G1 X51.069 Y51.893 E61.34786
G1 X51.129 Y51.803 E61.36214
G1 X51.527 Y51.93 E61.41729
G1 X51.743 Y51.957 E61.44602
G1 X51.955 Y51.905 E61.47484
G1 X52.159 Y51.755 E61.50826
G1 X52.606 Y51.25 E61.59728
G1 X53.588 Y51.276 E61.72695
G1 X54.051 Y51.17 E61.78965
G1 X54.09 Y51.23 E61.7991
G1 X53.854 Y51.632 E61.86063
G1 X52.915 Y51.978 E61.99272
G1 X52.818 Y52.024 E62.00689
G1 X52.33 Y52.312 E62.08169
G1 X52.165 Y52.455 E62.11051
G1 X52.043 Y52.732 E62.15046
G1 X51.867 Y53.801 E62.29347
G1 X51.871 Y54.019 E62.32225
G1 X51.953 Y54.221 E62.35103
G1 X52.102 Y54.38 E62.37979
G1 X52.298 Y54.476 E62.4086
G1 X52.638 Y54.471 E62.45349
G1 X53.63 Y54.16 E62.59072
G1 X53.865 Y54.021 E62.62676
G1 X54.485 Y53.428 E62.74
G1 X55.265 Y53.157 E62.849
G1 X55.314 Y53.137 E62.85599
G1 X56.094 Y52.787 E62.96884
G1 X57.445 Y52.696 E63.14757
G1 X58.493 Y52.714 E63.28593
G1 X58.613 Y52.704 E63.30182
G1 X59.73 Y52.495 E63.45183
G1 X60.885 Y52.258 E63.60746
G1 X62.03 Y52.044 E63.76122
G1 X63.194 Y51.833 E63.91737
G1 X64.301 Y51.574 E64.06744
G1 X64.369 Y51.554 E64.0768
G1 X65.377 Y51.187 E64.2184
G1 X65.879 Y50.903 E64.29453
G1 X66.043 Y50.76 E64.32325
G1 X66.146 Y50.567 E64.35213
G1 X66.164 Y50.276 E64.39062
G1 X65.954 Y49.146 E64.54233
G1 X65.8 Y48.17 E64.67276
G1 X65.727 Y47.965 E64.70148
G1 X65.585 Y47.798 E64.73042
G1 X65.333 Y47.677 E64.76732
G1 X64.321 Y47.459 E64.90396
G1 X62.986 Y47.241 E65.08252
G1 X62.9 Y47.233 E65.09392
G1 X61.397 Y47.206 E65.29235
G1 X61.333 Y47.208 E65.3008
G1 X59.693 Y47.354 E65.51814
G1 X58.409 Y47.391 E65.68769
G1 X56.673 Y47.45 E65.91698
G1 X55.139 Y47.424 E66.1195
G1 X54.032 Y47.382 E66.26572
G1 X53.283 Y47.005 E66.37641
G1 X53.15 Y46.594 E66.43343
G1 X53.29 Y46.162 E66.49338
G1 X53.836 Y45.844 E66.57678
G1 X54.995 Y45.861 E66.72979
G1 X56.365 Y45.878 E66.91064
G1 X58.023 Y45.92 E67.12957
G1 X59.151 Y45.891 E67.27851
G1 X60.74 Y45.779 E67.48878
G1 X61.669 Y45.691 E67.61196
G1 X62.588 Y45.687 E67.73327
G1 X63.683 Y45.744 E67.878
G1 X64.584 Y45.939 E67.99969
