;FLAVOR:UltiGCode
;TIME:304
;MATERIAL:229
;MATERIAL2:0
;NOZZLE_DIAMETER:0.4
;MINX:46.464
;MINY:49.718
;MINZ:0.3
;MAXX:73.536
;MAXY:70.273
;MAXZ:4.2
;Generated with Cura_SteamEngine 4.7.1
M82 ;absolute extrusion mode
G0 F3000 Y50 ;avoid prime blob
G92 E0
G92 E0
G10
;LAYER_COUNT:40
;LAYER:0
M107
G0 F3600 X48.212 Y51.71 Z0.3
;TYPE:SKIRT
G11
G1 F1350 X48.54 Y51.404 E0.05921
G1 X48.943 Y51.064 E0.12881
G1 X49.348 Y50.76 E0.19566
G1 X49.911 Y50.442 E0.28101
G1 X50.394 Y50.216 E0.3514
G1 X50.493 Y50.173 E0.36564
G1 X51.052 Y49.974 E0.44397
G1 X51.481 Y49.876 E0.50206
G1 X52.019 Y49.781 E0.57417
G1 X52.608 Y49.718 E0.65236
G1 X53.171 Y49.73 E0.72669
G1 X54.015 Y49.799 E0.83847
G1 X56.779 Y49.988 E1.20417
G1 X59.192 Y50.074 E1.52289
G1 X59.325 Y50.088 E1.54055
G1 X60.496 Y50.126 E1.6952
G1 X60.889 Y50.157 E1.74724
G1 X61.515 Y50.234 E1.83049
G1 X62.119 Y50.343 E1.91151
G1 X62.667 Y50.482 E1.98613
G1 X63.22 Y50.655 E2.06262
G1 X63.695 Y50.834 E2.12962
G1 X64.283 Y51.092 E2.21438
G1 X64.767 Y51.343 E2.28635
G1 X65.335 Y51.678 E2.37339
G1 X65.82 Y52.01 E2.45098
G1 X66.266 Y52.356 E2.52549
G1 X66.667 Y52.706 E2.59575
G1 X67.141 Y53.165 E2.68284
G1 X67.533 Y53.6 E2.76014
G1 X67.892 Y54.049 E2.83602
G1 X68.521 Y54.938 E2.97977
G1 X69.471 Y56.326 E3.20179
G1 X71.064 Y58.518 E3.55947
G1 X72.182 Y59.972 E3.80158
G1 X72.358 Y60.214 E3.84108
G1 X72.642 Y60.639 E3.90855
G1 X72.987 Y61.341 E4.0118
G1 X73.063 Y61.511 E4.03638
G1 X73.267 Y62.068 E4.11468
G1 X73.374 Y62.528 E4.17702
G1 X73.469 Y63.065 E4.24901
G1 X73.536 Y63.831 E4.3505
G1 X73.505 Y64.411 E4.42717
G1 X73.468 Y64.771 E4.47494
G1 X73.366 Y65.355 E4.5532
G1 X73.236 Y65.787 E4.61275
G1 X73.046 Y66.318 E4.68719
G1 X72.809 Y66.862 E4.76552
G1 X72.517 Y67.346 E4.84013
G1 X72.173 Y67.832 E4.91873
G1 X71.791 Y68.286 E4.99705
G1 X71.46 Y68.596 E5.05691
G1 X71.057 Y68.936 E5.12651
G1 X70.652 Y69.24 E5.19335
G1 X70.089 Y69.558 E5.27871
G1 X69.606 Y69.784 E5.3491
G1 X69.507 Y69.827 E5.36334
G1 X68.948 Y70.026 E5.44167
G1 X68.527 Y70.123 E5.4987
G1 X68.028 Y70.212 E5.5656
G1 X67.515 Y70.273 E5.6338
G1 X66.829 Y70.27 E5.72435
G1 X65.985 Y70.201 E5.83613
G1 X63.221 Y70.012 E6.20183
G1 X60.808 Y69.926 E6.52055
G1 X60.675 Y69.912 E6.5382
G1 X59.504 Y69.874 E6.69285
G1 X59.111 Y69.843 E6.74489
G1 X58.485 Y69.766 E6.82815
G1 X57.881 Y69.657 E6.90916
G1 X57.333 Y69.518 E6.98379
G1 X56.78 Y69.345 E7.06027
G1 X56.305 Y69.166 E7.12728
G1 X55.715 Y68.907 E7.21233
G1 X55.233 Y68.657 E7.284
G1 X54.665 Y68.322 E7.37105
G1 X54.18 Y67.99 E7.44863
G1 X53.734 Y67.644 E7.52314
G1 X53.326 Y67.288 E7.59462
G1 X52.852 Y66.827 E7.6819
G1 X52.482 Y66.416 E7.75489
G1 X52.103 Y65.945 E7.83469
G1 X51.479 Y65.062 E7.97742
G1 X50.529 Y63.674 E8.19944
G1 X48.936 Y61.482 E8.55712
G1 X47.82 Y60.031 E8.79875
G1 X47.638 Y59.786 E8.83904
G1 X47.185 Y59.027 E8.95571
G1 X46.973 Y58.571 E9.02209
G1 X46.93 Y58.473 E9.03622
G1 X46.729 Y57.915 E9.11451
G1 X46.627 Y57.473 E9.17438
G1 X46.532 Y56.937 E9.24624
G1 X46.464 Y56.169 E9.34801
G1 X46.497 Y55.559 E9.42865
G1 X46.533 Y55.222 E9.47339
G1 X46.636 Y54.638 E9.55166
G1 X46.764 Y54.213 E9.61025
G1 X46.954 Y53.682 E9.6847
G1 X47.191 Y53.138 E9.76302
G1 X47.483 Y52.654 E9.83764
G1 X47.83 Y52.164 E9.91689
G1 X48.212 Y51.71 E9.99521
G0 F3600 X48.518 Y51.969
G1 F1350 X48.798 Y51.71 E10.04556
G1 X49.201 Y51.37 E10.11516
G1 X49.57 Y51.093 E10.17607
G1 X50.081 Y50.804 E10.25356
G1 X50.553 Y50.583 E10.32235
G1 X50.652 Y50.54 E10.3366
G1 X51.186 Y50.352 E10.41133
G1 X51.55 Y50.27 E10.46058
G1 X52.088 Y50.175 E10.5327
G1 X52.927 Y50.117 E10.64371
G1 X53.139 Y50.128 E10.67173
G1 X54.019 Y50.2 E10.78828
G1 X56.769 Y50.388 E11.15213
G1 X59.177 Y50.474 E11.47018
G1 X59.304 Y50.487 E11.48704
G1 X60.483 Y50.526 E11.64275
G1 X60.84 Y50.554 E11.69002
G1 X61.566 Y50.644 E11.78658
G1 X62.446 Y50.837 E11.9055
G1 X63.079 Y51.029 E11.99282
G1 X63.554 Y51.208 E12.05982
G1 X64.098 Y51.447 E12.13826
G1 X64.582 Y51.698 E12.21022
G1 X65.111 Y52.009 E12.29123
G1 X65.585 Y52.334 E12.36709
G1 X66.003 Y52.657 E12.43682
G1 X66.404 Y53.007 E12.50708
G1 X66.844 Y53.433 E12.58792
G1 X67.228 Y53.86 E12.66372
G1 X67.566 Y54.281 E12.73499
G1 X68.191 Y55.164 E12.87779
G1 X69.133 Y56.541 E13.09801
G1 X70.757 Y58.775 E13.46258
G1 X71.861 Y60.21 E13.70157
G1 X72.038 Y60.45 E13.74094
G1 X72.457 Y61.148 E13.8484
G1 X72.698 Y61.673 E13.92465
G1 X72.89 Y62.205 E13.99931
G1 X72.98 Y62.597 E14.0524
G1 X73.075 Y63.134 E14.12438
G1 X73.136 Y63.831 E14.21674
G1 X73.106 Y64.379 E14.28918
G1 X73.07 Y64.729 E14.33563
G1 X72.971 Y65.285 E14.41018
G1 X72.859 Y65.653 E14.46095
G1 X72.669 Y66.184 E14.53539
G1 X72.442 Y66.701 E14.60993
G1 X71.99 Y67.403 E14.72014
G1 X71.85 Y67.596 E14.75161
G1 X71.485 Y68.027 E14.82616
G1 X71.202 Y68.29 E14.87716
G1 X70.799 Y68.63 E14.94676
G1 X70.43 Y68.907 E15.00766
G1 X69.919 Y69.196 E15.08516
G1 X69.447 Y69.417 E15.15395
G1 X69.348 Y69.46 E15.1682
G1 X68.814 Y69.648 E15.24293
G1 X68.456 Y69.729 E15.29138
G1 X67.957 Y69.818 E15.35829
G1 X67.486 Y69.874 E15.4209
G1 X66.861 Y69.872 E15.5034
G1 X65.981 Y69.8 E15.61994
G1 X63.231 Y69.612 E15.98379
G1 X60.823 Y69.526 E16.30185
G1 X60.696 Y69.513 E16.3187
G1 X59.517 Y69.474 E16.47441
G1 X59.16 Y69.446 E16.52168
G1 X58.434 Y69.356 E16.61825
G1 X57.554 Y69.163 E16.73717
G1 X56.921 Y68.971 E16.82448
G1 X56.446 Y68.792 E16.89149
G1 X55.899 Y68.552 E16.97034
G1 X55.417 Y68.302 E17.04201
G1 X54.889 Y67.991 E17.1229
G1 X54.415 Y67.666 E17.19876
G1 X53.997 Y67.343 E17.26849
G1 X53.589 Y66.987 E17.33997
G1 X53.149 Y66.559 E17.42099
G1 X52.785 Y66.155 E17.49277
G1 X52.429 Y65.714 E17.56758
G1 X51.809 Y64.836 E17.70946
G1 X50.867 Y63.459 E17.92969
G1 X49.243 Y61.225 E18.29426
G1 X48.141 Y59.792 E18.53288
G1 X47.959 Y59.547 E18.57317
G1 X47.547 Y58.857 E18.67925
G1 X47.296 Y58.312 E18.75845
G1 X47.106 Y57.78 E18.83302
G1 X47.02 Y57.403 E18.88406
G1 X46.925 Y56.867 E18.95592
G1 X46.864 Y56.169 E19.0484
G1 X46.896 Y55.592 E19.12469
G1 X46.93 Y55.265 E19.16808
G1 X47.031 Y54.708 E19.24281
G1 X47.141 Y54.347 E19.29262
G1 X47.331 Y53.816 E19.36706
G1 X47.558 Y53.299 E19.4416
G1 X48.012 Y52.594 E19.55228
G1 X48.152 Y52.4 E19.58386
G1 X48.518 Y51.969 E19.6585
G0 F3600 X48.823 Y52.229
G1 F1350 X49.056 Y52.015 E19.70026
G1 X49.459 Y51.675 E19.76986
G1 X49.792 Y51.426 E19.82474
G1 X50.252 Y51.166 E19.89449
G1 X50.713 Y50.95 E19.96169
G1 X50.812 Y50.907 E19.97594
G1 X51.318 Y50.731 E20.04666
G1 X51.62 Y50.664 E20.08749
G1 X52.158 Y50.569 E20.15961
G1 X52.912 Y50.516 E20.25938
G1 X53.106 Y50.527 E20.28503
G1 X53.961 Y50.597 E20.39827
G1 X56.728 Y50.786 E20.76436
G1 X59.163 Y50.873 E21.08599
G1 X59.296 Y50.888 E21.10365
G1 X60.469 Y50.926 E21.25857
G1 X60.791 Y50.951 E21.3012
G1 X61.507 Y51.04 E21.39644
G1 X62.349 Y51.225 E21.51024
G1 X62.937 Y51.403 E21.59133
G1 X63.412 Y51.582 E21.65834
G1 X63.914 Y51.802 E21.73068
G1 X64.398 Y52.053 E21.80265
G1 X64.886 Y52.34 E21.87738
G1 X65.35 Y52.658 E21.95163
G1 X65.74 Y52.959 E22.01666
G1 X66.141 Y53.309 E22.08692
G1 X66.548 Y53.702 E22.1616
G1 X66.924 Y54.119 E22.23572
G1 X67.24 Y54.512 E22.30229
G1 X67.861 Y55.39 E22.44424
G1 X68.812 Y56.78 E22.66655
G1 X70.432 Y59.008 E23.03017
G1 X71.54 Y60.448 E23.27001
G1 X71.741 Y60.718 E23.31444
G1 X72.094 Y61.317 E23.40622
G1 X72.332 Y61.835 E23.48147
G1 X72.512 Y62.34 E23.55223
G1 X72.586 Y62.667 E23.59649
G1 X72.681 Y63.204 E23.66847
G1 X72.736 Y63.831 E23.75156
G1 X72.708 Y64.347 E23.81977
G1 X72.673 Y64.686 E23.86475
G1 X72.576 Y65.214 E23.93562
G1 X72.483 Y65.518 E23.97758
G1 X72.293 Y66.049 E24.05202
G1 X72.075 Y66.539 E24.12282
G1 X71.662 Y67.175 E24.22292
G1 X71.528 Y67.36 E24.25307
G1 X71.18 Y67.768 E24.32385
G1 X70.944 Y67.985 E24.36617
G1 X70.541 Y68.325 E24.43577
G1 X70.208 Y68.574 E24.49066
G1 X69.748 Y68.834 E24.56041
G1 X69.287 Y69.05 E24.62761
G1 X69.188 Y69.093 E24.64185
G1 X68.682 Y69.269 E24.71257
G1 X68.386 Y69.335 E24.7526
G1 X67.887 Y69.424 E24.81951
G1 X67.456 Y69.475 E24.8768
G1 X66.894 Y69.473 E24.95098
G1 X66.039 Y69.403 E25.06422
G1 X63.272 Y69.214 E25.43032
G1 X60.837 Y69.127 E25.75194
G1 X60.704 Y69.112 E25.76961
G1 X59.531 Y69.074 E25.92453
G1 X59.209 Y69.049 E25.96716
G1 X58.493 Y68.96 E26.0624
G1 X57.651 Y68.775 E26.17619
G1 X57.063 Y68.597 E26.25729
G1 X56.588 Y68.418 E26.32429
G1 X56.083 Y68.197 E26.39705
G1 X55.601 Y67.947 E26.46873
G1 X55.114 Y67.66 E26.54334
G1 X54.65 Y67.342 E26.6176
G1 X54.26 Y67.042 E26.68254
G1 X53.852 Y66.686 E26.75402
G1 X53.446 Y66.291 E26.82879
G1 X53.089 Y65.895 E26.89917
G1 X52.756 Y65.483 E26.9691
G1 X52.139 Y64.61 E27.11021
G1 X51.188 Y63.22 E27.33252
G1 X49.568 Y60.992 E27.69614
G1 X48.462 Y59.554 E27.93561
G1 X48.28 Y59.309 E27.97589
G1 X47.909 Y58.688 E28.07138
G1 X47.662 Y58.151 E28.1494
G1 X47.484 Y57.646 E28.22008
G1 X47.414 Y57.333 E28.26242
G1 X47.319 Y56.797 E28.33427
G1 X47.264 Y56.169 E28.41749
G1 X47.295 Y55.626 E28.48928
G1 X47.328 Y55.308 E28.53148
G1 X47.425 Y54.78 E28.60234
G1 X47.517 Y54.482 E28.64351
G1 X47.707 Y53.951 E28.71796
G1 X47.925 Y53.461 E28.78875
G1 X48.34 Y52.823 E28.88921
G1 X48.475 Y52.637 E28.91955
G1 X48.823 Y52.229 E28.99034
G0 F3600 X49.314 Y52.321
G1 F1350 X49.717 Y51.981 E29.05993
G1 X50.014 Y51.758 E29.10896
G1 X50.781 Y51.358 E29.22314
G1 X50.971 Y51.274 E29.25057
G1 X51.69 Y51.058 E29.34966
G1 X52.228 Y50.963 E29.42178
G1 X52.898 Y50.916 E29.51044
G1 X53.073 Y50.926 E29.53357
G1 X53.933 Y50.996 E29.64747
G1 X56.715 Y51.186 E30.01555
G1 X59.149 Y51.273 E30.33704
G1 X59.274 Y51.287 E30.35364
G1 X60.456 Y51.326 E30.50975
G1 X60.743 Y51.348 E30.54775
G1 X61.369 Y51.425 E30.631
G1 X62.252 Y51.614 E30.7502
G1 X62.796 Y51.778 E30.8252
G1 X63.271 Y51.957 E30.8922
G1 X63.73 Y52.157 E30.95829
G1 X64.214 Y52.408 E31.03026
G1 X64.661 Y52.671 E31.09872
G1 X65.115 Y52.981 E31.17129
G1 X65.477 Y53.26 E31.23162
G1 X65.878 Y53.61 E31.30187
G1 X66.252 Y53.971 E31.37049
G1 X66.619 Y54.378 E31.44283
G1 X66.913 Y54.743 E31.5047
G1 X67.531 Y55.616 E31.64588
G1 X68.502 Y57.036 E31.87296
G1 X70.093 Y59.224 E32.23005
G1 X71.218 Y60.687 E32.47366
G1 X71.451 Y61 E32.52517
G1 X71.731 Y61.486 E32.59921
G1 X71.966 Y61.997 E32.67345
G1 X72.134 Y62.474 E32.74021
G1 X72.192 Y62.737 E32.77576
G1 X72.287 Y63.274 E32.84774
G1 X72.336 Y63.831 E32.92155
G1 X72.301 Y64.4 E32.9968
G1 X72.275 Y64.644 E33.02919
G1 X72.182 Y65.141 E33.09593
G1 X72.106 Y65.383 E33.12941
G1 X71.916 Y65.914 E33.20386
G1 X71.709 Y66.375 E33.27056
G1 X71.333 Y66.947 E33.36092
G1 X71.205 Y67.123 E33.38965
G1 X70.875 Y67.506 E33.45638
G1 X70.686 Y67.679 E33.4902
G1 X70.283 Y68.019 E33.5598
G1 X69.986 Y68.242 E33.60882
G1 X69.219 Y68.642 E33.72301
G1 X69.029 Y68.726 E33.75043
G1 X68.316 Y68.941 E33.84873
G1 X67.817 Y69.03 E33.91564
G1 X67.426 Y69.076 E33.96761
G1 X66.927 Y69.074 E34.03348
G1 X66.067 Y69.004 E34.14737
G1 X63.285 Y68.814 E34.51545
G1 X60.851 Y68.727 E34.83695
G1 X60.726 Y68.713 E34.85355
G1 X59.544 Y68.674 E35.00966
G1 X59.257 Y68.652 E35.04765
G1 X58.631 Y68.575 E35.13091
G1 X57.748 Y68.386 E35.2501
G1 X57.204 Y68.222 E35.3251
G1 X56.633 Y68.006 E35.40569
G1 X56.268 Y67.842 E35.45851
G1 X55.786 Y67.592 E35.53018
G1 X55.339 Y67.329 E35.59864
G1 X54.885 Y67.019 E35.67121
G1 X54.523 Y66.74 E35.73154
G1 X54.115 Y66.384 E35.80301
G1 X53.742 Y66.023 E35.87153
G1 X53.392 Y65.634 E35.9406
G1 X53.083 Y65.252 E36.00546
G1 X52.469 Y64.384 E36.1458
G1 X51.498 Y62.964 E36.37287
G1 X49.907 Y60.776 E36.72997
G1 X48.783 Y59.315 E36.97329
G1 X48.601 Y59.07 E37.01358
G1 X48.272 Y58.518 E37.09841
G1 X48.029 Y57.991 E37.17501
G1 X47.863 Y57.513 E37.2418
G1 X47.808 Y57.263 E37.27559
G1 X47.713 Y56.727 E37.34744
G1 X47.664 Y56.169 E37.42138
G1 X47.693 Y55.659 E37.48881
G1 X47.726 Y55.351 E37.5297
G1 X47.894 Y54.617 E37.62909
G1 X48.084 Y54.086 E37.70354
G1 X48.291 Y53.625 E37.77024
G1 X48.669 Y53.051 E37.86097
G1 X48.797 Y52.874 E37.8898
G1 X49.314 Y52.321 E37.98973
G10
;MESH:encoder_holder_1.stl
G0 F3600 X51.028 Y54.17
G0 X51.706 Y55.012
G0 X53.193 Y54.779
;TYPE:WALL-INNER
G11
G1 F1350 X53.17 Y54.779 E37.99291
G1 X52.81 Y54.767 E38.04284
G1 X52.608 Y54.759 E38.07086
G1 X52.469 Y54.816 E38.09168
G1 X52.131 Y54.955 E38.14233
G1 X52.067 Y54.982 E38.15196
G1 X51.884 Y55.182 E38.18953
G1 X51.67 Y55.415 E38.23338
G1 X51.659 Y55.45 E38.23847
G1 X51.548 Y55.797 E38.28896
G1 X51.491 Y55.975 E38.31487
G1 X51.51 Y56.131 E38.33665
G1 X51.557 Y56.497 E38.38779
G1 X51.565 Y56.557 E38.39618
G1 X51.718 Y56.802 E38.43622
G1 X51.876 Y57.053 E38.47732
G1 X51.914 Y57.078 E38.48363
G1 X52.243 Y57.295 E38.53825
G1 X52.365 Y57.375 E38.55847
G1 X52.946 Y57.461 E38.63988
G1 X53.117 Y57.411 E38.66457
G1 X53.509 Y57.295 E38.72123
G1 X53.613 Y57.203 E38.74047
G1 X53.949 Y56.907 E38.80254
G1 X54.172 Y56.402 E38.87905
G1 X54.192 Y56.18 E38.90995
G1 X54.205 Y56.046 E38.9286
G1 X54.106 Y55.624 E38.98868
G1 X54.079 Y55.507 E39.00532
G1 X53.716 Y55.047 E39.08654
G1 X53.524 Y54.949 E39.11642
G1 X53.193 Y54.779 E39.16799
G0 F3600 X55.71 Y55.977
G1 F1350 X56.01 Y56.012 E39.20985
G1 X56.364 Y56.055 E39.25928
G1 X56.441 Y56.045 E39.27004
G1 X57.011 Y55.969 E39.34974
G1 X57.211 Y55.888 E39.37965
G1 X57.563 Y55.746 E39.43226
G1 X57.77 Y55.646 E39.46412
G1 X58.119 Y55.477 E39.51786
G1 X58.39 Y55.384 E39.55757
G1 X58.669 Y55.287 E39.59851
G1 X59.039 Y55.206 E39.65101
G1 X59.239 Y55.161 E39.67942
G1 X59.71 Y55.116 E39.745
G1 X59.815 Y55.105 E39.75963
G1 X60.384 Y55.116 E39.83851
G1 X60.399 Y55.117 E39.8406
G1 X60.419 Y55.119 E39.84338
G1 X60.972 Y55.198 E39.92081
G1 X61.084 Y55.227 E39.93684
G1 X61.531 Y55.346 E40.00095
G1 X61.729 Y55.424 E40.03045
G1 X62.07 Y55.56 E40.08133
G1 X62.354 Y55.714 E40.12611
G1 X62.587 Y55.84 E40.16282
G1 X62.923 Y56.077 E40.21981
G1 X63.059 Y56.173 E40.24288
G1 X63.437 Y56.514 E40.31344
G1 X63.49 Y56.562 E40.32335
G1 X63.869 Y56.996 E40.40321
G1 X63.905 Y57.049 E40.41209
G1 X64.197 Y57.475 E40.48367
G1 X64.27 Y57.616 E40.50568
G1 X64.468 Y57.994 E40.56482
G1 X64.556 Y58.226 E40.59921
G1 X64.682 Y58.557 E40.6483
G1 X64.758 Y58.869 E40.69281
G1 X64.814 Y59.094 E40.72495
G1 X64.868 Y59.526 E40.78529
G1 X64.894 Y59.729 E40.81365
G1 X64.969 Y60.133 E40.8706
G1 X65.006 Y60.329 E40.89825
G1 X65.285 Y60.92 E40.98883
G1 X65.304 Y60.943 E40.99297
G1 X65.662 Y61.376 E41.07084
G1 X65.704 Y61.427 E41.07999
G1 X66.093 Y61.708 E41.1465
G1 X66.206 Y61.79 E41.16586
G1 X67.07 Y62.261 E41.30224
G1 X67.529 Y62.511 E41.37469
G1 X67.79 Y62.654 E41.41593
G1 X68.029 Y62.828 E41.45691
G1 X68.109 Y62.886 E41.4706
G1 X68.335 Y63.164 E41.52026
G1 X68.395 Y63.299 E41.54074
G1 X68.485 Y63.497 E41.57088
G1 X68.538 Y63.84 E41.61898
G1 X68.542 Y63.862 E41.62208
G1 X68.51 Y64.205 E41.66983
G1 X68.508 Y64.22 E41.67193
G1 X68.378 Y64.561 E41.72251
G1 X68.265 Y64.718 E41.74932
G1 X68.163 Y64.86 E41.77355
G1 X67.886 Y65.085 E41.82301
G1 X67.819 Y65.115 E41.83319
G1 X67.553 Y65.235 E41.87363
G1 X67.25 Y65.282 E41.91613
G1 X67.188 Y65.292 E41.92483
G1 X66.829 Y65.258 E41.97481
G1 X66.659 Y65.193 E42.00004
G1 X66.446 Y65.111 E42.03167
G1 X66.13 Y64.939 E42.08154
G1 X65.682 Y64.695 E42.15224
G1 X64.861 Y64.247 E42.28187
G1 X64.535 Y64.119 E42.33042
G1 X64.29 Y64.023 E42.36689
G1 X63.99 Y63.988 E42.40875
G1 X63.636 Y63.945 E42.45817
G1 X63.559 Y63.955 E42.46894
G1 X62.989 Y64.031 E42.54864
G1 X62.789 Y64.112 E42.57854
G1 X62.437 Y64.254 E42.63115
G1 X62.23 Y64.354 E42.66301
G1 X61.863 Y64.531 E42.71949
G1 X61.61 Y64.618 E42.75657
G1 X61.334 Y64.713 E42.79702
G1 X60.96 Y64.795 E42.85009
G1 X60.761 Y64.839 E42.87834
G1 X60.29 Y64.884 E42.94392
G1 X60.185 Y64.895 E42.95855
G1 X59.616 Y64.884 E43.03743
G1 X59.601 Y64.883 E43.03951
G1 X59.581 Y64.881 E43.0423
G1 X59.028 Y64.802 E43.11972
G1 X58.916 Y64.773 E43.13576
G1 X58.469 Y64.654 E43.19987
G1 X58.271 Y64.576 E43.22936
G1 X57.93 Y64.44 E43.28025
G1 X57.646 Y64.286 E43.32502
G1 X57.413 Y64.16 E43.36174
G1 X57.077 Y63.923 E43.41873
G1 X56.941 Y63.827 E43.4418
G1 X56.563 Y63.486 E43.51236
G1 X56.51 Y63.438 E43.52227
G1 X56.131 Y63.004 E43.60213
G1 X56.095 Y62.951 E43.61101
G1 X55.803 Y62.525 E43.68259
G1 X55.73 Y62.384 E43.7046
G1 X55.532 Y62.006 E43.76374
G1 X55.444 Y61.775 E43.798
G1 X55.325 Y61.462 E43.84441
G1 X55.243 Y61.131 E43.89168
