;FLAVOR:UltiGCode
;TIME:1809
;MATERIAL:621
;MATERIAL2:0
;NOZZLE_DIAMETER:0.4
;MINX:51.668
;MINY:51.67
;MINZ:0.3
;MAXX:68.333
;MAXY:68.334
;MAXZ:24.96
;Generated with Cura_SteamEngine 4.7.1
M82 ;absolute extrusion mode
G0 F3000 Y50 ;avoid prime blob
G92 E0
G92 E0
G10
;LAYER_COUNT:412
;LAYER:0
M107
G0 F3600 X53.875 Y54.347 Z0.3
;TYPE:SKIRT
G11
G1 F1350 X54.417 Y53.815 E0.10025
G1 X54.831 Y53.466 E0.17172
G1 X54.913 Y53.4 E0.18562
G1 X55.566 Y52.952 E0.29015
G1 X56.108 Y52.638 E0.37283
G1 X56.811 Y52.298 E0.47591
G1 X57.381 Y52.089 E0.55605
G1 X57.712 Y51.986 E0.60181
G1 X58.409 Y51.821 E0.69636
G1 X58.971 Y51.731 E0.77149
G1 X59.127 Y51.711 E0.79225
G1 X59.862 Y51.67 E0.88942
G1 X60.456 Y51.681 E0.96784
G1 X60.541 Y51.685 E0.97907
G1 X61.286 Y51.774 E1.07811
G1 X61.885 Y51.89 E1.15865
G1 X62.573 Y52.073 E1.25262
G1 X63.205 Y52.308 E1.34163
G1 X63.511 Y52.442 E1.38572
G1 X64.163 Y52.784 E1.48291
G1 X64.738 Y53.144 E1.57245
G1 X64.811 Y53.193 E1.58406
G1 X65.388 Y53.643 E1.68065
G1 X65.828 Y54.044 E1.75923
G1 X66.373 Y54.642 E1.86603
G1 X66.789 Y55.177 E1.95549
G1 X67.269 Y55.916 E2.07181
G1 X67.612 Y56.602 E2.17305
G1 X67.895 Y57.333 E2.27652
G1 X68.042 Y57.822 E2.34392
G1 X68.074 Y57.935 E2.35942
G1 X68.234 Y58.731 E2.46659
G1 X68.322 Y59.57 E2.57795
G1 X68.333 Y59.793 E2.60742
G1 X68.327 Y60.402 E2.68781
G1 X68.248 Y61.196 E2.79314
G1 X68.106 Y61.927 E2.89143
G1 X67.963 Y62.45 E2.963
G1 X67.92 Y62.594 E2.98284
G1 X67.643 Y63.318 E3.08517
G1 X67.401 Y63.826 E3.15944
G1 X67.336 Y63.954 E3.17839
G1 X66.953 Y64.592 E3.27662
G1 X66.637 Y65.037 E3.34866
G1 X66.544 Y65.161 E3.36912
G1 X66.054 Y65.725 E3.46774
G1 X65.668 Y66.107 E3.53943
G1 X65.55 Y66.218 E3.56081
G1 X64.957 Y66.698 E3.66152
G1 X64.525 Y66.997 E3.73087
G1 X64.417 Y67.068 E3.74793
G1 X63.74 Y67.444 E3.85015
G1 X63.281 Y67.656 E3.91689
G1 X63.081 Y67.744 E3.94573
G1 X62.37 Y67.984 E4.04478
G1 X61.85 Y68.119 E4.1157
G1 X61.234 Y68.24 E4.19857
G1 X60.943 Y68.279 E4.23732
G1 X60.435 Y68.322 E4.30462
G1 X60.094 Y68.334 E4.34966
G1 X59.35 Y68.307 E4.44793
G1 X58.743 Y68.238 E4.52857
G1 X58.617 Y68.22 E4.54537
G1 X57.888 Y68.062 E4.64383
G1 X57.371 Y67.907 E4.71508
G1 X57.276 Y67.876 E4.72827
G1 X56.563 Y67.584 E4.82997
G1 X55.953 Y67.279 E4.91999
G1 X55.184 Y66.807 E5.0391
G1 X54.574 Y66.328 E5.14148
G1 X54.028 Y65.812 E5.24064
G1 X53.663 Y65.41 E5.31231
G1 X53.552 Y65.281 E5.33478
G1 X53.114 Y64.691 E5.43177
G1 X52.814 Y64.218 E5.50571
G1 X52.75 Y64.11 E5.52228
G1 X52.416 Y63.44 E5.6211
G1 X52.189 Y62.889 E5.69976
G1 X51.959 Y62.195 E5.79627
G1 X51.812 Y61.551 E5.88346
G1 X51.752 Y61.199 E5.9306
G1 X51.679 Y60.45 E6.02993
G1 X51.668 Y59.865 E6.10717
G1 X51.669 Y59.744 E6.12314
G1 X51.726 Y59.021 E6.21887
G1 X51.816 Y58.432 E6.29752
G1 X51.831 Y58.349 E6.30866
G1 X52.025 Y57.599 E6.41092
G1 X52.204 Y57.073 E6.48426
G1 X52.418 Y56.542 E6.55983
G1 X52.529 Y56.305 E6.59437
G1 X52.802 Y55.797 E6.6705
G1 X52.999 Y55.475 E6.72033
G1 X53.437 Y54.864 E6.81956
G1 X53.766 Y54.471 E6.88721
G1 X53.875 Y54.347 E6.90901
G0 F3600 X54.176 Y54.611
G1 F1350 X54.676 Y54.12 E7.00151
G1 X55.081 Y53.778 E7.07148
G1 X55.163 Y53.712 E7.08538
G1 X55.767 Y53.298 E7.18203
G1 X56.309 Y52.984 E7.26472
G1 X56.958 Y52.67 E7.35988
G1 X57.5 Y52.471 E7.4361
G1 X57.831 Y52.368 E7.48186
G1 X58.474 Y52.215 E7.5691
G1 X59.022 Y52.128 E7.64234
G1 X59.178 Y52.108 E7.66311
G1 X59.856 Y52.069 E7.75275
G1 X60.438 Y52.08 E7.82959
G1 X60.523 Y52.084 E7.84082
G1 X61.21 Y52.167 E7.93216
G1 X61.809 Y52.283 E8.0127
G1 X62.444 Y52.452 E8.09944
G1 X63.044 Y52.674 E8.18389
G1 X63.35 Y52.808 E8.22798
G1 X63.952 Y53.124 E8.31773
G1 X64.515 Y53.477 E8.40544
G1 X64.588 Y53.526 E8.41705
G1 X65.121 Y53.94 E8.50613
G1 X65.554 Y54.336 E8.58359
G1 X66.057 Y54.888 E8.68217
G1 X66.473 Y55.423 E8.77162
G1 X66.917 Y56.105 E8.87904
G1 X67.251 Y56.774 E8.97775
G1 X67.512 Y57.449 E9.07327
G1 X67.657 Y57.931 E9.13972
G1 X67.689 Y58.044 E9.15522
G1 X67.837 Y58.779 E9.25419
G1 X67.922 Y59.59 E9.36182
G1 X67.933 Y59.813 E9.3913
G1 X67.928 Y60.375 E9.46548
G1 X67.851 Y61.148 E9.56802
G1 X67.72 Y61.823 E9.65879
G1 X67.579 Y62.335 E9.72889
G1 X67.536 Y62.479 E9.74872
G1 X67.281 Y63.148 E9.84323
G1 X67.045 Y63.645 E9.91585
G1 X66.98 Y63.773 E9.9348
G1 X66.626 Y64.362 E10.02551
G1 X66.317 Y64.797 E10.09594
G1 X66.224 Y64.921 E10.1164
G1 X65.772 Y65.441 E10.20735
G1 X65.394 Y65.815 E10.27754
G1 X65.276 Y65.926 E10.29893
G1 X64.729 Y66.37 E10.39192
G1 X64.305 Y66.663 E10.45995
G1 X64.197 Y66.734 E10.47702
G1 X63.573 Y67.081 E10.57126
G1 X63.114 Y67.293 E10.638
G1 X62.926 Y67.375 E10.66507
G1 X62.269 Y67.597 E10.75662
G1 X61.749 Y67.732 E10.82753
G1 X61.181 Y67.843 E10.90393
G1 X60.421 Y67.922 E11.00479
G1 X60.08 Y67.934 E11.04983
G1 X59.393 Y67.909 E11.14057
G1 X58.799 Y67.842 E11.21947
G1 X58.673 Y67.824 E11.23628
G1 X58 Y67.678 E11.32718
G1 X57.495 Y67.527 E11.39675
G1 X57.4 Y67.496 E11.40994
G1 X56.742 Y67.226 E11.50383
G1 X56.132 Y66.921 E11.59385
G1 X55.422 Y66.486 E11.70376
G1 X54.827 Y66.018 E11.80369
G1 X54.323 Y65.542 E11.8952
G1 X53.967 Y65.149 E11.96519
G1 X53.856 Y65.02 E11.98766
G1 X53.451 Y64.476 E12.07718
G1 X53.159 Y64.014 E12.14932
G1 X53.095 Y63.906 E12.16589
G1 X52.786 Y63.287 E12.25722
G1 X52.559 Y62.736 E12.33588
G1 X52.346 Y62.096 E12.42492
G1 X52.206 Y61.484 E12.50779
G1 X52.146 Y61.132 E12.55492
G1 X52.079 Y60.44 E12.64669
G1 X52.068 Y59.868 E12.72221
G1 X52.069 Y59.747 E12.73818
G1 X52.121 Y59.08 E12.82649
G1 X52.21 Y58.503 E12.90356
G1 X52.225 Y58.42 E12.91469
G1 X52.404 Y57.728 E13.00904
G1 X52.583 Y57.202 E13.08238
G1 X52.78 Y56.712 E13.1521
G1 X52.891 Y56.475 E13.18664
G1 X53.144 Y56.006 E13.25698
G1 X53.341 Y55.684 E13.30681
G1 X53.744 Y55.12 E13.39831
G1 X54.067 Y54.735 E13.46465
G1 X54.176 Y54.611 E13.48644
G0 F3600 X54.476 Y54.875
G1 F1350 X54.934 Y54.425 E13.57119
G1 X55.332 Y54.089 E13.63995
G1 X55.414 Y54.023 E13.65384
G1 X55.967 Y53.644 E13.74234
G1 X56.509 Y53.33 E13.82502
G1 X57.104 Y53.042 E13.91228
G1 X57.619 Y52.853 E13.98469
G1 X57.95 Y52.75 E14.03045
G1 X58.539 Y52.61 E14.11036
G1 X59.072 Y52.525 E14.18161
G1 X59.228 Y52.505 E14.20237
G1 X59.85 Y52.469 E14.28461
G1 X60.419 Y52.48 E14.35973
G1 X60.504 Y52.484 E14.37096
G1 X61.134 Y52.559 E14.45471
G1 X61.733 Y52.675 E14.53525
G1 X62.315 Y52.83 E14.61475
G1 X62.884 Y53.041 E14.69486
G1 X63.19 Y53.175 E14.73895
G1 X63.742 Y53.464 E14.8212
G1 X64.292 Y53.809 E14.9069
G1 X64.365 Y53.858 E14.9185
G1 X64.854 Y54.238 E15.00025
G1 X65.281 Y54.627 E15.0765
G1 X65.741 Y55.133 E15.16676
G1 X66.157 Y55.668 E15.25622
G1 X66.564 Y56.294 E15.35478
G1 X66.89 Y56.946 E15.451
G1 X67.13 Y57.565 E15.53864
G1 X67.305 Y58.153 E15.61962
G1 X67.44 Y58.827 E15.71035
G1 X67.523 Y59.609 E15.81416
G1 X67.534 Y59.832 E15.84363
G1 X67.529 Y60.348 E15.91174
G1 X67.454 Y61.099 E16.01137
G1 X67.333 Y61.719 E16.09475
G1 X67.196 Y62.221 E16.16344
G1 X67.153 Y62.365 E16.18328
G1 X66.919 Y62.977 E16.26977
G1 X66.688 Y63.464 E16.34091
G1 X66.623 Y63.592 E16.35986
G1 X66.299 Y64.132 E16.44299
G1 X65.997 Y64.557 E16.51181
G1 X65.904 Y64.681 E16.53227
G1 X65.49 Y65.158 E16.61564
G1 X65.12 Y65.524 E16.68434
G1 X65.002 Y65.635 E16.70573
G1 X64.5 Y66.042 E16.79103
G1 X64.085 Y66.329 E16.85764
G1 X63.977 Y66.4 E16.8747
G1 X63.405 Y66.718 E16.96108
G1 X62.946 Y66.93 E17.02782
G1 X62.77 Y67.006 E17.05313
G1 X62.169 Y67.21 E17.13691
G1 X61.649 Y67.345 E17.20782
G1 X61.127 Y67.447 E17.27803
G1 X60.407 Y67.522 E17.37358
G1 X60.066 Y67.534 E17.41862
G1 X59.436 Y67.511 E17.50184
G1 X58.856 Y67.446 E17.57888
G1 X58.73 Y67.428 E17.59568
G1 X58.113 Y67.294 E17.67902
G1 X57.619 Y67.147 E17.74705
G1 X57.524 Y67.116 E17.76024
G1 X56.921 Y66.868 E17.84631
G1 X56.311 Y66.563 E17.93633
G1 X55.661 Y66.164 E18.03701
G1 X55.08 Y65.708 E18.1345
G1 X54.618 Y65.272 E18.21835
G1 X54.27 Y64.888 E18.28676
G1 X54.159 Y64.759 E18.30922
G1 X53.788 Y64.26 E18.3913
G1 X53.503 Y63.81 E18.46161
G1 X53.439 Y63.702 E18.47818
G1 X53.156 Y63.135 E18.56183
G1 X52.929 Y62.584 E18.6405
G1 X52.734 Y61.997 E18.72214
G1 X52.601 Y61.416 E18.80082
G1 X52.541 Y61.064 E18.84795
G1 X52.479 Y60.43 E18.93204
G1 X52.468 Y59.872 E19.00571
G1 X52.469 Y59.751 E19.02168
G1 X52.517 Y59.139 E19.10272
G1 X52.603 Y58.574 E19.17815
G1 X52.618 Y58.491 E19.18929
G1 X52.783 Y57.856 E19.27589
G1 X52.962 Y57.33 E19.34923
G1 X53.253 Y56.645 E19.44747
G1 X53.682 Y55.893 E19.56176
G1 X54.052 Y55.376 E19.64568
G1 X54.476 Y54.875 E19.73231
G0 F3600 X54.777 Y55.139
G1 F1350 X55.193 Y54.73 E19.80932
G1 X55.583 Y54.401 E19.87667
G1 X55.665 Y54.335 E19.89056
G1 X56.168 Y53.99 E19.97108
G1 X56.71 Y53.676 E20.05376
G1 X57.251 Y53.415 E20.13305
G1 X57.738 Y53.235 E20.20158
G1 X58.069 Y53.132 E20.24734
G1 X58.605 Y53.005 E20.32005
G1 X59.123 Y52.921 E20.38932
G1 X59.279 Y52.901 E20.41008
G1 X59.845 Y52.869 E20.48491
G1 X60.4 Y52.879 E20.55818
G1 X60.485 Y52.883 E20.56942
G1 X61.057 Y52.952 E20.64547
G1 X61.656 Y53.068 E20.72601
G1 X62.186 Y53.209 E20.7984
G1 X62.724 Y53.407 E20.87407
G1 X63.03 Y53.541 E20.91817
G1 X63.531 Y53.804 E20.99286
G1 X64.069 Y54.141 E21.07666
G1 X64.142 Y54.19 E21.08826
G1 X64.586 Y54.536 E21.16256
G1 X65.007 Y54.919 E21.23769
G1 X65.426 Y55.379 E21.31982
G1 X65.842 Y55.914 E21.40928
G1 X66.211 Y56.482 E21.49869
G1 X66.529 Y57.118 E21.59255
G1 X66.747 Y57.681 E21.67224
G1 X66.92 Y58.262 E21.75226
G1 X67.042 Y58.874 E21.83464
G1 X67.123 Y59.629 E21.93487
G1 X67.13 Y60.321 E22.02622
G1 X67.057 Y61.051 E22.12306
G1 X66.947 Y61.614 E22.19878
G1 X66.813 Y62.107 E22.26622
G1 X66.77 Y62.251 E22.28605
G1 X66.557 Y62.807 E22.36465
G1 X66.331 Y63.283 E22.4342
G1 X66.266 Y63.411 E22.45315
G1 X65.972 Y63.901 E22.52858
G1 X65.677 Y64.317 E22.5959
G1 X65.584 Y64.441 E22.61636
G1 X65.207 Y64.875 E22.69224
G1 X64.846 Y65.233 E22.75935
G1 X64.728 Y65.344 E22.78074
G1 X64.272 Y65.713 E22.85817
G1 X63.757 Y66.065 E22.94051
G1 X63.237 Y66.354 E23.01904
G1 X62.778 Y66.566 E23.08578
G1 X62.615 Y66.638 E23.1093
G1 X62.068 Y66.823 E23.18552
G1 X61.548 Y66.958 E23.25643
G1 X60.783 Y67.09 E23.35891
G1 X60.052 Y67.135 E23.45558
G1 X59.479 Y67.114 E23.53127
G1 X58.912 Y67.05 E23.60659
G1 X58.786 Y67.032 E23.62339
G1 X58.226 Y66.91 E23.69904
G1 X57.743 Y66.767 E23.76553
G1 X57.648 Y66.736 E23.77872
G1 X57.1 Y66.511 E23.85692
G1 X56.49 Y66.206 E23.94694
G1 X55.899 Y65.843 E24.0385
G1 X55.333 Y65.398 E24.13353
G1 X54.913 Y65.002 E24.20973
G1 X54.573 Y64.627 E24.27655
G1 X54.462 Y64.498 E24.29901
G1 X54.125 Y64.045 E24.37354
G1 X53.847 Y63.606 E24.44213
G1 X53.783 Y63.498 E24.4587
G1 X53.526 Y62.983 E24.53468
G1 X53.299 Y62.432 E24.61334
G1 X53.121 Y61.898 E24.68764
G1 X52.995 Y61.349 E24.76199
G1 X52.935 Y60.997 E24.80913
G1 X52.879 Y60.421 E24.88552
G1 X52.868 Y59.875 E24.9576
G1 X52.869 Y59.754 E24.97357
G1 X52.913 Y59.198 E25.0472
G1 X52.997 Y58.646 E25.1209
G1 X53.012 Y58.563 E25.13203
G1 X53.161 Y57.985 E25.21082
G1 X53.34 Y57.459 E25.28417
G1 X53.616 Y56.814 E25.37677
G1 X54.023 Y56.101 E25.48514
G1 X54.359 Y55.631 E25.56141
G1 X54.777 Y55.139 E25.64662
G0 F3600 X55.077 Y55.403
G1 F1350 X55.452 Y55.035 E25.71598
G1 X55.916 Y54.647 E25.79582
G1 X56.368 Y54.336 E25.86824
G1 X56.91 Y54.022 E25.95092
G1 X57.397 Y53.787 E26.0223
G1 X58.187 Y53.514 E26.13263
G1 X59.045 Y53.337 E26.24827
G1 X59.33 Y53.298 E26.28624
G1 X59.839 Y53.269 E26.35354
G1 X60.381 Y53.279 E26.4251
G1 X60.466 Y53.283 E26.43633
G1 X60.981 Y53.345 E26.5048
G1 X61.58 Y53.461 E26.58534
G1 X62.28 Y53.663 E26.68151
G1 X62.869 Y53.907 E26.76566
G1 X63.32 Y54.144 E26.83291
G1 X63.846 Y54.473 E26.91481
G1 X63.919 Y54.522 E26.92641
G1 X64.319 Y54.833 E26.99329
G1 X64.733 Y55.21 E27.06721
G1 X65.11 Y55.624 E27.14112
G1 X65.526 Y56.159 E27.23057
G1 X65.858 Y56.671 E27.31112
G1 X66.168 Y57.29 E27.4025
G1 X66.364 Y57.797 E27.47425
G1 X66.535 Y58.371 E27.55331
G1 X66.645 Y58.922 E27.62748
G1 X66.724 Y59.649 E27.72401
G1 X66.731 Y60.293 E27.80902
G1 X66.66 Y61.003 E27.90321
G1 X66.561 Y61.51 E27.9714
G1 X66.386 Y62.136 E28.0572
G1 X66.195 Y62.637 E28.12797
G1 X65.975 Y63.102 E28.19588
G1 X65.91 Y63.23 E28.21483
G1 X65.644 Y63.671 E28.28281
G1 X65.264 Y64.201 E28.36889
G1 X64.925 Y64.591 E28.4371
G1 X64.454 Y65.052 E28.5241
G1 X64.043 Y65.385 E28.59392
G1 X63.538 Y65.731 E28.67473
G1 X63.07 Y65.991 E28.7454
G1 X62.611 Y66.203 E28.81213
G1 X62.46 Y66.269 E28.83389
G1 X61.968 Y66.435 E28.90243
G1 X61.448 Y66.57 E28.97334
G1 X60.73 Y66.693 E29.0695
G1 X60.038 Y66.735 E29.16101
G1 X59.523 Y66.716 E29.22904
G1 X58.969 Y66.654 E29.30262
G1 X58.843 Y66.636 E29.31942
G1 X58.338 Y66.526 E29.38765
G1 X57.772 Y66.355 E29.46569
G1 X57.279 Y66.153 E29.53602
G1 X56.669 Y65.848 E29.62604
G1 X56.137 Y65.521 E29.70847
G1 X55.586 Y65.089 E29.8009
G1 X55.208 Y64.731 E29.86962
G1 X54.765 Y64.237 E29.9572
G1 X54.461 Y63.829 E30.02437
G1 X54.191 Y63.402 E30.09105
G1 X54.127 Y63.294 E30.10762
G1 X53.895 Y62.83 E30.1761
G1 X53.668 Y62.279 E30.25476
G1 X53.509 Y61.799 E30.32151
G1 X53.389 Y61.282 E30.39157
G1 X53.329 Y60.93 E30.4387
G1 X53.279 Y60.411 E30.50753
G1 X53.268 Y59.878 E30.5779
G1 X53.269 Y59.757 E30.59387
G1 X53.308 Y59.257 E30.66007
G1 X53.39 Y58.717 E30.73217
G1 X53.405 Y58.634 E30.7433
G1 X53.54 Y58.114 E30.81422
G1 X53.719 Y57.588 E30.88756
G1 X53.978 Y56.984 E30.97431
G1 X54.364 Y56.31 E31.07683
G1 X54.667 Y55.887 E31.14552
G1 X55.077 Y55.403 E31.22925
G0 F3600 X55.212 Y55.858
G1 F1350 X55.711 Y55.34 E31.32419
G1 X56.167 Y54.958 E31.40271
G1 X56.569 Y54.682 E31.46708
G1 X57.111 Y54.368 E31.54976
G1 X57.755 Y54.076 E31.6431
G1 X58.306 Y53.896 E31.71961
G1 X59.11 Y53.732 E31.82793
G1 X59.833 Y53.669 E31.92372
G1 X60.362 Y53.679 E31.99356
G1 X60.905 Y53.737 E32.06565
G1 X61.504 Y53.853 E32.14618
G1 X62.151 Y54.042 E32.23516
G1 X62.709 Y54.274 E32.31493
G1 X63.525 Y54.741 E32.43903
G1 X64.052 Y55.131 E32.52557
G1 X64.459 Y55.502 E32.59827
G1 X64.794 Y55.87 E32.66395
G1 X65.21 Y56.405 E32.75341
G1 X65.506 Y56.86 E32.82506
G1 X65.807 Y57.462 E32.91391
G1 X66.102 Y58.312 E33.03267
G1 X66.248 Y58.97 E33.12164
G1 X66.324 Y59.668 E33.21432
G1 X66.332 Y60.266 E33.29326
G1 X66.263 Y60.955 E33.38467
G1 X66.069 Y61.797 E33.49872
G1 X65.833 Y62.467 E33.59249
G1 X65.618 Y62.921 E33.6588
G1 X65.317 Y63.441 E33.73811
G1 X64.944 Y63.961 E33.82258
G1 X64.364 Y64.586 E33.93513
G1 X63.815 Y65.057 E34.03061
G1 X63.318 Y65.397 E34.1101
G1 X62.902 Y65.628 E34.17291
G1 X62.443 Y65.84 E34.23965
G1 X61.867 Y66.048 E34.32048
G1 X61.347 Y66.183 E34.3914
G1 X60.677 Y66.297 E34.48111
G1 X60.024 Y66.335 E34.56745
G1 X59.133 Y66.271 E34.68537
G1 X58.451 Y66.143 E34.77696
G1 X57.896 Y65.975 E34.85351
G1 X57.458 Y65.795 E34.91601
G1 X56.848 Y65.49 E35.00604
G1 X56.375 Y65.2 E35.07928
G1 X55.839 Y64.779 E35.16924
G1 X55.244 Y64.178 E35.28088
G1 X54.798 Y63.613 E35.37589
G1 X54.471 Y63.09 E35.45731
G1 X54.265 Y62.678 E35.51811
G1 X54.038 Y62.127 E35.59678
G1 X53.838 Y61.469 E35.68756
G1 X53.723 Y60.863 E35.76898
G1 X53.669 Y59.985 E35.88509
G1 X53.704 Y59.316 E35.97352
G1 X53.784 Y58.788 E36.04401
G1 X53.919 Y58.243 E36.11813
G1 X54.098 Y57.717 E36.19147
G1 X54.34 Y57.154 E36.27236
G1 X54.705 Y56.519 E36.36904
G1 X55.212 Y55.858 E36.479
G10
;MESH:needle_conn_1.stl
G0 F3600 X58.378 Y56.554
G0 X58.999 Y57.677
G0 X59.92 Y57.507
G0 X60.607 Y57.62
;TYPE:WALL-INNER
G11
G1 F1350 X60.283 Y57.586 E36.52415
G1 X59.921 Y57.546 E36.57463
G1 X59.87 Y57.555 E36.58181
G1 X59.431 Y57.632 E36.64359
G1 X59.245 Y57.665 E36.66977
G1 X59.039 Y57.761 E36.70127
G1 X58.687 Y57.926 E36.75515
G1 X58.629 Y57.975 E36.76567
G1 X58.287 Y58.265 E36.82782
G1 X58.164 Y58.37 E36.85024
G1 X58.024 Y58.582 E36.88545
G1 X57.782 Y58.948 E36.94626
G1 X57.641 Y59.401 E37.01202
G1 X57.579 Y59.599 E37.04077
G1 X57.571 Y59.802 E37.06893
G1 X57.554 Y60.216 E37.12636
G1 X57.656 Y60.655 E37.18883
G1 X57.709 Y60.884 E37.22141
G1 X57.822 Y61.086 E37.25349
G1 X58.039 Y61.472 E37.31486
G1 X58.047 Y61.486 E37.31709
G1 X58.334 Y61.77 E37.37306
G1 X58.534 Y61.968 E37.41206
G1 X58.651 Y62.034 E37.43068
G1 X59.071 Y62.271 E37.49752
G1 X59.486 Y62.377 E37.55689
G1 X59.735 Y62.441 E37.59252
G1 X59.893 Y62.436 E37.61443
G1 X60.34 Y62.421 E37.67642
G1 X60.415 Y62.418 E37.68682
