;FLAVOR:UltiGCode
;TIME:598
;MATERIAL:324
;MATERIAL2:0
;NOZZLE_DIAMETER:0.4
;MINX:50.1
;MINY:46.16
;MINZ:0.3
;MAXX:69.9
;MAXY:73.843
;MAXZ:3.48
;Generated with Cura_SteamEngine 4.7.1
M82 ;absolute extrusion mode
G0 F3000 Y50 ;avoid prime blob
G92 E0
G92 E0
G10
;LAYER_COUNT:54
;LAYER:0
M107
G0 F3600 X51.521 Y48.923 Z0.3
;TYPE:SKIRT
G11
G1 F1350 X51.983 Y48.55 E0.07838
G1 X52.49 Y48.243 E0.15662
G1 X53.262 Y47.933 E0.26643
G1 X53.403 Y47.891 E0.28585
G1 X56.071 Y47.071 E0.65428
G1 X56.794 Y46.831 E0.75484
G1 X57.989 Y46.442 E0.92073
G1 X58.618 Y46.288 E1.00621
G1 X59.307 Y46.191 E1.09805
G1 X59.971 Y46.16 E1.1858
G1 X60.797 Y46.205 E1.29499
G1 X61.543 Y46.323 E1.39469
G1 X62.33 Y46.54 E1.50245
G1 X62.444 Y46.575 E1.51819
G1 X63.496 Y46.914 E1.66408
G1 X63.903 Y47.052 E1.72081
G1 X65.431 Y47.524 E1.93191
G1 X65.532 Y47.563 E1.9462
G1 X66.781 Y47.946 E2.11865
G1 X67.335 Y48.157 E2.1969
G1 X67.855 Y48.442 E2.27517
G1 X68.332 Y48.793 E2.35335
G1 X68.758 Y49.206 E2.43167
G1 X69.125 Y49.672 E2.50996
G1 X69.425 Y50.183 E2.58818
G1 X69.654 Y50.73 E2.66646
G1 X69.807 Y51.303 E2.74474
G1 X69.888 Y52.023 E2.84038
G1 X69.9 Y52.494 E2.90258
G1 X69.9 Y54.3 E3.14097
G1 X69.89 Y54.997 E3.23298
G1 X69.874 Y55.308 E3.27409
G1 X69.627 Y58.198 E3.65696
G1 X69.475 Y60.904 E4.01471
G1 X69.399 Y63.591 E4.36954
G1 X69.399 Y66.284 E4.72502
G1 X69.403 Y66.423 E4.74337
G1 X69.422 Y67.688 E4.91037
G1 X69.409 Y68.09 E4.96346
G1 X69.365 Y68.664 E5.03945
G1 X69.28 Y69.251 E5.11774
G1 X69.088 Y69.899 E5.20696
G1 X68.829 Y70.515 E5.29516
G1 X68.554 Y71.04 E5.37339
G1 X68.241 Y71.485 E5.44521
G1 X67.833 Y71.969 E5.52877
G1 X67.414 Y72.389 E5.60708
G1 X66.994 Y72.715 E5.67726
G1 X66.413 Y73.083 E5.76804
G1 X65.886 Y73.356 E5.84639
G1 X65.312 Y73.562 E5.92688
G1 X64.77 Y73.706 E6.00091
G1 X64.186 Y73.811 E6.07923
G1 X63.616 Y73.837 E6.15455
G1 X60.673 Y73.781 E6.5431
G1 X57.952 Y73.806 E6.90229
G1 X56.815 Y73.843 E7.05245
G1 X56.163 Y73.83 E7.13853
G1 X55.537 Y73.762 E7.22165
G1 X54.955 Y73.649 E7.29991
G1 X54.36 Y73.447 E7.38285
G1 X53.863 Y73.23 E7.45444
G1 X53.341 Y72.948 E7.53275
G1 X52.906 Y72.639 E7.60318
G1 X52.379 Y72.186 E7.69492
G1 X51.967 Y71.76 E7.77314
G1 X51.598 Y71.258 E7.85538
G1 X51.312 Y70.79 E7.92778
G1 X51.043 Y70.262 E8.006
G1 X50.833 Y69.647 E8.09178
G1 X50.698 Y69.103 E8.16577
G1 X50.601 Y68.518 E8.24404
G1 X50.578 Y67.925 E8.32238
G1 X50.587 Y67.381 E8.3942
G1 X50.615 Y64.661 E8.75326
G1 X50.566 Y61.976 E9.10773
G1 X50.442 Y59.293 E9.46227
G1 X50.236 Y56.549 E9.8255
G1 X50.2 Y56.184 E9.87391
G1 X50.126 Y55.308 E9.98995
G1 X50.103 Y54.738 E10.06525
G1 X50.101 Y54.617 E10.08123
G1 X50.1 Y52.756 E10.32688
G1 X50.11 Y52.086 E10.41533
G1 X50.159 Y51.495 E10.49361
G1 X50.287 Y50.916 E10.57188
G1 X50.492 Y50.36 E10.65011
G1 X50.769 Y49.836 E10.72834
G1 X51.114 Y49.354 E10.80659
G1 X51.521 Y48.923 E10.88484
G0 F3600 X51.911 Y49.111
G1 F1350 X52.366 Y48.775 E10.9595
G1 X52.863 Y48.507 E11.03403
G1 X53.376 Y48.316 E11.10629
G1 X53.521 Y48.273 E11.12625
G1 X56.216 Y47.445 E11.4984
G1 X56.918 Y47.211 E11.59608
G1 X58.113 Y46.822 E11.76197
G1 X58.684 Y46.682 E11.83957
G1 X59.356 Y46.588 E11.92914
G1 X59.96 Y46.56 E12.00895
G1 X60.769 Y46.604 E12.1159
G1 X61.447 Y46.711 E12.2065
G1 X62.218 Y46.924 E12.31209
G1 X62.321 Y46.955 E12.32628
G1 X63.368 Y47.293 E12.47151
G1 X63.773 Y47.43 E12.52795
G1 X65.313 Y47.906 E12.74072
G1 X65.41 Y47.943 E12.75442
G1 X66.663 Y48.328 E12.92745
G1 X67.191 Y48.532 E13.00216
G1 X67.684 Y48.808 E13.07674
G1 X68.134 Y49.15 E13.15135
G1 X68.531 Y49.553 E13.22603
G1 X68.867 Y50.008 E13.30069
G1 X69.135 Y50.505 E13.37522
G1 X69.331 Y51.035 E13.44981
G1 X69.45 Y51.588 E13.52448
G1 X69.498 Y52.377 E13.62882
G1 X69.5 Y52.494 E13.64427
G1 X69.5 Y54.294 E13.88187
G1 X69.49 Y54.991 E13.97388
G1 X69.476 Y55.274 E14.01128
G1 X69.228 Y58.175 E14.39561
G1 X69.075 Y60.906 E14.75667
G1 X68.999 Y63.58 E15.10978
G1 X68.999 Y66.297 E15.46842
G1 X69.003 Y66.429 E15.48585
G1 X69.022 Y67.694 E15.65285
G1 X69.01 Y68.06 E15.70119
G1 X68.966 Y68.634 E15.77718
G1 X68.883 Y69.193 E15.85178
G1 X68.714 Y69.757 E15.9295
G1 X68.463 Y70.354 E16.01498
G1 X68.199 Y70.853 E16.0895
G1 X67.854 Y71.33 E16.16721
G1 X67.531 Y71.706 E16.23264
G1 X67.131 Y72.106 E16.30731
G1 X66.664 Y72.456 E16.38434
G1 X66.205 Y72.741 E16.45566
G1 X65.702 Y73 E16.53034
G1 X65.193 Y73.18 E16.60161
G1 X64.672 Y73.318 E16.67275
G1 X64.116 Y73.416 E16.74727
G1 X63.623 Y73.437 E16.81241
G1 X60.677 Y73.381 E17.20135
G1 X57.934 Y73.407 E17.56344
G1 X56.81 Y73.443 E17.71189
G1 X56.197 Y73.432 E17.79282
G1 X55.587 Y73.365 E17.87382
G1 X55.032 Y73.256 E17.94848
G1 X54.504 Y73.074 E18.0222
G1 X54.029 Y72.865 E18.0907
G1 X53.532 Y72.595 E18.16536
G1 X52.877 Y72.096 E18.27405
G1 X52.648 Y71.889 E18.3148
G1 X52.256 Y71.482 E18.38939
G1 X51.93 Y71.035 E18.46242
G1 X51.656 Y70.585 E18.53196
G1 X51.401 Y70.081 E18.60652
G1 X51.22 Y69.546 E18.68107
G1 X51.088 Y69.011 E18.75381
G1 X50.997 Y68.453 E18.82844
G1 X50.978 Y67.918 E18.89911
G1 X50.987 Y67.391 E18.96868
G1 X51.015 Y64.658 E19.32945
G1 X50.966 Y61.985 E19.68235
G1 X50.839 Y59.245 E20.04442
G1 X50.638 Y56.552 E20.40088
G1 X50.598 Y56.151 E20.45408
G1 X50.524 Y55.275 E20.57012
G1 X50.503 Y54.726 E20.64264
G1 X50.501 Y54.617 E20.65703
G1 X50.5 Y52.762 E20.90189
G1 X50.51 Y52.092 E20.99034
G1 X50.559 Y51.529 E21.06494
G1 X50.686 Y50.978 E21.13958
G1 X50.89 Y50.451 E21.21417
G1 X51.166 Y49.957 E21.28887
G1 X51.509 Y49.508 E21.36345
G1 X51.911 Y49.111 E21.43803
G0 F3600 X51.902 Y49.671
G1 F1350 X52.299 Y49.311 E21.50877
G1 X52.746 Y49.014 E21.57961
G1 X53.232 Y48.787 E21.65042
G1 X53.643 Y48.654 E21.70744
G1 X56.292 Y47.84 E22.07324
G1 X57.042 Y47.592 E22.17751
G1 X58.237 Y47.203 E22.3434
G1 X58.751 Y47.076 E22.41329
G1 X59.405 Y46.985 E22.50045
G1 X59.948 Y46.959 E22.57221
G1 X60.74 Y47.003 E22.67691
G1 X61.35 Y47.1 E22.75844
G1 X62.106 Y47.307 E22.86191
G1 X63.239 Y47.671 E23.01899
G1 X63.663 Y47.815 E23.0781
G1 X65.195 Y48.288 E23.28975
G1 X65.282 Y48.322 E23.30208
G1 X66.546 Y48.71 E23.47661
G1 X67.046 Y48.905 E23.54745
G1 X67.511 Y49.173 E23.61829
G1 X67.931 Y49.506 E23.68904
G1 X68.297 Y49.898 E23.75984
G1 X68.601 Y50.34 E23.83065
G1 X68.835 Y50.822 E23.90137
G1 X68.996 Y51.334 E23.97222
G1 X69.088 Y52.047 E24.06712
G1 X69.1 Y52.494 E24.12614
G1 X69.1 Y54.289 E24.36308
G1 X69.09 Y54.986 E24.4551
G1 X69.077 Y55.24 E24.48867
G1 X68.828 Y58.155 E24.87485
G1 X68.677 Y60.836 E25.2293
G1 X68.599 Y63.605 E25.59495
G1 X68.599 Y66.31 E25.95201
G1 X68.603 Y66.435 E25.96852
G1 X68.622 Y67.7 E26.13552
G1 X68.611 Y68.029 E26.17897
G1 X68.567 Y68.603 E26.25496
G1 X68.487 Y69.133 E26.32572
G1 X68.341 Y69.614 E26.39207
G1 X68.097 Y70.192 E26.47488
G1 X67.844 Y70.666 E26.54581
G1 X67.541 Y71.08 E26.61353
G1 X67.229 Y71.444 E26.67681
G1 X66.848 Y71.821 E26.74756
G1 X66.439 Y72.125 E26.81483
G1 X65.997 Y72.399 E26.88348
G1 X65.519 Y72.643 E26.95432
G1 X64.874 Y72.855 E27.04394
G1 X64.575 Y72.93 E27.08463
G1 X64.046 Y73.021 E27.15548
G1 X63.631 Y73.037 E27.2103
G1 X60.681 Y72.981 E27.59977
G1 X57.918 Y73.007 E27.9645
G1 X56.804 Y73.043 E28.11163
G1 X56.23 Y73.033 E28.18741
G1 X55.636 Y72.968 E28.26628
G1 X55.111 Y72.862 E28.33698
G1 X54.451 Y72.618 E28.42987
G1 X54.194 Y72.501 E28.46714
G1 X53.515 Y72.097 E28.57143
G1 X52.916 Y71.593 E28.67477
G1 X52.546 Y71.204 E28.74563
G1 X52.159 Y70.648 E28.83505
G1 X51.999 Y70.38 E28.87625
G1 X51.759 Y69.901 E28.94697
G1 X51.555 Y69.246 E29.03753
G1 X51.477 Y68.919 E29.08191
G1 X51.381 Y68.153 E29.18381
G1 X51.387 Y67.401 E29.28308
G1 X51.415 Y64.655 E29.64557
G1 X51.366 Y61.96 E30.00137
G1 X51.24 Y59.233 E30.36171
G1 X51.037 Y56.519 E30.72096
G1 X50.997 Y56.117 E30.77429
G1 X50.923 Y55.241 E30.89033
G1 X50.902 Y54.715 E30.95982
G1 X50.9 Y52.768 E31.21682
G1 X50.91 Y52.098 E31.30527
G1 X50.958 Y51.564 E31.37605
G1 X51.085 Y51.043 E31.44683
G1 X51.288 Y50.547 E31.51757
G1 X51.562 Y50.086 E31.58836
G1 X51.902 Y49.671 E31.65918
G0 F3600 X52.294 Y49.844
G1 F1350 X52.685 Y49.524 E31.72587
G1 X53.122 Y49.269 E31.79266
G1 X53.603 Y49.083 E31.86073
G1 X53.789 Y49.028 E31.88634
G1 X56.437 Y48.214 E32.25202
G1 X57.165 Y47.972 E32.35328
G1 X58.36 Y47.583 E32.51917
G1 X58.96 Y47.447 E32.60038
G1 X59.937 Y47.359 E32.72986
G1 X60.712 Y47.402 E32.83232
G1 X61.254 Y47.488 E32.90476
G1 X61.993 Y47.691 E33.00592
G1 X63.11 Y48.05 E33.16079
G1 X63.521 Y48.19 E33.21811
G1 X65.077 Y48.67 E33.43305
G1 X65.167 Y48.706 E33.44584
G1 X66.429 Y49.093 E33.62009
G1 X66.899 Y49.279 E33.68681
G1 X67.334 Y49.537 E33.75357
G1 X67.723 Y49.86 E33.82031
G1 X68.056 Y50.24 E33.887
G1 X68.325 Y50.668 E33.95373
G1 X68.523 Y51.133 E34.02044
G1 X68.646 Y51.623 E34.08713
G1 X68.699 Y52.4 E34.18993
G1 X68.7 Y54.283 E34.43849
G1 X68.69 Y54.98 E34.5305
G1 X68.678 Y55.206 E34.56038
G1 X68.431 Y58.097 E34.94338
G1 X68.277 Y60.838 E35.30576
G1 X68.199 Y63.594 E35.6697
G1 X68.199 Y66.323 E36.02993
G1 X68.203 Y66.441 E36.04551
G1 X68.222 Y67.706 E36.21251
G1 X68.213 Y67.999 E36.2512
G1 X68.169 Y68.573 E36.32719
G1 X68.09 Y69.072 E36.39388
G1 X67.928 Y69.573 E36.46339
G1 X67.73 Y70.031 E36.52925
G1 X67.491 Y70.476 E36.59593
G1 X67.141 Y70.935 E36.67212
G1 X66.927 Y71.181 E36.71516
G1 X66.566 Y71.535 E36.7819
G1 X66.07 Y71.887 E36.86218
G1 X65.79 Y72.057 E36.90542
G1 X65.338 Y72.285 E36.97225
G1 X64.777 Y72.467 E37.0501
G1 X64.478 Y72.542 E37.09079
G1 X63.979 Y72.626 E37.15758
G1 X63.639 Y72.637 E37.20249
G1 X60.685 Y72.581 E37.59248
G1 X57.901 Y72.607 E37.95999
G1 X56.799 Y72.643 E38.10553
G1 X56.264 Y72.635 E38.17616
G1 X55.686 Y72.571 E38.25292
G1 X55.191 Y72.469 E38.31963
G1 X54.617 Y72.254 E38.40054
G1 X54.36 Y72.137 E38.43782
G1 X53.756 Y71.778 E38.53056
G1 X53.184 Y71.296 E38.6293
G1 X52.837 Y70.928 E38.69606
G1 X52.502 Y70.443 E38.77387
G1 X52.342 Y70.175 E38.81507
G1 X52.118 Y69.722 E38.88178
G1 X51.942 Y69.145 E38.96141
G1 X51.866 Y68.828 E39.00444
G1 X51.781 Y68.147 E39.09503
G1 X51.786 Y67.445 E39.18769
G1 X51.815 Y64.652 E39.55639
G1 X51.767 Y61.982 E39.90889
G1 X51.637 Y59.185 E40.27849
G1 X51.435 Y56.484 E40.63602
G1 X51.395 Y56.083 E40.68921
G1 X51.321 Y55.207 E40.80526
G1 X51.302 Y54.704 E40.8717
G1 X51.3 Y52.774 E41.12646
G1 X51.31 Y52.104 E41.21491
G1 X51.358 Y51.601 E41.28161
G1 X51.484 Y51.111 E41.34839
G1 X51.686 Y50.648 E41.41507
G1 X51.958 Y50.222 E41.48179
G1 X52.294 Y49.844 E41.54855
G10
;MESH:ext_conn_1.stl
G0 F3600 X54.088 Y51.733
G0 X54.914 Y52.558
G0 X56.337 Y54.345
;TYPE:WALL-INNER
G11
G1 F1350 X56.127 Y54.345 E41.57765
G1 X56.126 Y54.345 E41.57779
G1 X55.1 Y54.344 E41.71999
G1 X55.1 Y52.744 E41.94175
G1 X57.29 Y52.744 E42.24529
G1 X57.513 Y52.744 E42.2762
G1 X57.526 Y52.743 E42.278
G1 X57.514 Y52.768 E42.27936
G1 X57.476 Y52.987 E42.29908
G1 X57.398 Y53.435 E42.36211
G1 X57.458 Y54.123 E42.45783
G1 X57.703 Y54.774 E42.55423
G1 X58.113 Y55.339 E42.65099
G1 X58.647 Y55.77 E42.7461
G1 X59.277 Y56.047 E42.84148
G1 X59.957 Y56.148 E42.93677
G1 X60.639 Y56.07 E43.03191
G1 X61.278 Y55.815 E43.12727
G1 X61.827 Y55.402 E43.22248
G1 X62.25 Y54.857 E43.3181
G1 X62.509 Y54.24 E43.41085
G1 X62.605 Y53.559 E43.50617
G1 X62.537 Y53.025 E43.58078
G1 X62.518 Y52.876 E43.6016
G1 X62.463 Y52.743 E43.62154
G1 X62.518 Y52.743
G1 X62.669 Y52.743 E43.63725
G1 X64.9 Y52.744 E43.94646
G1 X64.9 Y54.344 E44.16822
G1 X63.874 Y54.345 E44.31043
G1 X63.873 Y54.345 E44.31056
G1 X63.663 Y54.345 E44.33967
G1 X63.674 Y54.555 E44.35827
G1 X63.818 Y57.071 E44.70756
G1 X63.838 Y57.433 E44.75781
G1 X63.521 Y57.257 E44.78606
G1 X63.415 Y57.198 E44.80287
G1 X62.831 Y57.145 E44.88415
G1 X62.274 Y57.336 E44.96576
G1 X61.845 Y57.734 E45.04687
G1 X61.613 Y58.274 E45.12833
G1 X61.622 Y58.864 E45.21011
G1 X61.871 Y59.397 E45.29165
G1 X62.313 Y59.782 E45.37289
G1 X62.875 Y59.956 E45.45443
G1 X63.458 Y59.882 E45.53588
G1 X63.678 Y59.751 E45.57137
G1 X63.96 Y59.583 E45.61687
G1 X63.978 Y59.911 E45.64293
G1 X64.353 Y66.48 E46.55487
G1 X64.373 Y66.841 E46.60498
G1 X64.057 Y66.666 E46.63314
G1 X63.951 Y66.607 E46.64995
G1 X63.367 Y66.554 E46.73123
G1 X62.808 Y66.745 E46.8131
G1 X62.379 Y67.146 E46.89449
G1 X62.149 Y67.685 E46.97571
G1 X62.15 Y67.821 E46.99456
G1 X62.153 Y67.963 E47.01425
G1 X62.025 Y67.883 E47.02036
G1 X61.933 Y67.825 E47.02709
G1 X61.308 Y67.627 E47.11796
G1 X60.96 Y67.608 E47.16626
G1 X60.687 Y67.594 E47.20415
G1 X60.61 Y67.601 E47.21487
G1 X60.179 Y67.64 E47.27485
G1 X59.799 Y67.633 E47.32752
G1 X59.648 Y67.629 E47.34846
G1 X59.013 Y67.591 E47.43663
G1 X59.003 Y67.59 E47.43802
G1 X58.961 Y67.597 E47.44392
G1 X58.361 Y67.71 E47.52854
G1 X58.098 Y67.834 E47.56884
G1 X57.876 Y67.937 E47.60276
G1 X57.877 Y67.933 E47.60334
G1 X57.823 Y67.694 E47.62422
G1 X57.746 Y67.363 E47.67133
G1 X57.393 Y66.892 E47.75291
G1 X56.88 Y66.607 E47.83424
G1 X56.296 Y66.554 E47.91552
G1 X55.944 Y66.675 E47.96711
G1 X55.739 Y66.745 E47.99713
G1 X55.626 Y66.85 E48.01851
G1 X55.632 Y66.739 E48.01913
G1 X55.644 Y66.523 E48.03999
G1 X56.024 Y59.838 E48.96802
G1 X56.028 Y59.766 E48.97802
G1 X56.041 Y59.545 E49.0087
G1 X56.313 Y59.782 E49.03519
G1 X56.382 Y59.803 E49.04406
G1 X56.875 Y59.956 E49.1156
G1 X57.458 Y59.882 E49.19705
G1 X57.961 Y59.583 E49.27816
G1 X58.3 Y59.101 E49.35983
G1 X58.412 Y58.525 E49.44116
G1 X58.281 Y57.953 E49.52249
G1 X57.928 Y57.483 E49.60396
G1 X57.415 Y57.198 E49.6853
G1 X56.831 Y57.145 E49.76657
G1 X56.479 Y57.266 E49.81816
G1 X56.274 Y57.336 E49.84819
G1 X56.161 Y57.441 E49.86957
G1 X56.167 Y57.33 E49.87018
G1 X56.179 Y57.114 E49.89104
G1 X56.325 Y54.555 E50.2463
G1 X56.337 Y54.345 E50.26486
G0 F3600 X58.131 Y58.023
G0 X57.76 Y61.139
G0 X56.875 Y62.299
G0 X56.559 Y63.744
G0 X56.875 Y65.188
G0 X57.674 Y66.262
G0 X59.035 Y67.216
G1 F1350 X59.063 Y67.22 E50.26861
G1 X59.697 Y67.324 E50.34461
G1 X59.805 Y67.342 E50.35525
G1 X60.161 Y67.323 E50.39241
G1 X60.582 Y67.3 E50.43744
G1 X60.603 Y67.294 E50.43881
G1 X60.866 Y67.222 E50.47244
G1 X61.333 Y67.092 E50.53963
G1 X62.023 Y66.727 E50.64782
G1 X62.616 Y66.221 E50.75586
G1 X63.088 Y65.602 E50.86375
G1 X63.415 Y64.894 E50.97184
G1 X63.576 Y64.158 E51.07626
G1 X63.597 Y63.915 E51.11007
G1 X63.555 Y63.16 E51.21487
G1 X63.348 Y62.41 E51.32271
G1 X62.982 Y61.721 E51.43084
G1 X62.478 Y61.128 E51.53871
G1 X61.859 Y60.656 E51.6466
G1 X61.151 Y60.329 E51.75469
G1 X60.39 Y60.161 E51.8627
G1 X59.618 Y60.161 E51.9697
G1 X59.014 Y60.279 E52.055
G1 X58.312 Y60.56 E52.1598
G1 X57.668 Y60.997 E52.26767
G1 X57.132 Y61.562 E52.37561
G1 X56.729 Y62.23 E52.48374
G1 X56.481 Y62.97 E52.59191
G1 X56.397 Y63.744 E52.69981
G1 X56.481 Y64.518 E52.80772
G1 X56.729 Y65.257 E52.91576
G1 X57.132 Y65.925 E53.02389
G1 X57.668 Y66.49 E53.13183
G1 X58.312 Y66.927 E53.2397
G1 X58.996 Y67.201 E53.34182
G1 X59.035 Y67.216 E53.34761
G0 F3600 X57.425 Y68.365
G0 X56.803 Y68.943
G0 X55.929 Y68.922
G0 X55.977 Y68.835
;TYPE:WALL-OUTER
G1 F1350 X56.221 Y68.91 E53.38299
G1 X56.376 Y68.958 E53.40548
G1 X56.483 Y68.945 E53.42042
G1 X56.79 Y68.906 E53.46332
G1 X57.097 Y68.724 E53.51278
G1 X57.148 Y68.693 E53.52105
G1 X57.297 Y68.481 E53.55697
G1 X57.389 Y68.35 E53.57915
G1 X57.399 Y68.297 E53.58663
G1 X57.468 Y67.94 E53.63703
G1 X57.375 Y67.535 E53.69462
G1 X57.124 Y67.2 E53.75264
G1 X56.76 Y66.998 E53.81034
G1 X56.345 Y66.96 E53.8681
G1 X55.949 Y67.096 E53.92613
G1 X55.643 Y67.381 E53.98408
G1 X55.585 Y67.516 E54.00445
G1 X55.479 Y67.764 E54.04183
G1 X55.48 Y67.878 E54.05763
G1 X55.483 Y68.06 E54.08286
G1 X55.486 Y68.181 E54.09964
G1 X55.554 Y68.33 E54.12234
G1 X55.661 Y68.56 E54.1575
G1 X55.671 Y68.569 E54.15936
G1 X55.968 Y68.827 E54.21389
G1 X55.977 Y68.835 E54.21556
G0 F3600 X56.168 Y68.893
G0 X56.138 Y68.989
G0 X55.448 Y68.189
G0 X55.466 Y67.334
G0 X56.811 Y62.304
G0 X57.094 Y62.399
G1 F1350 X56.874 Y63.056 E54.31159
G1 X56.799 Y63.744 E54.40751
G1 X56.874 Y64.432 E54.50343
G1 X57.094 Y65.088 E54.59933
G1 X57.452 Y65.681 E54.69533
G1 X57.928 Y66.183 E54.79122
G1 X58.501 Y66.572 E54.88721
G1 X59.143 Y66.828 E54.983
G1 X59.827 Y66.94 E55.07907
G1 X60.517 Y66.903 E55.17484
G1 X61.184 Y66.718 E55.27077
G1 X61.797 Y66.394 E55.36687
G1 X62.324 Y65.945 E55.46283
G1 X62.743 Y65.394 E55.55877
G1 X63.034 Y64.766 E55.6547
G1 X63.18 Y64.098 E55.74947
