;FLAVOR:UltiGCode
;TIME:2187
;MATERIAL:801
;MATERIAL2:0
;NOZZLE_DIAMETER:0.4
;MINX:48.85
;MINY:43.618
;MINZ:0.3
;MAXX:71.15
;MAXY:75.55
;MAXZ:18.78
;Generated with Cura_SteamEngine 4.7.1
M82 ;absolute extrusion mode
G0 F3000 Y50 ;avoid prime blob
G92 E0
G92 E0
G10
;LAYER_COUNT:309
;LAYER:0
M107
G0 F3600 X52.991 Y45.352 Z0.3
;TYPE:SKIRT
G11
G1 F1350 X53.448 Y44.947 E0.0806
G1 X53.775 Y44.699 E0.13478
G1 X54.248 Y44.39 E0.20936
G1 X54.764 Y44.149 E0.28453
G1 X55.261 Y43.967 E0.35439
G1 X55.808 Y43.824 E0.42903
G1 X56.627 Y43.736 E0.53776
G1 X56.759 Y43.728 E0.55521
G1 X58.025 Y43.671 E0.72249
G1 X60.165 Y43.618 E1.00506
G1 X60.418 Y43.62 E1.03846
G1 X61.729 Y43.671 E1.21164
G1 X61.849 Y43.664 E1.22751
G1 X62.81 Y43.709 E1.3545
G1 X63.36 Y43.725 E1.42713
G1 X64.172 Y43.832 E1.53524
G1 X64.604 Y43.935 E1.59386
G1 X65.143 Y44.105 E1.66846
G1 X65.695 Y44.373 E1.74946
G1 X66.02 Y44.563 E1.79915
G1 X66.486 Y44.882 E1.8737
G1 X66.908 Y45.268 E1.94919
G1 X67.201 Y45.578 E2.0055
G1 X67.559 Y46.016 E2.08017
G1 X67.872 Y46.537 E2.1604
G1 X68.072 Y46.947 E2.22061
G1 X68.277 Y47.473 E2.29513
G1 X68.464 Y48.326 E2.4104
G1 X68.488 Y48.463 E2.42876
G1 X68.6 Y49.205 E2.52781
G1 X68.9 Y51.341 E2.81253
G1 X68.971 Y52.055 E2.90725
G1 X68.978 Y52.16 E2.92114
G1 X69.011 Y52.767 E3.00138
G1 X69.199 Y55.529 E3.36681
G1 X69.461 Y58.254 E3.72816
G1 X69.796 Y60.932 E4.08442
G1 X70.207 Y63.593 E4.43983
G1 X70.7 Y66.292 E4.802
G1 X71.04 Y67.921 E5.02166
G1 X71.08 Y68.138 E5.05078
G1 X71.137 Y68.755 E5.13257
G1 X71.15 Y69.57 E5.24017
G1 X71.15 Y70.869 E5.41164
G1 X71.14 Y71.596 E5.50761
G1 X71.092 Y72.159 E5.58219
G1 X70.965 Y72.71 E5.65683
G1 X70.762 Y73.238 E5.7315
G1 X70.487 Y73.732 E5.80613
G1 X70.145 Y74.182 E5.88074
G1 X69.742 Y74.579 E5.95541
G1 X69.288 Y74.915 E6.02997
G1 X68.791 Y75.184 E6.10457
G1 X68.261 Y75.381 E6.1792
G1 X67.708 Y75.5 E6.25387
G1 X66.932 Y75.548 E6.3565
G1 X66.82 Y75.55 E6.37128
G1 X53.505 Y75.55 E8.12886
G1 X52.807 Y75.541 E8.22101
G1 X52.244 Y75.493 E8.29559
G1 X51.693 Y75.367 E8.3702
G1 X51.165 Y75.165 E8.44483
G1 X50.671 Y74.89 E8.51946
G1 X50.221 Y74.548 E8.59406
G1 X49.823 Y74.146 E8.66874
G1 X49.487 Y73.692 E8.74329
G1 X49.217 Y73.195 E8.81795
G1 X49.02 Y72.665 E8.89259
G1 X48.9 Y72.113 E8.96715
G1 X48.851 Y71.316 E9.07256
G1 X48.85 Y69.445 E9.31953
G1 X48.861 Y68.739 E9.41273
G1 X48.939 Y68.013 E9.50911
G1 X49.511 Y65.166 E9.89243
G1 X49.972 Y62.472 E10.25321
G1 X50.353 Y59.791 E10.61065
G1 X50.654 Y57.133 E10.96375
G1 X50.891 Y54.344 E11.33323
G1 X50.986 Y52.806 E11.53663
G1 X51.02 Y52.173 E11.62031
G1 X51.09 Y51.421 E11.72
G1 X51.103 Y51.314 E11.73423
G1 X51.305 Y49.871 E11.92656
G1 X51.42 Y49.111 E12.02802
G1 X51.528 Y48.313 E12.13432
G1 X51.714 Y47.536 E12.23978
G1 X51.849 Y47.148 E12.29401
G1 X52.072 Y46.628 E12.36869
G1 X52.389 Y46.113 E12.44852
G1 X52.627 Y45.785 E12.50201
G1 X52.991 Y45.352 E12.57668
G0 F3600 X53.298 Y45.61
G1 F1350 X53.69 Y45.266 E12.64552
G1 X54.017 Y45.018 E12.6997
G1 X54.467 Y44.726 E12.77051
G1 X55.153 Y44.429 E12.86918
G1 X55.39 Y44.346 E12.90233
G1 X55.909 Y44.212 E12.97308
G1 X56.659 Y44.135 E13.0726
G1 X56.777 Y44.128 E13.08821
G1 X58.035 Y44.071 E13.25443
G1 X60.175 Y44.018 E13.537
G1 X60.403 Y44.02 E13.5671
G1 X61.624 Y44.067 E13.72839
G1 X61.83 Y44.064 E13.75558
G1 X62.783 Y44.109 E13.88152
G1 X63.348 Y44.125 E13.95613
G1 X64.079 Y44.221 E14.05345
G1 X64.511 Y44.324 E14.11207
G1 X65.022 Y44.487 E14.18287
G1 X65.493 Y44.718 E14.25212
G1 X65.818 Y44.908 E14.30181
G1 X66.259 Y45.213 E14.37259
G1 X66.91 Y45.853 E14.49309
G1 X67.249 Y46.269 E14.56393
G1 X67.514 Y46.716 E14.63252
G1 X67.71 Y47.118 E14.69156
G1 X67.903 Y47.618 E14.76231
G1 X68.071 Y48.4 E14.86788
G1 X68.092 Y48.523 E14.88436
G1 X68.204 Y49.26 E14.98276
G1 X68.503 Y51.393 E15.26707
G1 X68.572 Y52.088 E15.35926
G1 X68.579 Y52.182 E15.3717
G1 X68.612 Y52.795 E15.45273
G1 X68.802 Y55.591 E15.82265
G1 X69.06 Y58.27 E16.17792
G1 X69.399 Y60.976 E16.5379
G1 X69.817 Y63.689 E16.90024
G1 X70.307 Y66.367 E17.25961
G1 X70.648 Y68.003 E17.4802
G1 X70.685 Y68.206 E17.50744
G1 X70.738 Y68.761 E17.58103
G1 X70.75 Y69.512 E17.68018
G1 X70.75 Y70.864 E17.85864
G1 X70.74 Y71.591 E17.95461
G1 X70.692 Y72.125 E18.02539
G1 X70.566 Y72.646 E18.09614
G1 X70.364 Y73.143 E18.16696
G1 X70.09 Y73.604 E18.23775
G1 X69.751 Y74.019 E18.30848
G1 X69.354 Y74.38 E18.37931
G1 X68.908 Y74.677 E18.45004
G1 X68.422 Y74.905 E18.5209
G1 X67.908 Y75.058 E18.59169
G1 X67.241 Y75.14 E18.6804
G1 X66.82 Y75.15 E18.73599
G1 X53.511 Y75.15 E20.49277
G1 X52.813 Y75.141 E20.58492
G1 X52.278 Y75.094 E20.65581
G1 X51.757 Y74.968 E20.72656
G1 X51.26 Y74.766 E20.79738
G1 X50.799 Y74.493 E20.8681
G1 X50.383 Y74.154 E20.93894
G1 X50.022 Y73.758 E21.00967
G1 X49.724 Y73.312 E21.08047
G1 X49.496 Y72.826 E21.15133
G1 X49.343 Y72.312 E21.22212
G1 X49.26 Y71.638 E21.31176
G1 X49.25 Y71.208 E21.36854
G1 X49.25 Y69.451 E21.60046
G1 X49.261 Y68.745 E21.69367
G1 X49.331 Y68.092 E21.78036
G1 X49.91 Y65.207 E22.16877
G1 X50.363 Y62.56 E22.52325
G1 X50.747 Y59.861 E22.88311
G1 X51.056 Y57.141 E23.24446
G1 X51.286 Y54.421 E23.60478
G1 X51.385 Y52.831 E23.81507
G1 X51.419 Y52.195 E23.89914
G1 X51.487 Y51.465 E23.99592
G1 X51.7 Y49.931 E24.20035
G1 X51.822 Y49.124 E24.30808
G1 X51.925 Y48.367 E24.40893
G1 X52.092 Y47.667 E24.50392
G1 X52.227 Y47.279 E24.55815
G1 X52.44 Y46.787 E24.62892
G1 X52.713 Y46.348 E24.69716
G1 X52.951 Y46.02 E24.75065
G1 X53.298 Y45.61 E24.82155
G0 F3600 X53.603 Y45.87
G1 F1350 X54.258 Y45.336 E24.9331
G1 X54.684 Y45.064 E24.99982
G1 X55.296 Y44.803 E25.08764
G1 X55.518 Y44.725 E25.1187
G1 X56.008 Y44.601 E25.18542
G1 X56.69 Y44.534 E25.27588
G1 X56.795 Y44.527 E25.28977
G1 X57.978 Y44.473 E25.44609
G1 X60.185 Y44.418 E25.7375
G1 X60.388 Y44.419 E25.7643
G1 X61.699 Y44.47 E25.93748
G1 X61.812 Y44.464 E25.95242
G1 X62.716 Y44.506 E26.07188
G1 X63.337 Y44.524 E26.15388
G1 X63.986 Y44.61 E26.2403
G1 X64.418 Y44.713 E26.29892
G1 X64.899 Y44.869 E26.36567
G1 X65.616 Y45.253 E26.47303
G1 X66.031 Y45.542 E26.53979
G1 X66.62 Y46.128 E26.64946
G1 X66.937 Y46.522 E26.71621
G1 X67.256 Y47.095 E26.80278
G1 X67.349 Y47.289 E26.83118
G1 X67.529 Y47.762 E26.89798
G1 X67.678 Y48.474 E26.994
G1 X67.697 Y48.583 E27.0086
G1 X67.808 Y49.316 E27.10646
G1 X68.107 Y51.444 E27.39012
G1 X68.174 Y52.12 E27.47979
G1 X68.213 Y52.822 E27.57259
G1 X68.403 Y55.62 E27.94278
G1 X68.664 Y58.325 E28.3015
G1 X69 Y61.015 E28.65934
G1 X69.422 Y63.751 E29.02476
G1 X69.914 Y66.443 E29.38599
G1 X70.257 Y68.085 E29.60741
G1 X70.338 Y68.768 E29.6982
G1 X70.35 Y69.519 E29.79735
G1 X70.35 Y70.858 E29.97409
G1 X70.34 Y71.585 E30.07007
G1 X70.293 Y72.088 E30.13675
G1 X70.167 Y72.578 E30.20354
G1 X69.966 Y73.042 E30.27028
G1 X69.694 Y73.468 E30.337
G1 X69.359 Y73.847 E30.40377
G1 X68.968 Y74.167 E30.47046
G1 X68.532 Y74.422 E30.53714
G1 X68.061 Y74.606 E30.60388
G1 X67.566 Y74.712 E30.67071
G1 X66.91 Y74.749 E30.75744
G1 X53.516 Y74.75 E32.52544
G1 X52.818 Y74.741 E32.61759
G1 X52.314 Y74.694 E32.6844
G1 X51.824 Y74.569 E32.75116
G1 X51.36 Y74.368 E32.8179
G1 X50.934 Y74.097 E32.88455
G1 X50.555 Y73.762 E32.95132
G1 X50.234 Y73.371 E33.0181
G1 X49.979 Y72.935 E33.08477
G1 X49.795 Y72.464 E33.15152
G1 X49.688 Y71.97 E33.21824
G1 X49.651 Y71.294 E33.3076
G1 X49.65 Y69.457 E33.55009
G1 X49.661 Y68.751 E33.64329
G1 X49.724 Y68.171 E33.7203
G1 X50.296 Y65.322 E34.10387
G1 X50.76 Y62.612 E34.4668
G1 X51.142 Y59.925 E34.82505
G1 X51.453 Y57.184 E35.18918
G1 X51.686 Y54.435 E35.55335
G1 X51.784 Y52.856 E35.76218
G1 X51.824 Y52.132 E35.85789
G1 X51.885 Y51.51 E35.94039
G1 X52.096 Y49.991 E36.14282
G1 X52.218 Y49.184 E36.25056
G1 X52.321 Y48.42 E36.35232
G1 X52.47 Y47.798 E36.43675
G1 X52.605 Y47.41 E36.49097
G1 X52.808 Y46.948 E36.55759
G1 X53.275 Y46.255 E36.66789
G1 X53.603 Y45.87 E36.73466
G10
;MESH:pin_conn_2.stl
G0 F3600 X55.328 Y47.735
G0 X56.025 Y48.271
G0 X55.932 Y49.31
G0 X56.207 Y50.249
;TYPE:WALL-INNER
G11
G1 F1350 X56.604 Y50.375 E36.79238
G1 X56.727 Y50.413 E36.81023
G1 X56.98 Y50.385 E36.84551
G1 X56.897 Y50.518 E36.84777
G1 X56.829 Y50.627 E36.86203
G1 X56.635 Y50.94 E36.91307
G1 X56.375 Y51.629 E37.01514
G1 X56.255 Y52.355 E37.11713
G1 X56.28 Y53.089 E37.21892
G1 X56.446 Y53.807 E37.32106
G1 X56.75 Y54.477 E37.42303
G1 X57.179 Y55.074 E37.52493
G1 X57.715 Y55.577 E37.6268
G1 X58.34 Y55.965 E37.72876
G1 X59.029 Y56.225 E37.83083
G1 X59.755 Y56.345 E37.93282
G1 X60.489 Y56.32 E38.03461
G1 X61.207 Y56.154 E38.13675
G1 X61.877 Y55.85 E38.23873
G1 X62.474 Y55.421 E38.34062
G1 X62.977 Y54.885 E38.4425
G1 X63.365 Y54.26 E38.54446
G1 X63.625 Y53.571 E38.64653
G1 X63.745 Y52.845 E38.74851
G1 X63.72 Y52.111 E38.85031
G1 X63.554 Y51.393 E38.95245
G1 X63.269 Y50.764 E39.04816
G1 X63.25 Y50.723 E39.05442
G1 X63.026 Y50.412 E39.10754
G1 X63.213 Y50.392 E39.11325
G1 X63.258 Y50.387 E39.1191
G1 X63.558 Y50.353 E39.16095
G1 X63.738 Y50.248 E39.18983
G1 X63.823 Y50.198 E39.2035
G1 X63.84 Y50.306 E39.20844
G1 X63.867 Y50.468 E39.22178
G1 X64.127 Y51.079 E39.31381
G1 X64.261 Y51.51 E39.37637
G1 X64.35 Y51.953 E39.439
G1 X64.396 Y52.425 E39.50472
G1 X64.569 Y56.8 E40.11157
G1 X64.569 Y56.806 E40.11241
G1 X64.59 Y57.314 E40.18287
G1 X64.612 Y57.856 E40.25806
G1 X64.628 Y58.264 E40.31465
G1 X64.938 Y66.01 E41.3891
G1 X64.946 Y66.222 E41.41851
G1 X64.967 Y66.73 E41.48898
G1 X64.978 Y67 E41.52643
G1 X65.022 Y67.257 E41.56257
G1 X65.08 Y67.597 E41.61037
G1 X65.087 Y67.614 E41.61292
G1 X65.34 Y68.184 E41.69936
G1 X65.736 Y68.69 E41.78841
G1 X66.243 Y69.083 E41.87732
G1 X66.55 Y69.218 E41.9238
G1 X66.55 Y70.95 E42.16386
G1 X53.45 Y70.95 E43.97952
G1 X53.45 Y69.224 E44.21874
G1 X53.598 Y69.171 E44.24053
G1 X54.131 Y68.814 E44.32944
G1 X54.56 Y68.338 E44.41826
G1 X54.856 Y67.779 E44.50593
G1 X54.861 Y67.77 E44.50735
G1 X54.969 Y67.326 E44.57069
G1 X55.006 Y67.174 E44.59237
G1 X55.024 Y66.963 E44.62172
G1 X55.034 Y66.687 E44.66
G1 X55.055 Y66.175 E44.73102
G1 X55.061 Y66.016 E44.75308
G1 X55.371 Y58.248 E45.83058
G1 X55.383 Y57.937 E45.87371
G1 X55.41 Y57.273 E45.96582
G1 X55.428 Y56.807 E46.03046
G1 X55.605 Y52.406 E46.64093
G1 X55.649 Y51.951 E46.70428
G1 X55.735 Y51.516 E46.76574
G1 X55.862 Y51.103 E46.82563
G1 X56.074 Y50.607 E46.90039
G1 X56.178 Y50.241 E46.95313
G1 X56.183 Y50.227 E46.95519
G1 X56.207 Y50.249
G0 F3600 X57.25 Y50.179
G0 X58.16 Y49.523
G0 X59.401 Y49.072
G0 X61.859 Y48.843
G1 F1350 X61.86 Y49.089 E46.98928
G1 X61.86 Y49.234 E47.00938
G1 X61.861 Y49.36 E47.02685
G1 X61.66 Y49.235 E47.04287
G1 X61.525 Y49.184 E47.05875
G1 X60.971 Y48.975 E47.14082
G1 X60.245 Y48.855 E47.24281
G1 X59.511 Y48.88 E47.3446
G1 X58.793 Y49.046 E47.44674
G1 X58.361 Y49.242 E47.51249
G1 X58.256 Y49.289 E47.52843
G1 X58.123 Y49.35 E47.54871
G1 X58.115 Y49.356 E47.5501
G1 X58.168 Y49.097 E47.56806
G1 X58.144 Y48.984 E47.58113
G1 X58.056 Y48.582 E47.63817
G1 X58.052 Y48.565 E47.64059
G1 X58.037 Y48.545 E47.64405
G1 X58.05 Y48.545
G1 X58.286 Y48.531 E47.66547
G1 X58.892 Y48.343 E47.75341
G1 X59.329 Y48.253 E47.81525
G1 X59.77 Y48.208 E47.87669
G1 X60.221 Y48.206 E47.9392
G1 X60.658 Y48.25 E48.00007
G1 X61.089 Y48.338 E48.06104
G1 X61.577 Y48.49 E48.13188
G1 X61.909 Y48.546 E48.17855
G1 X61.983 Y48.559 E48.18896
G1 X61.944 Y48.649 E48.19204
G1 X61.859 Y48.843 E48.21303
G0 F3600 X62.088 Y49.711
G0 X63.112 Y50.807
G0 X63.559 Y52.132
G0 X63.468 Y53.532
G0 X62.849 Y54.785
G0 X61.626 Y57.946
G1 F1350 X61.871 Y58.45 E48.2907
G1 X62.271 Y58.812 E48.36547
G1 X62.779 Y58.998 E48.44045
G1 X63.319 Y58.978 E48.51535
G1 X63.813 Y58.758 E48.5903
G1 X64.187 Y58.366 E48.66539
G1 X64.235 Y58.246 E48.6833
G1 X64.386 Y57.866 E48.72791
G1 X64.384 Y57.323 E48.7689
G1 X64.175 Y56.822 E48.8262
G1 X64.171 Y56.818 E48.82698
G1 X63.797 Y56.439 E48.90078
G1 X63.3 Y56.226 E48.97572
G1 X62.759 Y56.213 E49.05073
G1 X62.253 Y56.406 E49.12579
G1 X61.858 Y56.775 E49.20071
G1 X61.624 Y57.281 E49.27797
G1 X61.626 Y57.946 E49.37014
G0 F3600 X58.979 Y59.344
G1 F1350 X58.305 Y59.621 E49.47114
G1 X57.701 Y60.026 E49.57193
G1 X57.188 Y60.546 E49.67317
G1 X56.792 Y61.159 E49.77432
G1 X56.528 Y61.838 E49.8753
G1 X56.405 Y62.556 E49.97626
G1 X56.43 Y63.285 E50.07736
G1 X56.601 Y63.995 E50.17858
G1 X56.911 Y64.654 E50.27952
G1 X57.347 Y65.238 E50.38053
G1 X57.892 Y65.722 E50.48155
G1 X58.524 Y66.086 E50.58264
G1 X59.215 Y66.316 E50.68358
G1 X59.939 Y66.403 E50.78464
G1 X60.666 Y66.341 E50.88577
G1 X61.364 Y66.134 E50.98668
G1 X62.008 Y65.792 E51.08774
G1 X62.569 Y65.326 E51.18883
G1 X63.026 Y64.757 E51.28998
G1 X63.357 Y64.108 E51.39095
G1 X63.551 Y63.406 E51.49189
G1 X63.601 Y62.679 E51.59289
G1 X63.503 Y61.956 E51.69402
G1 X63.261 Y61.267 E51.79523
G1 X62.886 Y60.643 E51.89614
G1 X62.392 Y60.106 E51.99727
G1 X61.802 Y59.68 E52.09813
G1 X61.136 Y59.38 E52.19937
G1 X60.425 Y59.222 E52.30032
G1 X59.696 Y59.21 E52.40137
G1 X58.979 Y59.344 E52.50247
G0 F3600 X56.805 Y58.835
G0 X55.626 Y57.946
G1 F1350 X55.762 Y58.226 E52.5374
G1 X55.871 Y58.45 E52.57193
G1 X56.271 Y58.812 E52.6467
G1 X56.779 Y58.998 E52.72168
G1 X57.319 Y58.978 E52.79658
G1 X57.813 Y58.758 E52.87153
G1 X58.187 Y58.366 E52.94662
G1 X58.386 Y57.866 E53.02121
G1 X58.384 Y57.323 E53.09647
G1 X58.175 Y56.822 E53.17171
G1 X57.797 Y56.439 E53.24629
G1 X57.3 Y56.226 E53.32123
G1 X56.759 Y56.213 E53.39624
G1 X56.253 Y56.406 E53.4713
G1 X55.858 Y56.775 E53.54622
G1 X55.82 Y56.857 E53.55874
G1 X55.624 Y57.281 E53.60874
G1 X55.626 Y57.946 E53.66142
G0 F3600 X55.091 Y67.355
G1 F1350 X55.21 Y67.6 E53.68202
G1 X55.214 Y67.609 E53.68338
G1 X55.336 Y67.859 E53.72194
G1 X55.737 Y68.222 E53.79691
G1 X56.245 Y68.407 E53.87184
G1 X56.784 Y68.387 E53.9466
G1 X57.277 Y68.167 E54.02142
G1 X57.651 Y67.777 E54.09631
G1 X57.851 Y67.275 E54.17121
G1 X57.849 Y66.732 E54.24647
G1 X57.64 Y66.232 E54.32158
G1 X57.261 Y65.848 E54.39636
G1 X56.765 Y65.635 E54.47118
G1 X56.223 Y65.622 E54.54632
G1 X55.718 Y65.816 E54.6213
G1 X55.44 Y66.076 E54.67406
G1 X55.323 Y66.185 E54.69284
G1 X55.089 Y66.689 E54.72997
G1 X55.089 Y66.962 E54.73547
G1 X55.09 Y67.173 E54.74137
G1 X55.091 Y67.355 E54.74945
G0 F3600 X55.822 Y68.082
G0 X62.161 Y67.355
G1 F1350 X62.406 Y67.86 E54.82724
G1 X62.808 Y68.222 E54.90222
G1 X63.316 Y68.407 E54.97715
G1 X63.854 Y68.387 E55.05177
G1 X64.348 Y68.168 E55.12667
G1 X64.722 Y67.777 E55.20166
G1 X64.832 Y67.499 E55.23631
G1 X64.922 Y67.275 E55.24858
G1 X64.921 Y67.001 E55.25697
G1 X64.92 Y66.732 E55.26175
G1 X64.711 Y66.232 E55.29043
G1 X64.562 Y66.081 E55.31419
G1 X64.332 Y65.848 E55.35956
G1 X63.835 Y65.635 E55.43451
G1 X63.294 Y65.622 E55.50951
G1 X62.789 Y65.816 E55.58449
G1 X62.393 Y66.184 E55.65942
G1 X62.159 Y66.689 E55.73656
G1 X62.161 Y67.355 E55.82887
G0 F3600 X62.561 Y67.262
;TYPE:WALL-OUTER
G1 F1350 X62.732 Y67.615 E55.88323
G1 X63.018 Y67.873 E55.93662
G1 X63.379 Y68.004 E55.98984
G1 X63.762 Y67.99 E56.04296
G1 X64.113 Y67.834 E56.0962
G1 X64.379 Y67.556 E56.14953
G1 X64.522 Y67.199 E56.20283
G1 X64.52 Y66.813 E56.25633
G1 X64.372 Y66.458 E56.30964
G1 X64.102 Y66.185 E56.36286
G1 X63.748 Y66.033 E56.41625
G1 X63.364 Y66.024 E56.46949
G1 X63.005 Y66.162 E56.5228
G1 X62.723 Y66.424 E56.57615
G1 X62.559 Y66.777 E56.63009
G1 X62.561 Y67.262 E56.69732
G0 F3600 X62.648 Y67.442
G0 X62.377 Y67.572
G0 X62.955 Y64.675
G0 X62.688 Y64.539
G1 F1350 X62.982 Y63.962 E56.78707
G1 X63.155 Y63.338 E56.87682
G1 X63.199 Y62.692 E56.96656
G1 X63.112 Y62.05 E57.05636
G1 X62.897 Y61.438 E57.14626
G1 X62.564 Y60.884 E57.23585
G1 X62.125 Y60.407 E57.3257
G1 X61.601 Y60.028 E57.41533
G1 X61.009 Y59.762 E57.50529
G1 X60.378 Y59.621 E57.5949
G1 X59.73 Y59.611 E57.68472
G1 X59.093 Y59.73 E57.77454
G1 X58.494 Y59.976 E57.86429
G1 X57.957 Y60.336 E57.95389
G1 X57.502 Y60.798 E58.04377
G1 X57.15 Y61.342 E58.13357
G1 X56.915 Y61.945 E58.22327
G1 X56.806 Y62.583 E58.31298
G1 X56.828 Y63.231 E58.40284
G1 X56.98 Y63.861 E58.49267
G1 X57.256 Y64.447 E58.58244
G1 X57.643 Y64.966 E58.67217
G1 X58.127 Y65.396 E58.76191
G1 X58.689 Y65.719 E58.85175
G1 X59.303 Y65.924 E58.94147
G1 X59.946 Y66.001 E59.03122
G1 X60.591 Y65.946 E59.12095
G1 X61.212 Y65.762 E59.21071
G1 X61.784 Y65.458 E59.30049
G1 X62.282 Y65.044 E59.39025
